; generated by PrusaSlicer 2.8.0 on 2024-08-20 at 00:41:37 UTC

; 

; external perimeters extrusion width = 0.90mm
; perimeters extrusion width = 0.90mm
; infill extrusion width = 0.90mm
; solid infill extrusion width = 0.90mm
; top infill extrusion width = 0.80mm

M190 S60 ; set bed temperature and wait for it to be reached
;TYPE:Custom
; Start GCODE (begins)

G28 ; home all axes
G1 Z5 F5000 ; lift nozzle

M109 S200 ; Do this now so we can purge

; Extrude a small amount of waste material
G92 E0
G1 E20 F200
G92 E0

; Start GCODE (ends)
G21 ; set units to millimeters
G90 ; use absolute coordinates
M82 ; use absolute distances for extrusion
G92 E0
; Filament gcode
M107
;LAYER_CHANGE
;Z:0.35
;HEIGHT:0.35
G1 E-.3 F2400
G1 Z.35 F9000
G1 X151.235 Y160.656
G1 E.1 F2400
G92 E0
;TYPE:Skirt/Brim
;WIDTH:0.9
G1 F1200
G1 X152.297 Y159.763 E.17488
G1 X154.209 Y158.572 E.45878
G1 X155.478 Y158.013 E.63355
G1 X156.801 Y157.594 E.80846
G1 X157.913 Y157.359 E.95171
G1 X159.282 Y157.209 E1.12528
G1 X160.419 Y157.195 E1.26859
G1 X161.792 Y157.314 E1.44228
G1 X162.891 Y157.519 E1.58318
G1 X164.241 Y157.911 E1.76035
G1 X165.287 Y158.33 E1.90236
G1 X166.527 Y158.975 E2.07852
G1 X168.342 Y160.276 E2.35997
G1 X169.344 Y161.235 E2.53478
G1 X170.249 Y162.312 E2.71208
G1 X171.428 Y164.209 E2.99358
G1 X171.987 Y165.478 E3.16835
G1 X172.411 Y166.819 E3.34561
G1 X172.641 Y167.913 E3.48651
G1 X172.792 Y169.292 E3.66135
G1 X172.805 Y170.419 E3.8034
G1 X172.683 Y171.811 E3.97951
G1 X172.176 Y173.986 E4.26098
G1 X171.67 Y175.287 E4.43692
G1 X171.165 Y176.284 E4.57778
G1 X170.414 Y177.463 E4.75396
G1 X169.54 Y178.552 E4.92995
G1 X168.758 Y179.351 E5.07086
G1 X167.688 Y180.249 E5.24692
G1 X166.765 Y180.88 E5.38784
G1 X165.549 Y181.547 E5.56264
G1 X164.513 Y181.99 E5.70465
G1 X163.181 Y182.411 E5.88071
G1 X162.087 Y182.641 E6.02161
G1 X160.708 Y182.792 E6.19645
G1 X159.581 Y182.805 E6.3385
G1 X158.208 Y182.686 E6.51219
G1 X157.091 Y182.477 E6.65541
G1 X155.759 Y182.089 E6.83026
G1 X154.722 Y181.674 E6.97103
G1 X153.473 Y181.025 E7.14843
G1 X151.658 Y179.724 E7.42988
G1 X150.649 Y178.758 E7.60593
G1 X149.922 Y177.91 E7.74671
G1 X149.12 Y176.765 E7.9229
G1 X148.572 Y175.791 E8.06375
G1 X148.013 Y174.522 E8.23852
G1 X147.662 Y173.451 E8.38057
G1 X147.359 Y172.087 E8.55667
G1 X147.208 Y170.708 E8.73151
G1 X147.195 Y169.591 E8.8723
G1 X147.314 Y168.209 E9.04712
G1 X147.523 Y167.091 E9.19047
G1 X147.911 Y165.759 E9.36532
G1 X148.831 Y163.724 E9.64679
G1 X149.575 Y162.553 E9.82164
G1 X150.447 Y161.463 E9.99757
G1 X151.151 Y160.742 E10.12457
G1 E9.82457 F2400
G92 E0
G92 E0
G1 X164.594 Y171.707 F9000
G1 E.4 F2400
;TYPE:External perimeter
;WIDTH:1.04294
G1 F1200
G1 X164.528 Y171.899 E.43002
G1 X164.166 Y172.608 E.54774
G1 X163.747 Y173.173 E.65176
G1 X163.185 Y173.746 E.77044
;WIDTH:1.03706
G1 X162.786 Y174.052 E.84434
G1 X162.114 Y174.436 E.9581
;WIDTH:1.0367
G1 X161.509 Y174.68 E1.05394
G1 X160.683 Y174.867 E1.17837
;WIDTH:1.04292
G1 X159.978 Y174.91 E1.28281
G1 X159.184 Y174.849 E1.40056
;WIDTH:1.03663
G1 X158.687 Y174.738 E1.47537
;WIDTH:1.04246
G1 X158.091 Y174.524 E1.56897
G1 X157.391 Y174.168 E1.68504
G1 X156.819 Y173.741 E1.79054
G1 X156.254 Y173.185 E1.9077
;WIDTH:1.0367
G1 X155.949 Y172.785 E1.9816
;WIDTH:1.04248
G1 X155.63 Y172.239 E2.07506
G1 X155.322 Y171.516 E2.19121
;WIDTH:1.03663
G1 X155.191 Y171.023 E2.26615
;WIDTH:1.04256
G1 X155.107 Y170.405 E2.35834
G1 X155.099 Y169.603 E2.47689
;WIDTH:1.03706
G1 X155.24 Y168.768 E2.60135
;WIDTH:1.04276
G1 X155.476 Y168.092 E2.70721
G1 X155.838 Y167.386 E2.82451
;WIDTH:1.04292
G1 X156.252 Y166.827 E2.92737
G1 X156.519 Y166.534 E2.98599
;WIDTH:1.04115
G1 X157.162 Y165.984 E3.11088
;WIDTH:1.04248
G1 X157.761 Y165.63 E3.21372
G1 X158.491 Y165.32 E3.33094
;WIDTH:1.0367
G1 X158.977 Y165.192 E3.40478
;WIDTH:1.04323
G1 X159.592 Y165.107 E3.49661
G1 X160.397 Y165.101 E3.61569
;WIDTH:1.03632
G1 X160.895 Y165.166 E3.68945
;WIDTH:1.04293
G1 X161.497 Y165.323 E3.78145
G1 X161.849 Y165.451 E3.83684
;WIDTH:1.04254
G1 X162.428 Y165.725 E3.93152
;WIDTH:1.03602
G1 X162.968 Y166.08 E4.0264
;WIDTH:1.04115
G1 X163.466 Y166.519 E4.12439
G1 X164.016 Y167.162 E4.24928
;WIDTH:1.0366
G1 X164.436 Y167.886 E4.37224
G1 X164.68 Y168.491 E4.46807
;WIDTH:1.03706
G1 X164.809 Y168.977 E4.54197
G1 X164.908 Y169.744 E4.65564
;WIDTH:1.0367
G1 X164.901 Y170.397 E4.75158
G1 X164.758 Y171.232 E4.87604
;WIDTH:1.04294
G1 X164.633 Y171.593 E4.93253
G1 X164.305 Y172.323 F9000
G1 X165.514 Y172.019
G1 F1200
G1 X165.422 Y172.269 E4.97192
G1 X165.204 Y172.732 E5.04759
;WIDTH:1.04323
G1 X164.795 Y173.397 E5.16307
G1 X164.489 Y173.794 E5.23721
;WIDTH:1.04301
G1 X164.141 Y174.171 E5.31308
;WIDTH:1.04115
G1 X163.764 Y174.518 E5.38871
;WIDTH:1.03706
G1 X163.355 Y174.829 E5.46423
;WIDTH:1.04526
G1 X162.919 Y175.098 E5.54017
G1 X162.22 Y175.442 E5.65565
;WIDTH:1.04102
G1 X161.748 Y175.614 E5.72979
;WIDTH:1.04527
G1 X161.251 Y175.74 E5.80579
G1 X160.49 Y175.856 E5.9199
;WIDTH:1.04292
G1 X159.978 Y175.877 E5.99567
G1 X159.467 Y175.854 E6.07131
;WIDTH:1.0411
G1 X158.925 Y175.78 E6.15205
;WIDTH:1.03682
G1 X158.369 Y175.644 E6.23616
;WIDTH:1.04246
G1 X157.721 Y175.417 E6.33764
G1 X157.267 Y175.204 E6.41176
;WIDTH:1.0411
G1 X156.754 Y174.896 E6.50007
;WIDTH:1.04253
G1 X156.198 Y174.481 E6.60262
G1 X155.829 Y174.141 E6.67679
;WIDTH:1.04115
G1 X155.456 Y173.73 E6.75871
;WIDTH:1.03655
G1 X155.122 Y173.275 E6.84162
;WIDTH:1.04248
G1 X154.772 Y172.685 E6.94301
G1 X154.561 Y172.23 E7.01714
;WIDTH:1.0411
G1 X154.377 Y171.716 E7.09772
;WIDTH:1.03682
G1 X154.241 Y171.159 E7.18197
;WIDTH:1.04256
G1 X154.144 Y170.49 E7.28189
G1 X154.122 Y169.978 E7.35764
;WIDTH:1.04114
G1 X154.144 Y169.467 E7.43313
;WIDTH:1.04551
G1 X154.217 Y168.959 E7.50922
G1 X154.357 Y168.368 E7.59927
;WIDTH:1.04276
G1 X154.583 Y167.721 E7.70059
G1 X154.796 Y167.268 E7.7746
;WIDTH:1.04265
G1 X155.199 Y166.611 E7.88854
;WIDTH:1.04292
G1 X155.512 Y166.206 E7.96423
G1 X155.859 Y165.829 E8.04
;WIDTH:1.04115
G1 X156.27 Y165.456 E8.12192
;WIDTH:1.03655
G1 X156.725 Y165.122 E8.20483
;WIDTH:1.04248
G1 X157.315 Y164.772 E8.30622
G1 X157.77 Y164.561 E8.38035
;WIDTH:1.04115
G1 X158.302 Y164.374 E8.46358
;WIDTH:1.04301
G1 X159.011 Y164.207 E8.5713
;WIDTH:1.04323
G1 X159.509 Y164.144 E8.64555
G1 X160.03 Y164.123 E8.72268
;WIDTH:1.04068
G1 X160.799 Y164.176 E8.8364
;WIDTH:1.04293
G1 X161.293 Y164.267 E8.91068
G1 X161.787 Y164.401 E8.98637
G1 X162.268 Y164.579 E9.06221
;WIDTH:1.04254
G1 X162.959 Y164.919 E9.17604
;WIDTH:1.04115
G1 X163.389 Y165.197 E9.25162
G1 X163.795 Y165.51 E9.32729
G1 X164.171 Y165.859 E9.40301
G1 X164.518 Y166.236 E9.47864
;WIDTH:1.03706
G1 X164.829 Y166.645 E9.55416
;WIDTH:1.04526
G1 X165.098 Y167.081 E9.6301
G1 X165.442 Y167.78 E9.74558
;WIDTH:1.04102
G1 X165.614 Y168.252 E9.81972
;WIDTH:1.03706
G1 X165.745 Y168.748 E9.89512
;WIDTH:1.04527
G1 X165.827 Y169.254 E9.9711
G1 X165.878 Y170.032 E10.08667
;WIDTH:1.04103
G1 X165.856 Y170.533 E10.16068
;WIDTH:1.04526
G1 X165.782 Y171.041 E10.23677
G1 X165.595 Y171.798 E10.35235
;WIDTH:1.04294
G1 X165.555 Y171.906 E10.36938
G1 X165.239 Y172.641 F9000
;LAYER_CHANGE
;Z:0.65
;HEIGHT:0.3
G1 Z.65 F9000
G1 X164.6 Y171.708
G92 E0
;WIDTH:1.03757
G1 F1362
G1 X164.348 Y172.275 E.07908
G1 X164.01 Y172.834 E.16234
G1 X163.455 Y173.485 E.27137
G1 X162.845 Y174.008 E.37378
;WIDTH:1.03708
G1 X162.238 Y174.368 E.46368
;WIDTH:1.03757
G1 X161.455 Y174.687 E.57144
G1 X160.692 Y174.863 E.67124
;WIDTH:1.02977
G1 X160.183 Y174.911 E.73588
;WIDTH:1.03114
G1 X159.623 Y174.9 E.80679
G1 X159.106 Y174.831 E.87283
;WIDTH:1.03757
G1 X158.504 Y174.674 E.95212
G1 X157.759 Y174.374 E1.05448
;WIDTH:1.0317
G1 X157.324 Y174.122 E1.11817
G1 X156.712 Y173.649 E1.21616
;WIDTH:1.03134
G1 X156.256 Y173.184 E1.29863
;WIDTH:1.0317
G1 X155.95 Y172.784 E1.36243
G1 X155.566 Y172.113 E1.46037
;WIDTH:1.03114
G1 X155.329 Y171.527 E1.5404
G1 X155.196 Y171.034 E1.60505
;WIDTH:1.03737
G1 X155.111 Y170.421 E1.68391
;WIDTH:1.03776
G1 X155.093 Y170.021 E1.73495
G1 X155.127 Y169.38 E1.81678
;WIDTH:1.0389
G1 X155.331 Y168.494 E1.93281
G1 X155.626 Y167.759 E2.03389
;WIDTH:1.0317
G1 X155.878 Y167.324 E2.09758
G1 X156.351 Y166.712 E2.19557
;WIDTH:1.02768
G1 X156.399 Y166.657 E2.20478
;WIDTH:1.03134
G1 X156.816 Y166.256 E2.27804
G1 X157.216 Y165.951 E2.34174
;WIDTH:1.03709
G1 X157.762 Y165.632 E2.42229
G1 X158.492 Y165.322 E2.52332
;WIDTH:1.03134
G1 X158.979 Y165.195 E2.58705
;WIDTH:1.03839
G1 X159.591 Y165.111 E2.66585
G1 X160.397 Y165.104 E2.76867
;WIDTH:1.03756
G1 X161.083 Y165.213 E2.8572
G1 X161.898 Y165.474 E2.96627
G1 X162.612 Y165.84 E3.06853
G1 X163.171 Y166.254 E3.15719
G1 X163.744 Y166.816 E3.25948
;WIDTH:1.0315
G1 X164.049 Y167.216 E3.32319
G1 X164.434 Y167.886 E3.42106
;WIDTH:1.03134
G1 X164.678 Y168.492 E3.50379
;WIDTH:1.0317
G1 X164.866 Y169.317 E3.61098
;WIDTH:1.03792
G1 X164.906 Y170.031 E3.70216
G1 X164.845 Y170.823 E3.80344
;WIDTH:1.03132
G1 X164.641 Y171.596 E3.90468
G1 X164.304 Y172.322 F9000
G1 X165.509 Y172.018
;WIDTH:1.03989
G1 F1362
G1 X165.419 Y172.28 E3.94007
;WIDTH:1.03756
G1 X165.071 Y172.965 E4.03799
;WIDTH:1.03542
G1 X164.798 Y173.399 E4.10319
;WIDTH:1.03757
G1 X164.491 Y173.796 E4.16715
G1 X164.143 Y174.173 E4.23254
G1 X163.764 Y174.518 E4.29786
;WIDTH:1.03578
G1 X163.276 Y174.88 E4.37516
;WIDTH:1.03708
G1 X162.686 Y175.23 E4.46255
;WIDTH:1.03756
G1 X162.23 Y175.44 E4.52653
G1 X161.748 Y175.614 E4.59184
G1 X161.252 Y175.745 E4.65722
;WIDTH:1.03532
G1 X160.508 Y175.859 E4.75293
;WIDTH:1.03563
G1 X159.977 Y175.881 E4.82053
G1 X159.437 Y175.853 E4.88931
;WIDTH:1.03756
G1 X158.696 Y175.733 E4.98498
G1 X158.212 Y175.601 E5.04892
G1 X157.73 Y175.425 E5.11432
;WIDTH:1.03578
G1 X157.265 Y175.208 E5.1796
;WIDTH:1.0317
G1 X156.821 Y174.95 E5.24465
;WIDTH:1.03989
G1 X156.405 Y174.65 E5.31017
G1 X155.819 Y174.135 E5.40984
;WIDTH:1.03566
G1 X155.48 Y173.765 E5.47367
;WIDTH:1.0317
G1 X155.169 Y173.357 E5.53866
;WIDTH:1.03989
G1 X154.899 Y172.921 E5.60418
G1 X154.555 Y172.221 E5.70382
;WIDTH:1.03553
G1 X154.378 Y171.73 E5.7702
;WIDTH:1.03187
G1 X154.238 Y171.16 E5.84457
;WIDTH:1.03737
G1 X154.143 Y170.507 E5.92865
;WIDTH:1.03776
G1 X154.12 Y169.977 E5.99628
G1 X154.169 Y169.285 E6.08471
;WIDTH:1.043
G1 X154.264 Y168.723 E6.15776
G1 X154.4 Y168.21 E6.22578
;WIDTH:1.0389
G1 X154.575 Y167.73 E6.29098
;WIDTH:1.03578
G1 X154.792 Y167.265 E6.35626
;WIDTH:1.0317
G1 X155.05 Y166.821 E6.42131
;WIDTH:1.03989
G1 X155.35 Y166.405 E6.48683
G1 X155.865 Y165.819 E6.5865
;WIDTH:1.03566
G1 X156.268 Y165.454 E6.65566
;WIDTH:1.03124
G1 X156.724 Y165.12 E6.72723
;WIDTH:1.03709
G1 X157.314 Y164.77 E6.81462
G1 X157.769 Y164.559 E6.87851
;WIDTH:1.03578
G1 X158.302 Y164.371 E6.95041
;WIDTH:1.03778
G1 X159.011 Y164.205 E7.04324
;WIDTH:1.03839
G1 X159.509 Y164.141 E7.10729
G1 X160.047 Y164.121 E7.17596
;WIDTH:1.03757
G1 X160.799 Y164.175 E7.27205
G1 X161.293 Y164.264 E7.33602
G1 X161.788 Y164.399 E7.40141
G1 X162.27 Y164.576 E7.46685
G1 X162.733 Y164.794 E7.53207
G1 X163.399 Y165.202 E7.63161
G1 X163.796 Y165.509 E7.69557
G1 X164.173 Y165.857 E7.76096
;WIDTH:1.03578
G1 X164.52 Y166.235 E7.82624
;WIDTH:1.03169
G1 X164.831 Y166.643 E7.89123
;WIDTH:1.03962
G1 X165.113 Y167.102 E7.96003
G1 X165.445 Y167.779 E8.05633
;WIDTH:1.03567
G1 X165.617 Y168.251 E8.12023
;WIDTH:1.04013
G1 X165.744 Y168.748 E8.18578
G1 X165.841 Y169.35 E8.2637
;WIDTH:1.03792
G1 X165.879 Y170.032 E8.35079
G1 X165.857 Y170.534 E8.41485
;WIDTH:1.03547
G1 X165.79 Y171.042 E8.48001
;WIDTH:1.03989
G1 X165.672 Y171.541 E8.54552
G1 X165.548 Y171.904 E8.59453
G1 X165.229 Y172.638 F9000
;LAYER_CHANGE
;Z:0.95
;HEIGHT:0.3
G1 Z.95 F9000
G1 X164.592 Y171.706
G92 E0
;WIDTH:1.03708
G1 F1362
G1 X164.522 Y171.908 E.02723
;WIDTH:1.03737
G1 X164.369 Y172.236 E.07335
G1 X164.03 Y172.811 E.15841
;WIDTH:1.03149
G1 X163.644 Y173.297 E.23702
;WIDTH:1.03057
G1 X163.272 Y173.666 E.30332
;WIDTH:1.03132
G1 X162.844 Y174.008 E.3727
;WIDTH:1.03755
G1 X162.273 Y174.348 E.4574
G1 X161.895 Y174.527 E.5107
G1 X161.312 Y174.735 E.58959
;WIDTH:1.03096
G1 X160.704 Y174.861 E.66819
;WIDTH:1.02954
G1 X160.184 Y174.911 E.73422
;WIDTH:1.03103
G1 X159.635 Y174.901 E.80373
;WIDTH:1.03124
G1 X159.126 Y174.837 E.86869
G1 X158.359 Y174.63 E.96928
G1 X157.759 Y174.374 E1.05188
G1 X157.043 Y173.922 E1.15909
;WIDTH:1.03756
G1 X156.515 Y173.455 E1.24893
G1 X155.968 Y172.797 E1.35798
G1 X155.561 Y172.105 E1.4603
;WIDTH:1.03103
G1 X155.333 Y171.539 E1.53755
;WIDTH:1.03124
G1 X155.197 Y171.043 E1.60267
G1 X155.095 Y170.256 E1.70315
;WIDTH:1.03103
G1 X155.099 Y169.635 E1.78177
;WIDTH:1.03179
G1 X155.242 Y168.771 E1.89272
;WIDTH:1.0384
G1 X155.479 Y168.095 E1.9841
G1 X155.838 Y167.385 E2.08559
;WIDTH:1.03131
G1 X156.35 Y166.713 E2.19257
;WIDTH:1.02872
G1 X156.406 Y166.65 E2.20322
;WIDTH:1.03757
G1 X156.862 Y166.227 E2.28249
G1 X157.515 Y165.76 E2.38481
;WIDTH:1.03518
G1 X158.111 Y165.468 E2.46919
G1 X158.739 Y165.252 E2.55362
;WIDTH:1.03886
G1 X159.589 Y165.112 E2.66356
G1 X159.997 Y165.094 E2.71568
;WIDTH:1.03838
G1 X160.68 Y165.141 E2.80301
G1 X161.496 Y165.326 E2.90974
;WIDTH:1.03757
G1 X162.241 Y165.626 E3.0121
;WIDTH:1.03134
G1 X162.675 Y165.879 E3.07572
;WIDTH:1.03757
G1 X163.171 Y166.254 E3.15497
G1 X163.744 Y166.816 E3.25726
;WIDTH:1.0317
G1 X164.05 Y167.216 E3.32106
G1 X164.434 Y167.887 E3.419
;WIDTH:1.03134
G1 X164.678 Y168.492 E3.50161
;WIDTH:1.0317
G1 X164.807 Y168.978 E3.56531
G1 X164.905 Y169.744 E3.66314
;WIDTH:1.03134
G1 X164.899 Y170.396 E3.74571
;WIDTH:1.0317
G1 X164.758 Y171.231 E3.85299
;WIDTH:1.03708
G1 X164.632 Y171.593 E3.90182
G1 X164.303 Y172.322 F9000
G1 X165.511 Y172.018
G1 F1362
G1 X165.42 Y172.28 E3.93715
;WIDTH:1.03737
G1 X165.205 Y172.733 E4.00104
G1 X164.8 Y173.4 E4.10047
;WIDTH:1.03557
G1 X164.491 Y173.796 E4.16436
G1 X164.144 Y174.174 E4.22962
;WIDTH:1.03528
G1 X163.764 Y174.519 E4.29488
G1 X163.277 Y174.879 E4.37188
;WIDTH:1.03755
G1 X162.724 Y175.209 E4.45395
G1 X162.228 Y175.441 E4.52374
G1 X161.748 Y175.614 E4.58877
G1 X161.252 Y175.745 E4.65415
;WIDTH:1.03526
G1 X160.524 Y175.857 E4.7478
;WIDTH:1.03554
G1 X159.976 Y175.881 E4.81756
G1 X159.46 Y175.857 E4.88326
;WIDTH:1.03225
G1 X158.958 Y175.79 E4.94745
;WIDTH:1.03989
G1 X158.459 Y175.672 E5.01296
G1 X157.72 Y175.42 E5.11271
;WIDTH:1.03566
G1 X157.265 Y175.208 E5.17656
;WIDTH:1.03989
G1 X156.824 Y174.946 E5.24209
G1 X156.196 Y174.483 E5.34177
;WIDTH:1.03756
G1 X155.827 Y174.143 E5.40572
G1 X155.482 Y173.763 E5.47113
G1 X155.171 Y173.355 E5.53651
G1 X154.898 Y172.922 E5.60175
;WIDTH:1.03544
G1 X154.555 Y172.221 E5.701
G1 X154.382 Y171.743 E5.76565
;WIDTH:1.03225
G1 X154.252 Y171.253 E5.82991
;WIDTH:1.03989
G1 X154.17 Y170.746 E5.89552
G1 X154.12 Y169.968 E5.99512
;WIDTH:1.03544
G1 X154.143 Y169.455 E6.06042
;WIDTH:1.04093
G1 X154.215 Y168.958 E6.12465
G1 X154.355 Y168.363 E6.20282
;WIDTH:1.0384
G1 X154.581 Y167.72 E6.28976
G1 X154.793 Y167.266 E6.35368
;WIDTH:1.03528
G1 X155.05 Y166.821 E6.41902
;WIDTH:1.03989
G1 X155.35 Y166.405 E6.48454
G1 X155.865 Y165.82 E6.58411
;WIDTH:1.03757
G1 X156.237 Y165.482 E6.64817
G1 X156.644 Y165.171 E6.71345
;WIDTH:1.03578
G1 X157.124 Y164.872 E6.78539
;WIDTH:1.03518
G1 X157.779 Y164.556 E6.87785
G1 X158.509 Y164.311 E6.97575
;WIDTH:1.03788
G1 X159 Y164.206 E7.03976
;WIDTH:1.03886
G1 X159.509 Y164.142 E7.10523
G1 X160.063 Y164.123 E7.17597
;WIDTH:1.03838
G1 X160.798 Y164.175 E7.26996
G1 X161.293 Y164.264 E7.33411
;WIDTH:1.03757
G1 X161.788 Y164.399 E7.3995
G1 X162.27 Y164.575 E7.4649
;WIDTH:1.03578
G1 X162.78 Y164.819 E7.53682
;WIDTH:1.03756
G1 X163.399 Y165.202 E7.62959
G1 X163.796 Y165.509 E7.69355
G1 X164.173 Y165.857 E7.75894
;WIDTH:1.03578
G1 X164.52 Y166.235 E7.82422
;WIDTH:1.0317
G1 X164.831 Y166.643 E7.88921
;WIDTH:1.03989
G1 X165.101 Y167.079 E7.95473
G1 X165.445 Y167.779 E8.05437
;WIDTH:1.03566
G1 X165.617 Y168.251 E8.11827
;WIDTH:1.0317
G1 X165.748 Y168.747 E8.18326
;WIDTH:1.03989
G1 X165.83 Y169.254 E8.24887
G1 X165.88 Y170.032 E8.34847
;WIDTH:1.03566
G1 X165.859 Y170.534 E8.41238
;WIDTH:1.04013
G1 X165.786 Y171.042 E8.47796
G1 X165.646 Y171.633 E8.55557
;WIDTH:1.03708
G1 X165.551 Y171.905 E8.59227
G1 X165.24 Y172.642 F9000
M106 S252.45
;LAYER_CHANGE
