; generated by PrusaSlicer 2.7.1 on 2024-08-18 at 04:13:20 UTC

; 

; external perimeters extrusion width = 0.90mm
; perimeters extrusion width = 0.90mm
; infill extrusion width = 0.90mm
; solid infill extrusion width = 0.90mm
; top infill extrusion width = 0.80mm

M190 S60 ; set bed temperature and wait for it to be reached
;TYPE:Custom
; Start GCODE (begins)

G28 ; home all axes
G1 Z5 F5000 ; lift nozzle

M109 S200 ; Do this now so we can purge

; Extrude a small amount of waste material
G92 E0
G1 E20 F200
G92 E0

; Start GCODE (ends)
G21 ; set units to millimeters
G90 ; use absolute coordinates
M82 ; use absolute distances for extrusion
G92 E0
; Filament gcode
M107
;LAYER_CHANGE
;Z:0.35
;HEIGHT:0.35
G1 Z.43 F9000
G1 E-.3 F2400
G92 E0
G1 X150.95 Y160.358 F9000
G1 E.4 F2400
;TYPE:Skirt/Brim
;WIDTH:0.9
G1 F1200
G1 X152.052 Y159.431 E.58149
G1 X153.021 Y158.768 E.72947
G1 X154.026 Y158.202 E.87484
G1 X155.328 Y157.629 E1.05412
G1 X156.702 Y157.194 E1.23576
G1 X157.85 Y156.952 E1.38363
G1 X159.254 Y156.797 E1.56166
G1 X160.428 Y156.783 E1.70963
G1 X161.854 Y156.907 E1.89003
G1 X162.988 Y157.118 E2.03541
G1 X164.373 Y157.52 E2.21717
G1 X165.453 Y157.953 E2.36382
G1 X166.741 Y158.623 E2.5468
G1 X167.707 Y159.254 E2.69222
G1 X168.614 Y159.966 E2.83755
G1 X169.642 Y160.95 E3.0169
G1 X170.581 Y162.068 E3.20091
G1 X171.232 Y163.021 E3.34637
G1 X171.798 Y164.026 E3.49174
G1 X172.371 Y165.328 E3.67102
G1 X172.811 Y166.721 E3.85514
G1 X173.048 Y167.85 E4.00053
G1 X173.204 Y169.264 E4.17982
G1 X173.217 Y170.428 E4.32653
G1 X173.091 Y171.874 E4.50947
G1 X172.878 Y173.007 E4.65477
G1 X172.566 Y174.118 E4.80021
G1 X172.047 Y175.453 E4.98073
G1 X171.526 Y176.483 E5.12621
G1 X170.746 Y177.707 E5.30914
G1 X169.85 Y178.824 E5.48962
G1 X169.043 Y179.649 E5.63507
G1 X167.932 Y180.581 E5.81784
G1 X166.979 Y181.232 E5.9633
G1 X165.732 Y181.917 E6.14262
G1 X164.662 Y182.375 E6.28931
G1 X163.566 Y182.734 E6.43466
G1 X162.15 Y183.048 E6.61746
G1 X160.736 Y183.204 E6.79675
G1 X159.572 Y183.217 E6.94346
G1 X158.146 Y183.093 E7.12386
G1 X156.993 Y182.878 E7.27168
G1 X155.627 Y182.48 E7.451
G1 X154.555 Y182.051 E7.59653
G1 X153.259 Y181.377 E7.78064
G1 X152.293 Y180.746 E7.92606
G1 X151.386 Y180.034 E8.07139
G1 X150.351 Y179.043 E8.25199
G1 X149.419 Y177.932 E8.43476
G1 X148.768 Y176.979 E8.58022
G1 X148.202 Y175.974 E8.72559
G1 X147.629 Y174.672 E8.90487
G1 X147.266 Y173.566 E9.05158
G1 X146.952 Y172.15 E9.23438
G1 X146.796 Y170.736 E9.41367
G1 X146.783 Y169.582 E9.55912
G1 X146.907 Y168.146 E9.74078
G1 X147.122 Y166.993 E9.8886
G1 X147.52 Y165.627 E10.06792
G1 X147.949 Y164.555 E10.21345
G1 X148.469 Y163.526 E10.35876
G1 X149.242 Y162.31 E10.54036
G1 X150.137 Y161.191 E10.72095
G1 X150.866 Y160.444 E10.8525
G1 E10.5525 F2400
G92 E0
G1 X150.866 Y160.444 F9000
G1 X165.139 Y167.164
G1 E.4 F2400
;TYPE:External perimeter
;WIDTH:1.04526
G1 F1200
G1 X165.442 Y167.78 E.50176
;WIDTH:1.04102
G1 X165.614 Y168.252 E.5759
;WIDTH:1.03706
G1 X165.745 Y168.748 E.6513
;WIDTH:1.04527
G1 X165.827 Y169.254 E.72728
G1 X165.878 Y170.032 E.84285
;WIDTH:1.04103
G1 X165.856 Y170.533 E.91686
;WIDTH:1.04526
G1 X165.782 Y171.041 E.99295
G1 X165.595 Y171.798 E1.10853
;WIDTH:1.04294
G1 X165.422 Y172.269 E1.18273
G1 X165.204 Y172.732 E1.2584
;WIDTH:1.04323
G1 X164.795 Y173.397 E1.37388
G1 X164.489 Y173.794 E1.44802
;WIDTH:1.04301
G1 X164.141 Y174.171 E1.52389
;WIDTH:1.04115
G1 X163.764 Y174.518 E1.59952
;WIDTH:1.03706
G1 X163.355 Y174.829 E1.67504
;WIDTH:1.04526
G1 X162.919 Y175.098 E1.75098
G1 X162.22 Y175.442 E1.86646
;WIDTH:1.04102
G1 X161.748 Y175.614 E1.9406
;WIDTH:1.04527
G1 X161.251 Y175.74 E2.0166
G1 X160.49 Y175.856 E2.13071
;WIDTH:1.04292
G1 X159.978 Y175.877 E2.20648
G1 X159.467 Y175.854 E2.28212
;WIDTH:1.0411
G1 X158.925 Y175.78 E2.36286
;WIDTH:1.03682
G1 X158.369 Y175.644 E2.44697
;WIDTH:1.04246
G1 X157.721 Y175.417 E2.54845
G1 X157.267 Y175.204 E2.62257
;WIDTH:1.0411
G1 X156.754 Y174.896 E2.71088
;WIDTH:1.04253
G1 X156.198 Y174.481 E2.81343
G1 X155.829 Y174.141 E2.8876
;WIDTH:1.04115
G1 X155.456 Y173.73 E2.96952
;WIDTH:1.03655
G1 X155.122 Y173.275 E3.05243
;WIDTH:1.04248
G1 X154.772 Y172.685 E3.15382
G1 X154.561 Y172.23 E3.22795
;WIDTH:1.0411
G1 X154.377 Y171.716 E3.30853
;WIDTH:1.03682
G1 X154.241 Y171.159 E3.39278
;WIDTH:1.04256
G1 X154.144 Y170.49 E3.4927
G1 X154.122 Y169.978 E3.56845
;WIDTH:1.04114
G1 X154.144 Y169.467 E3.64394
;WIDTH:1.04551
G1 X154.217 Y168.959 E3.72003
G1 X154.357 Y168.368 E3.81008
;WIDTH:1.04276
G1 X154.583 Y167.721 E3.9114
G1 X154.796 Y167.268 E3.98541
;WIDTH:1.04265
G1 X155.199 Y166.611 E4.09935
;WIDTH:1.04292
G1 X155.512 Y166.206 E4.17504
G1 X155.859 Y165.829 E4.25081
;WIDTH:1.04115
G1 X156.27 Y165.456 E4.33273
;WIDTH:1.03655
G1 X156.725 Y165.122 E4.41564
;WIDTH:1.04248
G1 X157.315 Y164.772 E4.51703
G1 X157.77 Y164.561 E4.59116
;WIDTH:1.04115
G1 X158.302 Y164.374 E4.67439
;WIDTH:1.04301
G1 X159.011 Y164.207 E4.78211
;WIDTH:1.04323
G1 X159.509 Y164.144 E4.85636
G1 X160.03 Y164.123 E4.93349
;WIDTH:1.04068
G1 X160.799 Y164.176 E5.04721
;WIDTH:1.04293
G1 X161.293 Y164.267 E5.12149
G1 X161.787 Y164.401 E5.19718
G1 X162.268 Y164.579 E5.27302
;WIDTH:1.04254
G1 X162.959 Y164.919 E5.38685
;WIDTH:1.04115
G1 X163.389 Y165.197 E5.46243
G1 X163.795 Y165.51 E5.5381
G1 X164.171 Y165.859 E5.61382
G1 X164.518 Y166.236 E5.68945
;WIDTH:1.03706
G1 X164.829 Y166.645 E5.76497
;WIDTH:1.04526
G1 X165.084 Y167.058 E5.83692
G1 X165.43 Y167.779 F9000
G1 E5.53692 F2400
G92 E0
G1 X164.781 Y171.094 F9000
G1 E.4 F2400
;WIDTH:1.0367
G1 F1200
G1 X164.758 Y171.232 E.42055
;WIDTH:1.04294
G1 X164.528 Y171.899 E.52488
G1 X164.166 Y172.608 E.6426
G1 X163.747 Y173.173 E.74662
G1 X163.185 Y173.746 E.8653
;WIDTH:1.03706
G1 X162.786 Y174.052 E.9392
G1 X162.114 Y174.436 E1.05296
;WIDTH:1.0367
G1 X161.509 Y174.68 E1.1488
G1 X160.683 Y174.867 E1.27323
;WIDTH:1.04292
G1 X159.978 Y174.91 E1.37767
G1 X159.184 Y174.849 E1.49542
;WIDTH:1.03663
G1 X158.687 Y174.738 E1.57023
;WIDTH:1.04246
G1 X158.091 Y174.524 E1.66383
G1 X157.391 Y174.168 E1.7799
G1 X156.819 Y173.741 E1.8854
G1 X156.254 Y173.185 E2.00256
;WIDTH:1.0367
G1 X155.949 Y172.785 E2.07646
;WIDTH:1.04248
G1 X155.63 Y172.239 E2.16992
G1 X155.322 Y171.516 E2.28607
;WIDTH:1.03663
G1 X155.191 Y171.023 E2.36101
;WIDTH:1.04256
G1 X155.107 Y170.405 E2.4532
G1 X155.099 Y169.603 E2.57175
;WIDTH:1.03706
G1 X155.24 Y168.768 E2.69621
;WIDTH:1.04276
G1 X155.476 Y168.092 E2.80207
G1 X155.838 Y167.386 E2.91937
;WIDTH:1.04292
G1 X156.252 Y166.827 E3.02223
G1 X156.519 Y166.534 E3.08085
;WIDTH:1.04115
G1 X157.162 Y165.984 E3.20574
;WIDTH:1.04248
G1 X157.761 Y165.63 E3.30858
G1 X158.491 Y165.32 E3.4258
;WIDTH:1.0367
G1 X158.977 Y165.192 E3.49964
;WIDTH:1.04323
G1 X159.592 Y165.107 E3.59147
G1 X160.397 Y165.101 E3.71055
;WIDTH:1.03632
G1 X160.895 Y165.166 E3.78431
;WIDTH:1.04293
G1 X161.497 Y165.323 E3.87631
G1 X161.849 Y165.451 E3.9317
;WIDTH:1.04254
G1 X162.428 Y165.725 E4.02638
;WIDTH:1.03602
G1 X162.968 Y166.08 E4.12126
;WIDTH:1.04115
G1 X163.466 Y166.519 E4.21925
G1 X164.016 Y167.162 E4.34414
;WIDTH:1.0366
G1 X164.436 Y167.886 E4.4671
G1 X164.68 Y168.491 E4.56293
;WIDTH:1.03706
G1 X164.809 Y168.977 E4.63683
G1 X164.908 Y169.744 E4.7505
;WIDTH:1.0367
G1 X164.901 Y170.397 E4.84644
G1 X164.802 Y170.976 E4.93274
G1 X164.576 Y171.744 F9000
;LAYER_CHANGE
;Z:0.65
;HEIGHT:0.3
G1 Z.73 F9000
M104 S190 ; set temperature
G1 E4.63274 F2400
G92 E0
G1 X165.336 Y172.038 F9000
G1 X165.068 Y167.362
G1 X165.008 Y167.252
G1 X165.149 Y167.175
G1 E.4 F2400
;WIDTH:1.03962
G1 F1400
G1 X165.445 Y167.779 E.48591
;WIDTH:1.03567
G1 X165.617 Y168.251 E.54981
;WIDTH:1.04013
G1 X165.744 Y168.748 E.61536
G1 X165.841 Y169.35 E.69328
;WIDTH:1.03792
G1 X165.879 Y170.032 E.78037
G1 X165.857 Y170.534 E.84443
;WIDTH:1.03547
G1 X165.79 Y171.042 E.90959
;WIDTH:1.03989
G1 X165.672 Y171.541 E.9751
G1 X165.419 Y172.28 E1.07489
;WIDTH:1.03756
G1 X165.071 Y172.965 E1.17281
;WIDTH:1.03542
G1 X164.798 Y173.399 E1.23801
;WIDTH:1.03757
G1 X164.491 Y173.796 E1.30197
G1 X164.143 Y174.173 E1.36736
G1 X163.764 Y174.518 E1.43268
;WIDTH:1.03578
G1 X163.276 Y174.88 E1.50998
;WIDTH:1.03708
G1 X162.686 Y175.23 E1.59737
;WIDTH:1.03756
G1 X162.23 Y175.44 E1.66135
G1 X161.748 Y175.614 E1.72666
G1 X161.252 Y175.745 E1.79204
;WIDTH:1.03532
G1 X160.508 Y175.859 E1.88775
;WIDTH:1.03563
G1 X159.977 Y175.881 E1.95535
G1 X159.437 Y175.853 E2.02413
;WIDTH:1.03756
G1 X158.696 Y175.733 E2.1198
G1 X158.212 Y175.601 E2.18374
G1 X157.73 Y175.425 E2.24914
;WIDTH:1.03578
G1 X157.265 Y175.208 E2.31442
;WIDTH:1.0317
G1 X156.821 Y174.95 E2.37947
;WIDTH:1.03989
G1 X156.405 Y174.65 E2.44499
G1 X155.819 Y174.135 E2.54466
;WIDTH:1.03566
G1 X155.48 Y173.765 E2.60849
;WIDTH:1.0317
G1 X155.169 Y173.357 E2.67348
;WIDTH:1.03989
G1 X154.899 Y172.921 E2.739
G1 X154.555 Y172.221 E2.83864
;WIDTH:1.03553
G1 X154.378 Y171.73 E2.90502
;WIDTH:1.03187
G1 X154.238 Y171.16 E2.97939
;WIDTH:1.03737
G1 X154.143 Y170.507 E3.06347
;WIDTH:1.03776
G1 X154.12 Y169.977 E3.1311
G1 X154.169 Y169.285 E3.21953
;WIDTH:1.043
G1 X154.264 Y168.723 E3.29258
G1 X154.4 Y168.21 E3.3606
;WIDTH:1.0389
G1 X154.575 Y167.73 E3.4258
;WIDTH:1.03578
G1 X154.792 Y167.265 E3.49108
;WIDTH:1.0317
G1 X155.05 Y166.821 E3.55613
;WIDTH:1.03989
G1 X155.35 Y166.405 E3.62165
G1 X155.865 Y165.819 E3.72132
;WIDTH:1.03566
G1 X156.268 Y165.454 E3.79048
;WIDTH:1.03124
G1 X156.724 Y165.12 E3.86205
;WIDTH:1.03709
G1 X157.314 Y164.77 E3.94944
G1 X157.769 Y164.559 E4.01333
;WIDTH:1.03578
G1 X158.302 Y164.371 E4.08523
;WIDTH:1.03778
G1 X159.011 Y164.205 E4.17806
;WIDTH:1.03839
G1 X159.509 Y164.141 E4.24211
G1 X160.047 Y164.121 E4.31078
;WIDTH:1.03757
G1 X160.799 Y164.175 E4.40687
G1 X161.293 Y164.264 E4.47084
G1 X161.788 Y164.399 E4.53623
G1 X162.27 Y164.576 E4.60167
G1 X162.733 Y164.794 E4.66689
G1 X163.399 Y165.202 E4.76643
G1 X163.796 Y165.509 E4.83039
G1 X164.173 Y165.857 E4.89578
;WIDTH:1.03578
G1 X164.52 Y166.235 E4.96106
;WIDTH:1.03169
G1 X164.831 Y166.643 E5.02605
;WIDTH:1.03962
G1 X165.093 Y167.069 E5.08993
G1 X165.437 Y167.791 F9000
G1 E4.78993 F2400
G92 E0
G1 X164.767 Y171.121 F9000
G1 E.4 F2400
;WIDTH:1.03132
G1 F1400
G1 X164.63 Y171.64 E.46797
;WIDTH:1.03757
G1 X164.348 Y172.275 E.55652
G1 X164.01 Y172.834 E.63978
G1 X163.455 Y173.485 E.74881
G1 X162.845 Y174.008 E.85122
;WIDTH:1.03708
G1 X162.238 Y174.368 E.94112
;WIDTH:1.03757
G1 X161.455 Y174.687 E1.04888
G1 X160.692 Y174.863 E1.14868
;WIDTH:1.02977
G1 X160.183 Y174.911 E1.21332
;WIDTH:1.03114
G1 X159.623 Y174.9 E1.28423
G1 X159.106 Y174.831 E1.35027
;WIDTH:1.03757
G1 X158.504 Y174.674 E1.42956
G1 X157.759 Y174.374 E1.53192
;WIDTH:1.0317
G1 X157.324 Y174.122 E1.59561
G1 X156.712 Y173.649 E1.6936
;WIDTH:1.03134
G1 X156.256 Y173.184 E1.77607
;WIDTH:1.0317
G1 X155.95 Y172.784 E1.83987
G1 X155.566 Y172.113 E1.93781
;WIDTH:1.03114
G1 X155.329 Y171.527 E2.01784
G1 X155.196 Y171.034 E2.08249
;WIDTH:1.03737
G1 X155.111 Y170.421 E2.16135
;WIDTH:1.03776
G1 X155.093 Y170.021 E2.21239
G1 X155.127 Y169.38 E2.29422
;WIDTH:1.0389
G1 X155.331 Y168.494 E2.41025
G1 X155.626 Y167.759 E2.51133
;WIDTH:1.0317
G1 X155.878 Y167.324 E2.57502
G1 X156.351 Y166.712 E2.67301
;WIDTH:1.02768
G1 X156.399 Y166.657 E2.68222
;WIDTH:1.03134
G1 X156.816 Y166.256 E2.75548
G1 X157.216 Y165.951 E2.81918
;WIDTH:1.03709
G1 X157.762 Y165.632 E2.89973
G1 X158.492 Y165.322 E3.00076
;WIDTH:1.03134
G1 X158.979 Y165.195 E3.06449
;WIDTH:1.03839
G1 X159.591 Y165.111 E3.14329
G1 X160.397 Y165.104 E3.24611
;WIDTH:1.03756
G1 X161.083 Y165.213 E3.33464
G1 X161.898 Y165.474 E3.44371
G1 X162.612 Y165.84 E3.54597
G1 X163.171 Y166.254 E3.63463
G1 X163.744 Y166.816 E3.73692
;WIDTH:1.0315
G1 X164.049 Y167.216 E3.80063
G1 X164.434 Y167.886 E3.8985
;WIDTH:1.03134
G1 X164.678 Y168.492 E3.98123
;WIDTH:1.0317
G1 X164.866 Y169.317 E4.08842
;WIDTH:1.03792
G1 X164.906 Y170.031 E4.1796
G1 X164.845 Y170.823 E4.28088
;WIDTH:1.03132
G1 X164.798 Y171.004 E4.30456
G1 X164.558 Y171.768 F9000
;LAYER_CHANGE
;Z:0.95
;HEIGHT:0.3
G1 Z1.03 F9000
G1 E4.00456 F2400
G92 E0
G1 X165.325 Y172.065 F9000
G1 X165.068 Y167.362
G1 X165.014 Y167.265
G1 X165.154 Y167.188
G1 E.4 F2400
;WIDTH:1.03989
G1 F1400
G1 X165.445 Y167.779 E.48416
;WIDTH:1.03566
G1 X165.617 Y168.251 E.54806
;WIDTH:1.0317
G1 X165.748 Y168.747 E.61305
;WIDTH:1.03989
G1 X165.83 Y169.254 E.67866
G1 X165.88 Y170.032 E.77826
;WIDTH:1.03566
G1 X165.859 Y170.534 E.84217
;WIDTH:1.04013
G1 X165.786 Y171.042 E.90775
G1 X165.646 Y171.633 E.98536
;WIDTH:1.03708
G1 X165.42 Y172.28 E1.07266
;WIDTH:1.03737
G1 X165.205 Y172.733 E1.13655
G1 X164.8 Y173.4 E1.23598
;WIDTH:1.03557
G1 X164.491 Y173.796 E1.29987
G1 X164.144 Y174.174 E1.36513
;WIDTH:1.03528
G1 X163.764 Y174.519 E1.43039
G1 X163.277 Y174.879 E1.50739
;WIDTH:1.03755
G1 X162.724 Y175.209 E1.58946
G1 X162.228 Y175.441 E1.65925
G1 X161.748 Y175.614 E1.72428
G1 X161.252 Y175.745 E1.78966
;WIDTH:1.03526
G1 X160.524 Y175.857 E1.88331
;WIDTH:1.03554
G1 X159.976 Y175.881 E1.95307
G1 X159.46 Y175.857 E2.01877
;WIDTH:1.03225
G1 X158.958 Y175.79 E2.08296
;WIDTH:1.03989
G1 X158.459 Y175.672 E2.14847
G1 X157.72 Y175.42 E2.24822
;WIDTH:1.03566
G1 X157.265 Y175.208 E2.31207
;WIDTH:1.03989
G1 X156.824 Y174.946 E2.3776
G1 X156.196 Y174.483 E2.47728
;WIDTH:1.03756
G1 X155.827 Y174.143 E2.54123
G1 X155.482 Y173.763 E2.60664
G1 X155.171 Y173.355 E2.67202
G1 X154.898 Y172.922 E2.73726
;WIDTH:1.03544
G1 X154.555 Y172.221 E2.83651
G1 X154.382 Y171.743 E2.90116
;WIDTH:1.03225
G1 X154.252 Y171.253 E2.96542
;WIDTH:1.03989
G1 X154.17 Y170.746 E3.03103
G1 X154.12 Y169.968 E3.13063
;WIDTH:1.03544
G1 X154.143 Y169.455 E3.19593
;WIDTH:1.04093
G1 X154.215 Y168.958 E3.26016
G1 X154.355 Y168.363 E3.33833
;WIDTH:1.0384
G1 X154.581 Y167.72 E3.42527
G1 X154.793 Y167.266 E3.48919
;WIDTH:1.03528
G1 X155.05 Y166.821 E3.55453
;WIDTH:1.03989
G1 X155.35 Y166.405 E3.62005
G1 X155.865 Y165.82 E3.71962
;WIDTH:1.03757
G1 X156.237 Y165.482 E3.78368
G1 X156.644 Y165.171 E3.84896
;WIDTH:1.03578
G1 X157.124 Y164.872 E3.9209
;WIDTH:1.03518
G1 X157.779 Y164.556 E4.01336
G1 X158.509 Y164.311 E4.11126
;WIDTH:1.03788
G1 X159 Y164.206 E4.17527
;WIDTH:1.03886
G1 X159.509 Y164.142 E4.24074
G1 X160.063 Y164.123 E4.31148
;WIDTH:1.03838
G1 X160.798 Y164.175 E4.40547
G1 X161.293 Y164.264 E4.46962
;WIDTH:1.03757
G1 X161.788 Y164.399 E4.53501
G1 X162.27 Y164.575 E4.60041
;WIDTH:1.03578
G1 X162.78 Y164.819 E4.67233
;WIDTH:1.03756
G1 X163.399 Y165.202 E4.7651
G1 X163.796 Y165.509 E4.82906
G1 X164.173 Y165.857 E4.89445
;WIDTH:1.03578
G1 X164.52 Y166.235 E4.95973
;WIDTH:1.0317
G1 X164.831 Y166.643 E5.02472
;WIDTH:1.03989
G1 X165.101 Y167.079 E5.09024
G1 X165.442 Y167.803 F9000
G1 E4.79024 F2400
G92 E0
G1 X164.768 Y171.167 F9000
G1 E.4 F2400
;WIDTH:1.0317
G1 F1400
G1 X164.758 Y171.231 E.40821
;WIDTH:1.03708
G1 X164.522 Y171.908 E.49954
;WIDTH:1.03737
G1 X164.369 Y172.236 E.54566
G1 X164.03 Y172.811 E.63072
;WIDTH:1.03149
G1 X163.644 Y173.297 E.70933
;WIDTH:1.03057
G1 X163.272 Y173.666 E.77563
;WIDTH:1.03132
G1 X162.844 Y174.008 E.84501
;WIDTH:1.03755
G1 X162.273 Y174.348 E.92971
G1 X161.895 Y174.527 E.98301
G1 X161.312 Y174.735 E1.0619
;WIDTH:1.03096
G1 X160.704 Y174.861 E1.1405
;WIDTH:1.02954
G1 X160.184 Y174.911 E1.20653
;WIDTH:1.03103
G1 X159.635 Y174.901 E1.27604
;WIDTH:1.03124
G1 X159.126 Y174.837 E1.341
G1 X158.359 Y174.63 E1.44159
G1 X157.759 Y174.374 E1.52419
G1 X157.043 Y173.922 E1.6314
;WIDTH:1.03756
G1 X156.515 Y173.455 E1.72124
G1 X155.968 Y172.797 E1.83029
G1 X155.561 Y172.105 E1.93261
;WIDTH:1.03103
G1 X155.333 Y171.539 E2.00986
;WIDTH:1.03124
G1 X155.197 Y171.043 E2.07498
G1 X155.095 Y170.256 E2.17546
;WIDTH:1.03103
G1 X155.099 Y169.635 E2.25408
;WIDTH:1.03179
G1 X155.242 Y168.771 E2.36503
;WIDTH:1.0384
G1 X155.479 Y168.095 E2.45641
G1 X155.838 Y167.385 E2.5579
;WIDTH:1.03131
G1 X156.35 Y166.713 E2.66488
;WIDTH:1.02872
G1 X156.406 Y166.65 E2.67553
;WIDTH:1.03757
G1 X156.862 Y166.227 E2.7548
G1 X157.515 Y165.76 E2.85712
;WIDTH:1.03518
G1 X158.111 Y165.468 E2.9415
G1 X158.739 Y165.252 E3.02593
;WIDTH:1.03886
G1 X159.589 Y165.112 E3.13587
G1 X159.997 Y165.094 E3.18799
;WIDTH:1.03838
G1 X160.68 Y165.141 E3.27532
