; generated by PrusaSlicer 2.8.0 on 2024-08-20 at 00:35:19 UTC

; 

; external perimeters extrusion width = 0.90mm
; perimeters extrusion width = 0.90mm
; infill extrusion width = 0.90mm
; solid infill extrusion width = 0.90mm
; top infill extrusion width = 0.80mm

M190 S60 ; set bed temperature and wait for it to be reached
;TYPE:Custom
; Start GCODE (begins)

G28 ; home all axes
G1 Z5 F5000 ; lift nozzle

M109 S200 ; Do this now so we can purge

; Extrude a small amount of waste material
G92 E0
G1 E20 F200
G92 E0

; Start GCODE (ends)
G21 ; set units to millimeters
G90 ; use absolute coordinates
M82 ; use absolute distances for extrusion
G92 E0
; Filament gcode
M107
;LAYER_CHANGE
;Z:0.35
;HEIGHT:0.35
G1 E-.3 F2400
G1 Z.35 F9000
G1 X127.385 Y136.981
G1 E.1 F2400
G92 E0
;TYPE:Skirt/Brim
;WIDTH:0.9
G1 F1200
G1 X130.654 Y134.045 E.55378
G1 X132.817 Y132.382 E.89765
G1 X135.06 Y130.862 E1.23914
G1 X136.671 Y129.878 E1.47706
G1 X139.069 Y128.577 E1.8209
G1 X143.081 Y126.783 E2.3748
G1 X147.244 Y125.376 E2.92864
G1 X151.522 Y124.369 E3.48255
G1 X155.876 Y123.772 E4.03644
G1 X158.58 Y123.612 E4.37783
G1 X160.469 Y123.591 E4.61592
G1 X163.195 Y123.698 E4.95975
G1 X165.075 Y123.869 E5.19767
G1 X167.759 Y124.241 E5.53918
G1 X170.434 Y124.776 E5.883
G1 X174.665 Y125.966 E6.43694
G1 X178.764 Y127.55 E6.99078
G1 X182.694 Y129.515 E7.54456
G1 X186.422 Y131.842 E8.09843
G1 X189.912 Y134.512 E8.65225
G1 X191.168 Y135.61 E8.86251
G1 X193.276 Y137.645 E9.23179
G1 X196.187 Y140.937 E9.78564
G1 X197.832 Y143.114 E10.12954
G1 X199.453 Y145.555 E10.49885
G1 X201.588 Y149.396 E11.0527
G1 X203.351 Y153.421 E11.60651
G1 X204.724 Y157.596 E12.16042
G1 X205.697 Y161.881 E12.71422
G1 X206.26 Y166.239 E13.26804
G1 X206.366 Y167.904 E13.47831
G1 X206.405 Y170.834 E13.84762
G1 X206.118 Y175.219 E14.40146
G1 X205.418 Y179.557 E14.95527
G1 X204.311 Y183.81 E15.50915
G1 X202.806 Y187.939 E16.06303
G1 X200.917 Y191.907 E16.61691
G1 X198.662 Y195.679 E17.17079
G1 X197.086 Y197.906 E17.51464
G1 X195.252 Y200.19 E17.88382
G1 X192.238 Y203.389 E18.43776
G1 X188.936 Y206.288 E18.99155
G1 X187.613 Y207.304 E19.20179
G1 X185.204 Y208.973 E19.57115
G1 X181.405 Y211.182 E20.12501
G1 X177.414 Y213.021 E20.67884
G1 X173.267 Y214.475 E21.2327
G1 X169.001 Y215.531 E21.78659
G1 X164.655 Y216.178 E22.34037
G1 X161.731 Y216.379 E22.70976
G1 X159.003 Y216.401 E23.05359
G1 X154.619 Y216.099 E23.60743
G1 X150.283 Y215.383 E24.16131
G1 X146.035 Y214.26 E24.71509
G1 X144.453 Y213.73 E24.92537
G1 X141.725 Y212.662 E25.2946
G1 X137.772 Y210.742 E25.84847
G1 X135.417 Y209.366 E26.19223
G1 X133.163 Y207.862 E26.53375
G1 X131.643 Y206.741 E26.77179
G1 X129.533 Y205.011 E27.11568
G1 X126.359 Y201.972 E27.66951
G1 X123.486 Y198.647 E28.22334
G1 X120.94 Y195.065 E28.77721
G1 X118.744 Y191.258 E29.33112
G1 X118.007 Y189.762 E29.54131
G1 X116.844 Y187.073 E29.91055
G1 X115.422 Y182.915 E30.4644
G1 X114.401 Y178.64 E31.01835
G1 X113.788 Y174.289 E31.57214
G1 X113.616 Y171.566 E31.91601
G1 X113.606 Y168.857 E32.25744
G1 X113.688 Y166.97 E32.49549
G1 X113.946 Y164.254 E32.83934
G1 X114.696 Y159.924 E33.39319
G1 X115.852 Y155.685 E33.94696
G1 X117.404 Y151.573 E34.5009
G1 X119.338 Y147.627 E35.05475
G1 X120.168 Y146.18 E35.26499
G1 X121.751 Y143.714 E35.63432
G1 X124.408 Y140.214 E36.18815
G1 X127.303 Y137.07 E36.7268
G1 E36.4268 F2400
G92 E0
G1 X127.303 Y137.07 F9000
G92 E0
G1 X155.777 Y161.79
G1 E.4 F2400
;TYPE:Perimeter
;WIDTH:0.791266
G1 F1200
G1 X156.303 Y161.532 E.46411
;WIDTH:0.789605
G1 X156.99 Y161.265 E.54457
;WIDTH:0.793774
G1 X157.915 Y160.993 E.65044
;WIDTH:0.831079
G1 X158.235 Y160.919 E.68838
;WIDTH:0.868385
G1 X158.555 Y160.845 E.72819
;WIDTH:0.916577
G1 X158.804 Y160.782 E.76121
;WIDTH:0.964769
G1 X159.052 Y160.72 E.79596
;WIDTH:1.01086
G1 X159.19 Y160.688 E.81621
;WIDTH:1.05695
G1 X159.328 Y160.657 E.83743
;WIDTH:1.10304
G1 X159.466 Y160.626 E.85964
;WIDTH:1.14914
G1 X159.604 Y160.595 E.88285
;WIDTH:1.19523
G1 X159.742 Y160.563 E.90709
;WIDTH:1.24132
G1 X159.88 Y160.532 E.93229
;WIDTH:1.28164
G1 X160.037 Y160.511 E.96149
G1 X160.152 Y160.536 E.98318
;WIDTH:1.23992
G1 X160.266 Y160.562 E1.00399
;WIDTH:1.19819
G1 X160.381 Y160.587 E1.02418
;WIDTH:1.15647
G1 X160.496 Y160.613 E1.04366
;WIDTH:1.11474
G1 X160.611 Y160.638 E1.06235
;WIDTH:1.07302
G1 X160.738 Y160.669 E1.08228
;WIDTH:1.03391
G1 X160.866 Y160.699 E1.10154
;WIDTH:0.994811
G1 X160.994 Y160.73 E1.12005
;WIDTH:0.955708
G1 X161.171 Y160.77 E1.14447
;WIDTH:0.921342
G1 X161.347 Y160.811 E1.16784
;WIDTH:0.886976
G1 X161.524 Y160.851 E1.19035
;WIDTH:0.85261
G1 X161.793 Y160.921 E1.22337
;WIDTH:0.825126
G1 X162.062 Y160.991 E1.25522
;WIDTH:0.797642
G1 X163.017 Y161.275 E1.36521
;WIDTH:0.794495
G1 X163.501 Y161.447 E1.42167
;WIDTH:0.784961
G1 X164.214 Y161.776 E1.50684
;WIDTH:0.800484
G1 X164.888 Y162.163 E1.59298
;WIDTH:0.839035
G1 X165.342 Y162.424 E1.6541
;WIDTH:0.869517
G1 X165.625 Y162.622 E1.69602
;WIDTH:0.9
G1 X165.909 Y162.82 E1.73965
G1 X166.435 Y163.306 E1.82991
G1 X166.916 Y163.784 E1.91538
G1 X167.306 Y164.252 E1.99216
;WIDTH:0.894415
G1 X167.495 Y164.544 E2.0357
;WIDTH:0.859401
G1 X167.683 Y164.836 E2.07732
;WIDTH:0.824388
G1 X168.114 Y165.575 E2.17526
;WIDTH:0.790526
G1 X168.469 Y166.302 E2.26369
;WIDTH:0.794439
G1 X168.725 Y166.981 E2.34344
G1 X168.891 Y167.483 E2.40155
;WIDTH:0.80803
G1 X169.048 Y168.083 E2.471
;WIDTH:0.857275
G1 X169.131 Y168.421 E2.51259
;WIDTH:0.906521
G1 X169.214 Y168.759 E2.5568
;WIDTH:0.949329
G1 X169.256 Y168.932 E2.58058
;WIDTH:0.992137
G1 X169.297 Y169.104 E2.60535
;WIDTH:1.03495
G1 X169.339 Y169.276 E2.63132
;WIDTH:1.0801
G1 X169.367 Y169.401 E2.65099
;WIDTH:1.12525
G1 X169.395 Y169.527 E2.6717
;WIDTH:1.1704
G1 X169.423 Y169.652 E2.69314
;WIDTH:1.21556
G1 X169.451 Y169.777 E2.71546
;WIDTH:1.26071
G1 X169.479 Y169.902 E2.73866
;WIDTH:1.30598
G1 X169.504 Y169.997 E2.75713
G1 X169.477 Y170.117 E2.78026
;WIDTH:1.26202
G1 X169.45 Y170.237 E2.80257
;WIDTH:1.21807
G1 X169.423 Y170.357 E2.82405
;WIDTH:1.17411
G1 X169.396 Y170.477 E2.8447
;WIDTH:1.13016
G1 X169.368 Y170.597 E2.86456
;WIDTH:1.08621
G1 X169.341 Y170.718 E2.88371
;WIDTH:1.04225
G1 X169.296 Y170.898 E2.91113
;WIDTH:0.996299
G1 X169.25 Y171.078 E2.93728
;WIDTH:0.950344
G1 X169.204 Y171.259 E2.96225
;WIDTH:0.90439
G1 X169.144 Y171.511 E2.99507
;WIDTH:0.863623
G1 X169.084 Y171.764 E3.0264
;WIDTH:0.822856
G1 X168.839 Y172.695 E3.13639
;WIDTH:0.783462
G1 X168.568 Y173.454 E3.22361
;WIDTH:0.794087
G1 X168.067 Y174.506 E3.35161
;WIDTH:0.812283
G1 X167.708 Y175.116 E3.43133
;WIDTH:0.849852
G1 X167.573 Y175.34 E3.46229
;WIDTH:0.887421
G1 X167.437 Y175.564 E3.49481
;WIDTH:0.925844
G1 X167.347 Y175.712 E3.51733
;WIDTH:0.964267
G1 X167.257 Y175.86 E3.54086
;WIDTH:1.00269
G1 X167.167 Y176.007 E3.56529
;WIDTH:1.04587
G1 X167.101 Y176.109 E3.58331
;WIDTH:1.08904
G1 X167.034 Y176.21 E3.60209
;WIDTH:1.13222
G1 X166.968 Y176.311 E3.62158
;WIDTH:1.1754
G1 X166.902 Y176.413 E3.642
;WIDTH:1.21857
G1 X166.835 Y176.514 E3.66318
;WIDTH:1.26175
G1 X166.769 Y176.616 E3.68521
;WIDTH:1.30493
G1 X166.702 Y176.717 E3.70798
G1 X166.614 Y176.775 E3.72778
;WIDTH:1.26232
G1 X166.525 Y176.832 E3.74695
;WIDTH:1.21972
G1 X166.437 Y176.89 E3.76538
;WIDTH:1.17711
G1 X166.348 Y176.948 E3.78327
;WIDTH:1.1345
G1 X166.26 Y177.005 E3.80024
;WIDTH:1.0919
G1 X166.13 Y177.087 E3.82412
;WIDTH:1.05079
G1 X166 Y177.169 E3.84703
;WIDTH:1.00968
G1 X165.87 Y177.251 E3.86898
;WIDTH:0.968566
G1 X165.74 Y177.333 E3.88996
;WIDTH:0.927457
G1 X165.539 Y177.455 E3.92058
;WIDTH:0.891828
G1 X165.338 Y177.577 E3.94992
;WIDTH:0.856199
G1 X165.138 Y177.699 E3.97788
;WIDTH:0.82057
G1 X164.345 Y178.155 E4.08207
;WIDTH:0.783461
G1 X163.258 Y178.643 E4.21103
;WIDTH:0.784895
G1 X162.476 Y178.903 E4.3004
;WIDTH:0.812268
G1 X161.834 Y179.067 E4.37503
;WIDTH:0.856134
G1 X161.412 Y179.155 E4.42647
;WIDTH:0.9
G1 X160.991 Y179.243 E4.48068
G1 X160.034 Y179.286 E4.60142
G1 X159.505 Y179.285 E4.66809
G1 X158.877 Y179.23 E4.74754
G1 X158.55 Y179.157 E4.78977
;WIDTH:0.861193
G1 X158.224 Y179.084 E4.82989
;WIDTH:0.822386
G1 X157.306 Y178.838 E4.9384
;WIDTH:0.784011
G1 X156.546 Y178.57 E5.02569
;WIDTH:0.790763
G1 X155.979 Y178.317 E5.09358
;WIDTH:0.797875
G1 X155.162 Y177.864 E5.19674
;WIDTH:0.823985
G1 X154.886 Y177.705 E5.23319
;WIDTH:0.850095
G1 X154.609 Y177.545 E5.27107
;WIDTH:0.888546
G1 X154.443 Y177.441 E5.29542
;WIDTH:0.926998
G1 X154.277 Y177.338 E5.32085
;WIDTH:0.96545
G1 X154.111 Y177.235 E5.34743
;WIDTH:1.01128
G1 X153.997 Y177.161 E5.36687
;WIDTH:1.05711
G1 X153.883 Y177.088 E5.38718
;WIDTH:1.10293
G1 X153.769 Y177.014 E5.40852
;WIDTH:1.14876
G1 X153.655 Y176.941 E5.43073
;WIDTH:1.19459
G1 X153.541 Y176.867 E5.45398
;WIDTH:1.24042
G1 X153.427 Y176.793 E5.47818
;WIDTH:1.27272
G1 X153.355 Y176.747 E5.49381
;WIDTH:1.30501
G1 X153.283 Y176.7 E5.50997
G1 X153.227 Y176.615 E5.5291
;WIDTH:1.26412
G1 X153.172 Y176.53 E5.54749
;WIDTH:1.22322
G1 X153.116 Y176.445 E5.56535
;WIDTH:1.18233
G1 X153.06 Y176.36 E5.58257
;WIDTH:1.14143
G1 X153.004 Y176.276 E5.59902
;WIDTH:1.10053
G1 X152.924 Y176.148 E5.62267
;WIDTH:1.05985
G1 X152.843 Y176.02 E5.64546
;WIDTH:1.01917
G1 X152.762 Y175.892 E5.66731
;WIDTH:0.978494
G1 X152.682 Y175.764 E5.68814
;WIDTH:0.937814
G1 X152.576 Y175.587 E5.71533
;WIDTH:0.902091
G1 X152.47 Y175.41 E5.7414
;WIDTH:0.866368
G1 X152.364 Y175.234 E5.76624
;WIDTH:0.830646
G1 X151.889 Y174.425 E5.87454
;WIDTH:0.790525
G1 X151.533 Y173.698 E5.96302
;WIDTH:0.789576
G1 X151.267 Y173.014 E6.04313
;WIDTH:0.798625
G1 X151.02 Y172.139 E6.14364
;WIDTH:0.834931
G1 X150.877 Y171.619 E6.20625
;WIDTH:0.882981
G1 X150.82 Y171.381 E6.23646
;WIDTH:0.931031
G1 X150.764 Y171.142 E6.26856
;WIDTH:0.979081
G1 X150.707 Y170.903 E6.3025
;WIDTH:1.02331
G1 X150.678 Y170.77 E6.32222
;WIDTH:1.06754
G1 X150.648 Y170.637 E6.34289
;WIDTH:1.11176
G1 X150.619 Y170.504 E6.36445
;WIDTH:1.15599
G1 X150.589 Y170.371 E6.38697
;WIDTH:1.20022
G1 X150.559 Y170.238 E6.41041
;WIDTH:1.23494
G1 X150.539 Y170.159 E6.42485
;WIDTH:1.26967
G1 X150.519 Y170.08 E6.43972
;WIDTH:1.30439
G1 X150.499 Y170.001 E6.45503
G1 X150.529 Y169.87 E6.48027
;WIDTH:1.25546
G1 X150.559 Y169.739 E6.50451
;WIDTH:1.20654
G1 X150.588 Y169.607 E6.52787
;WIDTH:1.15761
G1 X150.618 Y169.476 E6.5501
;WIDTH:1.10868
G1 X150.648 Y169.345 E6.57132
;WIDTH:1.05976
G1 X150.69 Y169.166 E6.59898
;WIDTH:1.01711
G1 X150.733 Y168.987 E6.62548
;WIDTH:0.974461
G1 X150.775 Y168.809 E6.65061
;WIDTH:0.931813
G1 X150.818 Y168.63 E6.67471
;WIDTH:0.889165
G1 X150.86 Y168.451 E6.69758
;WIDTH:0.846517
G1 X150.999 Y167.92 E6.76227
;WIDTH:0.818916
G1 X151.138 Y167.388 E6.82476
;WIDTH:0.791316
G1 X151.407 Y166.604 E6.91546
;WIDTH:0.789597
G1 X151.694 Y165.956 E6.99283
;WIDTH:0.792013
G1 X152.133 Y165.15 E7.09336
;WIDTH:0.841038
G1 X152.404 Y164.709 E7.15393
;WIDTH:0.8829
G1 X152.525 Y164.509 E7.18278
;WIDTH:0.924763
G1 X152.646 Y164.309 E7.21313
;WIDTH:0.966626
G1 X152.767 Y164.108 E7.24509
;WIDTH:1.00941
G1 X152.837 Y163.997 E7.26382
;WIDTH:1.0522
G1 X152.907 Y163.886 E7.28341
;WIDTH:1.09498
G1 X152.977 Y163.775 E7.30386
;WIDTH:1.13777
G1 X153.048 Y163.663 E7.32539
;WIDTH:1.18056
G1 X153.118 Y163.552 E7.34755
;WIDTH:1.22334
G1 X153.188 Y163.441 E7.37057
;WIDTH:1.25147
G1 X153.255 Y163.35 E7.39088
;WIDTH:1.2796
G1 X153.322 Y163.259 E7.41168
G1 X153.429 Y163.191 E7.43501
;WIDTH:1.23511
G1 X153.536 Y163.123 E7.45748
;WIDTH:1.19061
G1 X153.643 Y163.055 E7.47909
;WIDTH:1.14611
G1 X153.75 Y162.987 E7.49984
;WIDTH:1.10162
G1 X153.858 Y162.919 E7.51986
;WIDTH:1.05712
G1 X154.008 Y162.826 E7.54634
;WIDTH:1.01567
G1 X154.158 Y162.733 E7.5717
;WIDTH:0.974219
G1 X154.309 Y162.64 E7.59606
;WIDTH:0.932766
G1 X154.459 Y162.548 E7.61912
;WIDTH:0.891314
G1 X154.61 Y162.455 E7.64124
;WIDTH:0.849862
G1 X155.096 Y162.17 E7.70793
;WIDTH:0.820564
G1 X155.583 Y161.885 E7.7722
;WIDTH:0.791266
G1 X155.669 Y161.842 E7.78272
G1 X155.669 Y161.842 F9000
G1 X156.117 Y162.478
;WIDTH:0.9
G1 F1200
G1 X156.628 Y162.229 E7.85436
G1 X157.253 Y161.989 E7.93874
G1 X158.114 Y161.739 E8.05174
G1 X159.183 Y161.567 E8.1882
G1 X159.924 Y161.527 E8.28173
G1 X160.883 Y161.575 E8.40275
G1 X161.419 Y161.646 E8.47089
G1 X162.142 Y161.801 E8.56408
G1 X163.297 Y162.193 E8.7178
G1 X163.888 Y162.471 E8.80012
G1 X164.485 Y162.825 E8.8876
G1 X165.18 Y163.3 E8.9937
G1 X165.864 Y163.902 E9.10854
G1 X166.285 Y164.315 E9.18287
G1 X166.677 Y164.781 E9.25962
G1 X167.04 Y165.289 E9.33831
G1 X167.447 Y165.96 E9.43722
G1 X167.772 Y166.627 E9.53073
G1 X168.164 Y167.729 E9.67814
G1 X168.287 Y168.252 E9.74585
G1 X168.393 Y168.867 E9.8245
G1 X168.456 Y169.509 E9.9058
G1 X168.475 Y170.057 E9.97491
G1 X168.445 Y170.709 E10.05717
G1 X168.307 Y171.644 E10.17629
G1 X168.099 Y172.497 E10.28695
G1 X167.85 Y173.193 E10.38011
G1 X167.379 Y174.166 E10.51635
G1 X167.05 Y174.696 E10.59497
G1 X166.527 Y175.405 E10.70601
G1 X165.961 Y176.005 E10.80997
G1 X165.594 Y176.362 E10.8745
G1 X165.202 Y176.69 E10.93892
G1 X164.687 Y177.056 E11.01855
G1 X163.962 Y177.491 E11.12511
G1 X162.951 Y177.942 E11.26463
G1 X162.245 Y178.171 E11.35817
G1 X161.665 Y178.305 E11.4332
G1 X160.883 Y178.425 E11.53291
G1 X160.016 Y178.461 E11.64228
G1 X159.501 Y178.457 E11.70719
G1 X158.949 Y178.408 E11.77703
G1 X158.361 Y178.309 E11.85218
G1 X157.504 Y178.098 E11.96342
G1 X156.808 Y177.849 E12.05658
G1 X156.306 Y177.619 E12.12617
G1 X155.565 Y177.203 E12.23327
G1 X155.096 Y176.91 E12.30297
G1 X154.596 Y176.526 E12.38243
G1 X153.709 Y175.675 E12.53735
G1 X153.328 Y175.222 E12.61195
G1 X153.011 Y174.781 E12.6804
G1 X152.556 Y174.04 E12.78999
G1 X152.231 Y173.373 E12.8835
G1 X151.991 Y172.75 E12.96764
G1 X151.655 Y171.469 E13.13455
G1 X151.564 Y170.791 E13.22077
G1 X151.534 Y170.195 E13.29598
G1 X151.552 Y169.384 E13.39822
G1 X151.651 Y168.557 E13.50319
G1 X151.886 Y167.572 E13.63082
G1 X152.13 Y166.867 E13.72484
G1 X152.392 Y166.281 E13.80574
G1 X152.801 Y165.535 E13.91296
G1 X153.323 Y164.802 E14.02637
G1 X153.915 Y164.108 E14.14134
G1 X154.468 Y163.585 E14.23727
G1 X155.097 Y163.09 E14.33815
G1 X155.983 Y162.543 E14.46938
G1 X156.009 Y162.531 E14.47299
G1 X156.009 Y162.531 F9000
G1 X156.48 Y163.215
;TYPE:External perimeter
G1 F1200
G1 X156.977 Y162.977 E14.54244
G1 X157.535 Y162.764 E14.61772
G1 X158.328 Y162.536 E14.72171
G1 X159.273 Y162.388 E14.84226
G1 X159.961 Y162.351 E14.9291
G1 X160.775 Y162.393 E15.03183
G1 X161.312 Y162.463 E15.10008
G1 X161.964 Y162.606 E15.18421
G1 X163.022 Y162.975 E15.32543
G1 X163.538 Y163.217 E15.39726
G1 X164.057 Y163.53 E15.47365
G1 X164.678 Y163.955 E15.56849
G1 X165.294 Y164.498 E15.67198
G1 X165.653 Y164.845 E15.73491
G1 X166.045 Y165.311 E15.81166
G1 X166.365 Y165.763 E15.88146
G1 X166.732 Y166.372 E15.97107
G1 X167.024 Y166.975 E16.05551
G1 X167.383 Y167.995 E16.19179
G1 X167.509 Y168.553 E16.26389
G1 X167.62 Y169.315 E16.36094
G1 X167.651 Y169.982 E16.4451
G1 X167.622 Y170.639 E16.52798
G1 X167.492 Y171.517 E16.63984
G1 X167.302 Y172.283 E16.73931
G1 X167.075 Y172.911 E16.82347
G1 X166.639 Y173.802 E16.94849
G1 X166.354 Y174.253 E17.01573
G1 X165.873 Y174.903 E17.11764
G1 X165.367 Y175.433 E17.20999
G1 X164.672 Y176.058 E17.32779
G1 X164.214 Y176.381 E17.39842
G1 X163.549 Y176.777 E17.49597
G1 X162.621 Y177.186 E17.62378
G1 X161.998 Y177.384 E17.70617
G1 X161.486 Y177.499 E17.77231
G1 X160.775 Y177.607 E17.86295
G1 X159.998 Y177.636 E17.96095
G1 X159.139 Y177.597 E18.06932
G1 X158.504 Y177.497 E18.15034
G1 X157.718 Y177.301 E18.25244
G1 X157.09 Y177.074 E18.3366
G1 X156.465 Y176.783 E18.42349
G1 X155.477 Y176.163 E18.5705
G1 X155.063 Y175.842 E18.63652
G1 X154.364 Y175.17 E18.75873
G1 X153.961 Y174.692 E18.83753
G1 X153.639 Y174.239 E18.90758
G1 X153.27 Y173.628 E18.99754
G1 X152.978 Y173.025 E19.08198
G1 X152.766 Y172.468 E19.15709
G1 X152.574 Y171.762 E19.2493
G1 X152.419 Y170.969 E19.35114
G1 X152.358 Y170.159 E19.45352
G1 X152.376 Y169.42 E19.54669
G1 X152.469 Y168.667 E19.64231
G1 X152.687 Y167.769 E19.75878
G1 X152.905 Y167.149 E19.84161
G1 X153.139 Y166.63 E19.91336
G1 X153.515 Y165.947 E20.01162
G1 X153.988 Y165.289 E20.11375
G1 X154.523 Y164.665 E20.21734
G1 X155.025 Y164.193 E20.30418
G1 X155.599 Y163.744 E20.39603
