; generated by PrusaSlicer 2.8.0 on 2024-08-20 at 00:35:12 UTC

; 

; external perimeters extrusion width = 0.90mm
; perimeters extrusion width = 0.90mm
; infill extrusion width = 0.90mm
; solid infill extrusion width = 0.90mm
; top infill extrusion width = 0.80mm

M190 S60 ; set bed temperature and wait for it to be reached
;TYPE:Custom
; Start GCODE (begins)

G28 ; home all axes
G1 Z5 F5000 ; lift nozzle

M109 S200 ; Do this now so we can purge

; Extrude a small amount of waste material
G92 E0
G1 E20 F200
G92 E0

; Start GCODE (ends)
G21 ; set units to millimeters
G90 ; use absolute coordinates
M82 ; use absolute distances for extrusion
G92 E0
; Filament gcode
M107
;LAYER_CHANGE
;Z:0.35
;HEIGHT:0.35
G1 E-.3 F2400
G1 Z.35 F9000
G1 X141.718 Y152.465
G1 E.1 F2400
G92 E0
;TYPE:Skirt/Brim
;WIDTH:0.9
G1 F1200
G1 X142.589 Y151.67 E.14863
G1 X147.247 Y148.148 E.88462
G1 X148.256 Y147.523 E1.03421
G1 X149.294 Y147.006 E1.18036
G1 X150.393 Y146.58 E1.32891
G1 X156.009 Y144.978 E2.06495
G1 X157.176 Y144.76 E2.21458
G1 X158.331 Y144.653 E2.36077
G1 X159.51 Y144.652 E2.50936
G1 X165.324 Y145.187 E3.24522
G1 X166.492 Y145.405 E3.39497
G1 X167.627 Y145.728 E3.5437
G1 X168.73 Y146.155 E3.69277
G1 X173.939 Y148.749 E4.42618
G1 X174.945 Y149.372 E4.57531
G1 X175.871 Y150.071 E4.72154
G1 X176.743 Y150.865 E4.87018
G1 X180.679 Y155.178 E5.60609
G1 X181.395 Y156.125 E5.75572
G1 X182.016 Y157.129 E5.90451
G1 X182.544 Y158.188 E6.05365
G1 X184.646 Y163.614 E6.78703
G1 X184.97 Y164.752 E6.93616
G1 X185.183 Y165.892 E7.08232
G1 X185.292 Y167.066 E7.23092
G1 X185.296 Y172.905 E7.96683
G1 X185.187 Y174.088 E8.11656
G1 X184.974 Y175.228 E8.26272
G1 X184.651 Y176.362 E8.41133
G1 X182.545 Y181.808 E9.14724
G1 X182.016 Y182.871 E9.29689
G1 X181.406 Y183.857 E9.44302
G1 X180.696 Y184.799 E9.59169
G1 X176.765 Y189.116 E10.32755
G1 X175.887 Y189.917 E10.47734
G1 X174.962 Y190.615 E10.62339
G1 X173.96 Y191.237 E10.77203
G1 X168.734 Y193.843 E11.50803
G1 X167.627 Y194.272 E11.65766
G1 X166.492 Y194.595 E11.80639
G1 X165.329 Y194.812 E11.9555
G1 X159.535 Y195.349 E12.68887
G1 X158.351 Y195.349 E12.83809
G1 X157.176 Y195.24 E12.98682
G1 X156.013 Y195.023 E13.13593
G1 X150.416 Y193.431 E13.86932
G1 X149.313 Y193.003 E14.01843
G1 X148.256 Y192.477 E14.16723
G1 X147.25 Y191.854 E14.31636
G1 X142.606 Y188.347 E15.04981
G1 X141.732 Y187.55 E15.19889
G1 X140.937 Y186.678 E15.34761
G1 X140.224 Y185.734 E15.49671
G1 X137.16 Y180.786 E16.23021
G1 X136.633 Y179.727 E16.37929
G1 X136.206 Y178.626 E16.52812
G1 X135.883 Y177.488 E16.67721
G1 X134.813 Y171.768 E17.41063
G1 X134.704 Y170.59 E17.55973
G1 X134.704 Y169.41 E17.70845
G1 X134.813 Y168.232 E17.85755
G1 X135.883 Y162.512 E18.59097
G1 X136.206 Y161.374 E18.74006
G1 X136.633 Y160.273 E18.88889
G1 X137.16 Y159.214 E19.03797
G1 X140.224 Y154.266 E19.77147
G1 X140.937 Y153.322 E19.92057
G1 X141.637 Y152.554 E20.05154
G1 E19.75154 F2400
G92 E0
G1 X141.637 Y152.554 F9000
G92 E0
G1 X153.87 Y170.227
G1 E.4 F2400
;TYPE:Perimeter
;WIDTH:0.9
G1 F1200
G1 X153.87 Y170.224 E.40038
G1 X153.873 Y169.702 E.46617
G1 X153.929 Y169.075 E.54551
G1 X154.1 Y168.294 E.64627
G1 X154.264 Y167.818 E.70972
G1 X154.492 Y167.269 E.78464
G1 X154.914 Y166.528 E.89211
G1 X155.257 Y166.083 E.96292
G1 X155.638 Y165.633 E1.03723
G1 X156.198 Y165.128 E1.13227
G1 X157.066 Y164.546 E1.26398
G1 X157.587 Y164.297 E1.33676
G1 X158.059 Y164.101 E1.40117
G1 X159.115 Y163.835 E1.53842
G1 X159.95 Y163.756 E1.64413
G1 X161.013 Y163.822 E1.77836
G1 X161.572 Y163.933 E1.85019
G1 X162.077 Y164.07 E1.91614
G1 X162.831 Y164.38 E2.01889
G1 X163.573 Y164.802 E2.12647
G1 X164.133 Y165.24 E2.21607
G1 X164.593 Y165.65 E2.29373
G1 X164.98 Y166.091 E2.36768
G1 X165.43 Y166.752 E2.46846
G1 X165.727 Y167.277 E2.54448
G1 X166.007 Y167.952 E2.63658
G1 X166.173 Y168.532 E2.71261
G1 X166.283 Y169.071 E2.78194
G1 X166.349 Y169.818 E2.87645
G1 X166.284 Y170.916 E3.01508
G1 X166.173 Y171.468 E3.08604
G1 X166.024 Y172.004 E3.15616
G1 X165.727 Y172.723 E3.25421
G1 X165.464 Y173.188 E3.32154
G1 X165.03 Y173.838 E3.42004
G1 X164.774 Y174.15 E3.47091
G1 X164.257 Y174.666 E3.56297
G1 X163.583 Y175.19 E3.67057
G1 X162.664 Y175.697 E3.80285
G1 X161.792 Y175.993 E3.91891
G1 X161.025 Y176.177 E4.01832
G1 X160.287 Y176.242 E4.11169
G1 X159.586 Y176.205 E4.20016
G1 X158.976 Y176.138 E4.2775
G1 X158.581 Y176.055 E4.32837
G1 X157.884 Y175.835 E4.42049
G1 X157.441 Y175.637 E4.48165
G1 X156.714 Y175.238 E4.58617
G1 X156.38 Y175.01 E4.63714
G1 X155.82 Y174.541 E4.7292
G1 X155.475 Y174.174 E4.79268
G1 X154.967 Y173.541 E4.89497
G1 X154.746 Y173.202 E4.94597
G1 X154.409 Y172.555 E5.03791
G1 X154.192 Y171.969 E5.11667
G1 X153.992 Y171.285 E5.20649
G1 X153.884 Y170.347 E5.32549
G1 X153.884 Y170.347 F9000
G1 X154.7 Y170.209
G1 F1200
G1 X154.69 Y170.134 E5.33503
G1 X154.721 Y169.373 E5.43102
G1 X154.906 Y168.473 E5.54682
G1 X155.193 Y167.732 E5.64697
G1 X155.339 Y167.418 E5.69061
G1 X155.619 Y166.956 E5.7587
G1 X156.241 Y166.195 E5.88257
G1 X156.742 Y165.748 E5.96719
G1 X157.509 Y165.242 E6.083
G1 X158.375 Y164.863 E6.20214
G1 X159.293 Y164.64 E6.3212
G1 X160.004 Y164.579 E6.41114
G1 X160.942 Y164.643 E6.52963
G1 X161.66 Y164.804 E6.62237
G1 X162.515 Y165.143 E6.73829
G1 X163.145 Y165.508 E6.83005
G1 X163.603 Y165.873 E6.90386
G1 X163.983 Y166.206 E6.96754
G1 X164.36 Y166.635 E7.03952
G1 X164.734 Y167.195 E7.12439
G1 X164.965 Y167.593 E7.18239
G1 X165.245 Y168.268 E7.27449
G1 X165.427 Y168.952 E7.3637
G1 X165.528 Y169.891 E7.48273
G1 X165.463 Y170.843 E7.60299
G1 X165.303 Y171.554 E7.69484
G1 X164.965 Y172.408 E7.8106
G1 X164.5 Y173.147 E7.92064
G1 X164.19 Y173.567 E7.98643
G1 X163.674 Y174.083 E8.0784
G1 X163.095 Y174.526 E8.17028
G1 X162.282 Y174.966 E8.28679
G1 X161.561 Y175.201 E8.38237
G1 X160.949 Y175.356 E8.46194
G1 X160.215 Y175.42 E8.5548
G1 X159.675 Y175.385 E8.623
G1 X159.066 Y175.318 E8.70022
G1 X158.132 Y175.049 E8.82272
G1 X157.528 Y174.744 E8.908
G1 X156.96 Y174.418 E8.99054
G1 X156.351 Y173.909 E9.09057
G1 X155.611 Y173.024 E9.23596
G1 X155.141 Y172.174 E9.35838
G1 X154.839 Y171.278 E9.47755
G1 X154.715 Y170.328 E9.5983
G1 X154.715 Y170.328 F9000
G1 X155.527 Y170.191
;TYPE:External perimeter
G1 F1200
G1 X155.51 Y170.044 E9.61695
G1 X155.544 Y169.427 E9.69483
G1 X155.711 Y168.652 E9.79475
G1 X155.955 Y168.049 E9.87673
G1 X156.324 Y167.384 E9.97258
G1 X156.845 Y166.757 E10.07532
G1 X157.286 Y166.368 E10.14943
G1 X157.952 Y165.938 E10.24934
G1 X158.69 Y165.625 E10.35037
G1 X159.472 Y165.445 E10.45151
G1 X160.059 Y165.402 E10.52569
G1 X160.871 Y165.465 E10.62834
G1 X161.464 Y165.605 E10.70513
G1 X162.199 Y165.905 E10.80518
G1 X162.718 Y166.213 E10.88124
G1 X163.334 Y166.723 E10.98203
G1 X163.74 Y167.178 E11.05889
G1 X164.203 Y167.909 E11.16795
G1 X164.482 Y168.583 E11.25989
G1 X164.626 Y169.148 E11.33338
G1 X164.706 Y169.964 E11.43672
G1 X164.641 Y170.77 E11.53863
G1 X164.502 Y171.357 E11.61466
G1 X164.203 Y172.092 E11.71467
G1 X163.607 Y172.983 E11.84977
G1 X163.091 Y173.5 E11.94183
G1 X162.607 Y173.861 E12.01793
G1 X161.9 Y174.235 E12.11874
G1 X160.871 Y174.535 E12.25383
G1 X160.143 Y174.598 E12.34593
G1 X159.077 Y174.482 E12.48108
G1 X158.381 Y174.262 E12.57308
G1 X157.457 Y173.759 E12.70567
G1 X156.881 Y173.277 E12.80033
G1 X156.254 Y172.508 E12.92538
G1 X155.873 Y171.793 E13.02749
G1 X155.626 Y171.03 E13.12857
G1 X155.541 Y170.31 E13.21994
G1 X155.55 Y169.51 F9000
G1 E12.91994 F2400
G92 E0
G1 X154.752 Y169.423 F9000
G1 X154.766 Y169.297
G1 X154.802 Y169.064
G1 X154.847 Y168.834
G1 X154.903 Y168.606
G1 X154.969 Y168.38
G1 X155.045 Y168.157
G1 X155.13 Y167.938
G1 X155.225 Y167.723
G1 X155.328 Y167.512
G1 X155.442 Y167.306
G1 X155.563 Y167.105
G1 X155.694 Y166.91
G1 X155.833 Y166.72
G1 X155.98 Y166.537
G1 X156.135 Y166.36
G1 X156.298 Y166.19
G1 X156.468 Y166.028
G1 X156.644 Y165.873
G1 X156.828 Y165.726
G1 X157.017 Y165.587
G1 X157.213 Y165.456
G1 X157.414 Y165.334
G1 X157.62 Y165.221
G1 X157.831 Y165.117
G1 X158.046 Y165.022
G1 X158.265 Y164.937
G1 X158.487 Y164.862
G1 X158.713 Y164.796
G1 X158.941 Y164.74
G1 X159.172 Y164.694
G1 X159.404 Y164.658
G1 X159.638 Y164.633
G1 X159.872 Y164.617
G1 X160.107 Y164.612
G1 X160.342 Y164.617
G1 X160.577 Y164.633
G1 X160.811 Y164.658
G1 X161.043 Y164.694
G1 X161.274 Y164.74
G1 X161.502 Y164.796
G1 X161.728 Y164.862
G1 X161.95 Y164.937
G1 X162.169 Y165.022
G1 X162.384 Y165.117
G1 X162.595 Y165.221
G1 X162.801 Y165.334
G1 X163.002 Y165.456
G1 X163.198 Y165.587
G1 X163.387 Y165.726
G1 X163.571 Y165.873
G1 X163.747 Y166.028
G1 X163.917 Y166.19
G1 X164.08 Y166.36
G1 X164.235 Y166.537
G1 X164.382 Y166.72
G1 X164.521 Y166.91
G1 X164.651 Y167.105
G1 X164.773 Y167.306
G1 X164.886 Y167.512
G1 X164.99 Y167.723
G1 X165.085 Y167.938
G1 X165.17 Y168.157
G1 X165.246 Y168.38
G1 X165.266 Y168.448
G1 X173.379 Y167.727
G1 X172.831 Y167.622
G1 E.4 F2400
;TYPE:Perimeter
G1 F1200
G1 X172.587 Y168.065 E.46374
G1 X172.514 Y168.308 E.49572
G1 X172.459 Y168.779 E.55549
G1 X172.469 Y171.421 E.88847
G1 X172.587 Y171.935 E.95494
G1 X172.831 Y172.378 E1.01868
G1 X172.443 Y172.704 E1.08255
G1 X172.287 Y172.904 E1.11452
G1 X172.066 Y173.323 E1.17422
G1 X171.415 Y175.003 E1.4013
G1 X171.121 Y175.789 E1.50707
G1 X171.045 Y176.311 E1.57355
G1 X171.113 Y176.814 E1.63752
G1 X170.632 Y176.978 E1.70157
G1 X170.415 Y177.108 E1.73345
G1 X170.058 Y177.419 E1.79312
G1 X168.286 Y179.378 E2.12604
G1 X168.026 Y179.836 E2.19242
G1 X167.908 Y180.329 E2.25631
G1 X167.401 Y180.308 E2.32026
G1 X167.152 Y180.351 E2.35211
G1 X166.706 Y180.512 E2.41187
G1 X165.353 Y181.186 E2.60238
G1 X164.347 Y181.698 E2.74465
G1 X163.939 Y182.032 E2.8111
G1 X163.65 Y182.45 E2.87515
G1 X163.183 Y182.247 E2.93933
G1 X162.935 Y182.197 E2.97122
G1 X162.463 Y182.186 E3.03072
G1 X159.834 Y182.439 E3.36359
G1 X159.334 Y182.604 E3.42995
G1 X158.913 Y182.889 E3.49402
G1 X158.552 Y182.531 E3.5581
G1 X158.338 Y182.395 E3.59006
G1 X157.902 Y182.214 E3.64956
G1 X155.359 Y181.501 E3.98242
G1 X154.833 Y181.473 E4.04881
G1 X154.338 Y181.587 E4.11283
G1 X154.13 Y181.123 E4.17692
G1 X153.981 Y180.919 E4.20876
G1 X153.638 Y180.593 E4.2684
G1 X151.524 Y179.008 E4.60141
G1 X151.044 Y178.793 E4.6677
G1 X150.542 Y178.72 E4.73163
G1 X150.516 Y178.214 E4.79549
G1 X150.45 Y177.969 E4.82747
G1 X150.249 Y177.54 E4.88718
G1 X148.85 Y175.299 E5.22014
G1 X148.479 Y174.924 E5.28662
G1 X148.038 Y174.676 E5.35039
G1 X148.196 Y174.195 E5.4142
G1 X148.223 Y173.943 E5.44614
G1 X148.191 Y173.47 E5.50589
G1 X147.695 Y170.875 E5.83887
G1 X147.485 Y170.391 E5.90536
G1 X147.164 Y170 E5.96912
G1 X147.485 Y169.609 E6.03288
G1 X147.601 Y169.384 E6.06478
G1 X147.742 Y168.931 E6.12458
G1 X148.09 Y167.067 E6.36357
G1 X148.218 Y166.333 E6.45747
G1 X148.197 Y165.806 E6.52394
G1 X148.038 Y165.324 E6.58791
G1 X148.48 Y165.075 E6.65185
G1 X148.669 Y164.907 E6.68372
G1 X148.963 Y164.536 E6.74338
G1 X150.345 Y162.285 E7.07628
G1 X150.516 Y161.786 E7.14276
G1 X150.542 Y161.28 E7.20662
G1 X151.044 Y161.207 E7.27055
G1 X151.281 Y161.119 E7.30241
G1 X151.69 Y160.879 E7.36218
G1 X153.792 Y159.279 E7.69512
G1 X154.131 Y158.875 E7.76159
G1 X154.338 Y158.413 E7.8254
G1 X154.831 Y158.527 E7.88917
G1 X155.085 Y158.531 E7.92119
G1 X155.553 Y158.454 E7.98097
G1 X157.607 Y157.87 E8.2501
G1 X158.091 Y157.722 E8.31389
G1 X158.553 Y157.468 E8.38034
G1 X158.913 Y157.111 E8.44424
G1 X159.333 Y157.396 E8.50821
G1 X159.567 Y157.491 E8.54004
G1 X160.031 Y157.588 E8.59978
G1 X162.663 Y157.823 E8.93282
G1 X163.185 Y157.753 E8.9992
G1 X163.65 Y157.55 E9.06315
G1 X163.938 Y157.967 E9.12702
G1 X164.123 Y158.14 E9.15894
G1 X164.52 Y158.399 E9.21868
G1 X166.06 Y159.166 E9.43551
G1 X166.889 Y159.568 E9.55163
G1 X167.402 Y159.692 E9.61815
G1 X167.908 Y159.671 E9.68198
G1 X168.026 Y160.163 E9.74575
G1 X168.136 Y160.392 E9.77777
G1 X168.413 Y160.777 E9.83755
G1 X169.54 Y162.013 E10.04836
G1 X170.199 Y162.722 E10.17036
G1 X170.632 Y163.022 E10.23675
G1 X171.113 Y163.186 E10.3008
G1 X171.045 Y163.689 E10.36477
G1 X171.065 Y163.941 E10.39663
G1 X171.184 Y164.4 E10.45639
G1 X172.147 Y166.86 E10.78934
G1 X172.443 Y167.296 E10.85576
G1 X172.739 Y167.544 E10.90443
G1 X172.739 Y167.544 F9000
G1 X173.64 Y167.96
;WIDTH:0.873313
G1 F1200
G1 X173.636 Y167.964 E10.90512
;WIDTH:0.9
G1 X173.474 Y168.12 E10.93346
G1 X173.361 Y168.351 E10.96587
G1 X173.284 Y168.779 E11.02068
G1 X173.284 Y171.188 E11.3243
G1 X173.317 Y171.504 E11.36434
G1 X173.474 Y171.88 E11.41569
G1 X173.783 Y172.213 E11.47294
G1 X174.401 Y172.452 E11.55645
G1 X174.412 Y172.44 E11.5585
;WIDTH:0.872939
G1 X174.422 Y172.427 E11.5605
;WIDTH:0.845878
G1 X175.769 Y172.538 E11.71967
G1 X176.262 Y172.67 E11.77977
;WIDTH:0.837193
G1 X176.761 Y172.907 E11.84409
G1 X177.224 Y173.195 E11.90758
G1 X176.676 Y173.295 E11.97244
G1 X175.908 Y173.344 E12.06205
;WIDTH:0.845878
G1 X175.628 Y173.291 E12.09561
G1 X174.332 Y172.908 E12.25476
;WIDTH:0.872939
G1 X174.327 Y172.892 E12.2568
;WIDTH:0.9
G1 X174.322 Y172.877 E12.25879
G1 X173.659 Y172.876 E12.34235
G1 X173.25 Y173.076 E12.39973
G1 X173.061 Y173.25 E12.43211
G1 X172.835 Y173.621 E12.48686
G1 X171.953 Y175.898 E12.79462
G1 X171.882 Y176.173 E12.83042
G1 X171.892 Y176.58 E12.88173
G1 X172.059 Y177.003 E12.93905
G1 X172.55 Y177.45 E13.02274
G1 X172.564 Y177.442 E13.02477
;WIDTH:0.872794
G1 X172.579 Y177.434 E13.02684
;WIDTH:0.845589
G1 X173.793 Y178.023 E13.18568
G1 X174.025 Y178.166 E13.21776
;WIDTH:0.835053
G1 X174.584 Y178.723 E13.30939
G1 X174.923 Y179.174 E13.3749
G1 X174.381 Y179.07 E13.43898
G1 X173.865 Y178.92 E13.50137
;WIDTH:0.845589
G1 X173.419 Y178.698 E13.56002
G1 X172.321 Y177.85 E13.72334
;WIDTH:0.872794
G1 X172.322 Y177.834 E13.72529
;WIDTH:0.9
G1 X172.323 Y177.817 E13.72744
G1 X171.704 Y177.577 E13.81111
G1 X171.25 Y177.616 E13.86854
G1 X171.012 Y177.71 E13.90079
G1 X170.668 Y177.975 E13.95552
G1 X169.309 Y179.464 E14.2096
G1 X168.856 Y180.01 E14.29902
G1 X168.719 Y180.393 E14.35029
G1 X168.722 Y180.848 E14.40764
G1 X169.018 Y181.442 E14.49128
G1 X169.035 Y181.44 E14.49344
;WIDTH:0.872938
G1 X169.051 Y181.438 E14.49541
;WIDTH:0.845877
G1 X169.972 Y182.427 E14.65456
G1 X170.247 Y182.857 E14.71467
;WIDTH:0.837191
G1 X170.456 Y183.368 E14.77895
G1 X170.604 Y183.893 E14.84246
G1 X170.132 Y183.597 E14.90733
G1 X169.532 Y183.116 E14.99687
;WIDTH:0.845877
G1 X169.36 Y182.889 E15.03041
G1 X168.661 Y181.732 E15.1896
;WIDTH:0.872938
G1 X168.667 Y181.717 E15.19157
;WIDTH:0.9
G1 X168.674 Y181.702 E15.19366
G1 X168.184 Y181.255 E15.27725
G1 X167.747 Y181.127 E15.33464
G1 X167.491 Y181.129 E15.36691
G1 X167.074 Y181.251 E15.42167
G1 X164.923 Y182.322 E15.72451
G1 X164.65 Y182.494 E15.76518
G1 X164.384 Y182.801 E15.81638
G1 X164.222 Y183.227 E15.87382
G1 X164.283 Y183.888 E15.95748
G1 X164.299 Y183.892 E15.95956
;WIDTH:0.872794
G1 X164.316 Y183.896 E15.96169
;WIDTH:0.845589
G1 X164.816 Y185.148 E16.12039
G1 X164.892 Y185.411 E16.15262
;WIDTH:0.835051
G1 X164.929 Y186.199 E16.24422
G1 X164.876 Y186.76 E16.30965
G1 X164.545 Y186.319 E16.37367
G1 X164.265 Y185.86 E16.4361
;WIDTH:0.845589
G1 X164.085 Y185.396 E16.49469
G1 X163.845 Y184.03 E16.65796
;WIDTH:0.872794
G1 X163.857 Y184.018 E16.66003
;WIDTH:0.9
G1 X163.868 Y184.006 E16.66208
G1 X163.572 Y183.411 E16.74584
G1 X163.211 Y183.135 E16.80311
G1 X162.971 Y183.044 E16.83546
G1 X162.539 Y183.008 E16.8901
G1 X160.108 Y183.233 E17.1978
G1 X159.83 Y183.291 E17.23359
G1 X159.47 Y183.482 E17.28495
G1 X159.166 Y183.82 E17.34224
G1 X158.984 Y184.459 E17.42598
G1 X158.998 Y184.468 E17.42808
;WIDTH:0.872938
G1 X159.011 Y184.478 E17.43008
;WIDTH:0.845877
G1 X159.026 Y185.829 E17.58919
G1 X158.939 Y186.332 E17.6493
;WIDTH:0.837195
G1 X158.75 Y186.851 E17.71361
G1 X158.505 Y187.339 E17.77719
G1 X158.355 Y186.802 E17.84211
G1 X158.236 Y186.041 E17.9318
;WIDTH:0.845877
G1 X158.262 Y185.758 E17.96527
G1 X158.525 Y184.433 E18.12435
;WIDTH:0.872938
G1 X158.54 Y184.426 E18.12637
;WIDTH:0.9
G1 X158.555 Y184.419 E18.12846
G1 X158.494 Y183.757 E18.21225
G1 X158.256 Y183.369 E18.26962
G1 X158.066 Y183.198 E18.30184
G1 X157.683 Y183.01 E18.35561
G1 X155.327 Y182.339 E18.66435
G1 X155.047 Y182.294 E18.70009
G1 X154.643 Y182.341 E18.75135
