; generated by PrusaSlicer 2.7.1 on 2024-08-18 at 04:36:38 UTC

; 

; external perimeters extrusion width = 0.90mm
; perimeters extrusion width = 0.90mm
; infill extrusion width = 0.90mm
; solid infill extrusion width = 0.90mm
; top infill extrusion width = 0.80mm

M190 S60 ; set bed temperature and wait for it to be reached
;TYPE:Custom
; Start GCODE (begins)

G28 ; home all axes
G1 Z5 F5000 ; lift nozzle

M109 S200 ; Do this now so we can purge

; Extrude a small amount of waste material
G92 E0
G1 E20 F200
G92 E0

; Start GCODE (ends)
G21 ; set units to millimeters
G90 ; use absolute coordinates
M82 ; use absolute distances for extrusion
G92 E0
; Filament gcode
M107
;LAYER_CHANGE
;Z:0.35
;HEIGHT:0.35
G1 Z.35 F9000
G1 E-.3 F2400
G92 E0
G1 X129.417 Y122.851 F9000
G1 E.4 F2400
;TYPE:Skirt/Brim
;WIDTH:0.9
G1 F1200
G1 X130.728 Y121.525 E.63501
G1 X132.417 Y120.184 E.90682
G1 X133.886 Y119.271 E1.12481
G1 X135.837 Y118.352 E1.39662
G1 X137.607 Y117.764 E1.63169
G1 X139.717 Y117.334 E1.90309
G1 X142.016 Y117.175 E2.19353
G1 X190.675 Y117.175 E8.32621
G1 X192.969 Y117.572 E8.61963
G1 X194.996 Y118.717 E8.91304
G1 X196.52 Y120.477 E9.20646
G1 X197.364 Y122.647 E9.49991
G1 X197.5 Y124 E9.67129
G1 X197.5 Y216 E21.2664
G1 X197.103 Y218.294 E21.55982
G1 X195.958 Y220.321 E21.85323
G1 X194.198 Y221.845 E22.14665
G1 X192.028 Y222.689 E22.4401
G1 X190.675 Y222.825 E22.61148
G1 X141.443 Y222.814 E28.81638
G1 X139.297 Y222.603 E29.08815
G1 X137.607 Y222.236 E29.30611
G1 X135.837 Y221.648 E29.54118
G1 X133.892 Y220.732 E29.81214
G1 X132.658 Y219.981 E29.9942
G1 X131.498 Y219.13 E30.17552
G1 X130.21 Y217.985 E30.39272
G1 X129.225 Y216.929 E30.57472
G1 X128.098 Y215.451 E30.80897
G1 X127.34 Y214.224 E30.99074
G1 X126.691 Y212.942 E31.17184
G1 X126.06 Y211.334 E31.38955
G1 X125.662 Y209.946 E31.57153
G1 X125.406 Y208.679 E31.73444
G1 X121.762 Y186.087 E34.6186
G1 X121.675 Y185 E34.75604
G1 X121.675 Y155 E38.53705
G1 X121.762 Y153.913 E38.67449
G1 X125.508 Y130.757 E41.63087
G1 X126.153 Y128.396 E41.93934
G1 X127.198 Y126.034 E42.26487
G1 X128.094 Y124.554 E42.48292
G1 X129.343 Y122.946 E42.73954
G1 E42.43954 F2400
G92 E0
G1 X129.343 Y122.946 F9000
G1 X188.581 Y213.094
G1 E.4 F2400
;TYPE:Perimeter
;WIDTH:0.887778
G1 F1200
G1 X188.581 Y213.5 E.45041
G1 X188.581 Y213.906 E.50082
G1 X143.499 Y213.906 E6.09849
;WIDTH:0.88895
G1 X143.392 Y213.906 E6.11179
;WIDTH:0.916271
G1 X142.628 Y213.892 E6.21
;WIDTH:0.964998
G1 X142.052 Y213.867 E6.28839
;WIDTH:0.995592
G1 X141.676 Y213.834 E6.34147
;WIDTH:1.02619
G1 X141.299 Y213.8 E6.39648
;WIDTH:1.05775
G1 X140.954 Y213.736 E6.44916
;WIDTH:1.08932
G1 X140.609 Y213.672 E6.50353
;WIDTH:1.11666
G1 X140.315 Y213.594 E6.55194
;WIDTH:1.14401
G1 X140.022 Y213.515 E6.6015
;WIDTH:1.17203
G1 X139.717 Y213.405 E6.65584
;WIDTH:1.20004
G1 X139.412 Y213.294 E6.71163
;WIDTH:1.23314
G1 X139.042 Y213.117 E6.7842
;WIDTH:1.26624
G1 X138.672 Y212.94 E6.85885
;WIDTH:1.30433
G1 X138.175 Y212.648 E6.96711
G1 X138.108 Y212.634 E6.97997
;WIDTH:1.25941
G1 X138.04 Y212.62 E6.99253
;WIDTH:1.21448
G1 X137.972 Y212.606 E7.00462
;WIDTH:1.16956
G1 X137.905 Y212.593 E7.01603
;WIDTH:1.12463
G1 X137.837 Y212.579 E7.02716
;WIDTH:1.0797
G1 X137.77 Y212.565 E7.03767
;WIDTH:1.03478
G1 X137.702 Y212.551 E7.04785
;WIDTH:0.989851
G1 X137.635 Y212.537 E7.05742
;WIDTH:0.944925
G1 X137.567 Y212.523 E7.06665
;WIDTH:0.9
G1 X136.769 Y211.9 E7.19425
G1 X136.042 Y211.165 E7.32454
G1 X135.637 Y210.657 E7.40642
G1 X135.261 Y210.093 E7.49185
G1 X134.947 Y209.52 E7.5742
G1 X134.54 Y208.545 E7.70736
G1 X134.355 Y207.919 E7.78963
G1 X134.21 Y207.214 E7.88034
G1 X130.6 Y184.832 E10.73768
G1 X130.6 Y155.168 E14.47635
G1 X134.21 Y132.786 E17.33369
G1 X134.355 Y132.081 E17.4244
G1 X134.548 Y131.431 E17.50986
G1 X134.793 Y130.805 E17.59458
G1 X135.092 Y130.2 E17.67963
G1 X135.431 Y129.641 E17.76203
G1 X136.108 Y128.763 E17.90176
G1 X136.667 Y128.197 E18.00202
G1 X137.056 Y127.855 E18.0673
G1 X137.512 Y127.515 E18.13899
;WIDTH:0.944757
G1 X137.614 Y127.476 E18.1535
;WIDTH:0.989515
G1 X137.715 Y127.437 E18.16863
;WIDTH:1.03427
G1 X137.817 Y127.398 E18.18463
;WIDTH:1.07624
G1 X137.913 Y127.365 E18.20016
;WIDTH:1.11821
G1 X138.009 Y127.331 E18.21639
;WIDTH:1.16018
G1 X138.105 Y127.298 E18.23322
;WIDTH:1.20215
G1 X138.201 Y127.265 E18.2507
;WIDTH:1.24412
G1 X138.297 Y127.232 E18.26883
;WIDTH:1.25758
G1 X139.2 Y126.808 E18.44906
;WIDTH:1.22166
G1 X139.56 Y126.649 E18.518
;WIDTH:1.18575
G1 X140.066 Y126.475 E18.6088
;WIDTH:1.14666
G1 X140.388 Y126.39 E18.66332
;WIDTH:1.11628
G1 X140.709 Y126.306 E18.7161
;WIDTH:1.08589
G1 X141.194 Y126.231 E18.79189
;WIDTH:1.0405
G1 X141.679 Y126.156 E18.86428
;WIDTH:0.995102
G1 X142.014 Y126.138 E18.91144
;WIDTH:0.963384
G1 X142.35 Y126.119 E18.95711
;WIDTH:0.931666
G1 X143.28 Y126.095 E19.07886
;WIDTH:0.890155
G1 X188.175 Y126.094 E24.66961
;WIDTH:0.887902
G1 X188.581 Y126.094 E24.72003
G1 X188.581 Y126.906 E24.82087
G1 X188.175 Y126.907 E24.87129
;WIDTH:0.890155
G1 X143.28 Y126.91 E30.46204
;WIDTH:0.907579
G1 X142.871 Y126.934 E30.51415
;WIDTH:0.953156
G1 X142.174 Y127 E30.60807
;WIDTH:0.989668
G1 X141.843 Y127.061 E30.6551
;WIDTH:1.02618
G1 X141.513 Y127.122 E30.70387
;WIDTH:1.05604
G1 X141.225 Y127.204 E30.74875
;WIDTH:1.08589
G1 X140.937 Y127.286 E30.795
;WIDTH:1.11628
G1 X140.677 Y127.382 E30.83909
;WIDTH:1.14666
G1 X140.417 Y127.479 E30.88452
;WIDTH:1.18075
G1 X140.082 Y127.635 E30.94695
;WIDTH:1.21484
G1 X139.748 Y127.792 E31.01122
;WIDTH:1.24912
G1 X139.414 Y127.996 E31.08142
;WIDTH:1.2834
G1 X139.081 Y128.201 E31.15361
G1 X139.022 Y128.268 E31.17009
;WIDTH:1.25261
G1 X138.963 Y128.335 E31.18615
;WIDTH:1.22181
G1 X138.912 Y128.41 E31.20204
;WIDTH:1.17584
G1 X138.861 Y128.485 E31.21729
;WIDTH:1.12987
G1 X138.81 Y128.56 E31.23191
;WIDTH:1.08389
G1 X138.759 Y128.635 E31.24589
;WIDTH:1.03792
G1 X138.709 Y128.71 E31.25915
;WIDTH:0.991946
G1 X138.658 Y128.785 E31.27186
;WIDTH:0.945973
G1 X138.607 Y128.86 E31.28393
;WIDTH:0.9
G1 X137.953 Y129.576 E31.40615
G1 X137.443 Y130.301 E31.51787
G1 X137.012 Y131.124 E31.63496
G1 X136.683 Y132.035 E31.75703
G1 X136.558 Y132.601 E31.83008
G1 X136.448 Y133.208 E31.90783
G1 X136.4 Y133.999 E32.00771
G1 X136.4 Y206.001 E41.08239
G1 X136.538 Y207.374 E41.25631
G1 X136.674 Y207.881 E41.32247
G1 X136.897 Y208.594 E41.41662
G1 X137.398 Y209.627 E41.56132
G1 X137.767 Y210.182 E41.64532
G1 X138.177 Y210.694 E41.72799
G1 X138.649 Y211.158 E41.81141
;WIDTH:0.944925
G1 X138.677 Y211.215 E41.81985
;WIDTH:0.989851
G1 X138.705 Y211.271 E41.8286
;WIDTH:1.03478
G1 X138.734 Y211.328 E41.83798
;WIDTH:1.0797
G1 X138.762 Y211.384 E41.84759
;WIDTH:1.12463
G1 X138.79 Y211.44 E41.85763
;WIDTH:1.16956
G1 X138.819 Y211.497 E41.86832
;WIDTH:1.21448
G1 X138.847 Y211.553 E41.87922
;WIDTH:1.25941
G1 X138.875 Y211.61 E41.89071
;WIDTH:1.30433
G1 X138.903 Y211.666 E41.90247
G1 X139.227 Y211.89 E41.97645
;WIDTH:1.26624
G1 X139.582 Y212.097 E42.05124
;WIDTH:1.23314
G1 X139.937 Y212.303 E42.12386
;WIDTH:1.20004
G1 X140.171 Y212.412 E42.16823
;WIDTH:1.17203
G1 X140.405 Y212.52 E42.21142
;WIDTH:1.14401
G1 X140.671 Y212.617 E42.25766
;WIDTH:1.11498
G1 X140.936 Y212.714 E42.3025
;WIDTH:1.08594
G1 X141.236 Y212.799 E42.35066
;WIDTH:1.05468
G1 X141.535 Y212.884 E42.39718
;WIDTH:1.02343
G1 X141.842 Y212.935 E42.44227
;WIDTH:0.994212
G1 X142.149 Y212.985 E42.48595
;WIDTH:0.964998
G1 X142.56 Y213.031 E42.54218
;WIDTH:0.93176
G1 X142.971 Y213.078 E42.59632
;WIDTH:0.898522
G1 X143.499 Y213.094 E42.66278
;WIDTH:0.887778
G1 X188.461 Y213.094 E48.24555
G1 X189.4 Y212.275 F9000
;WIDTH:0.9
G1 F1200
G1 X189.4 Y213.5 E48.39994
G1 X189.4 Y214.725 E48.55433
G1 X142.044 Y214.725 E54.52278
G1 X141.271 Y214.692 E54.62029
G1 X140.531 Y214.597 E54.71432
G1 X139.803 Y214.439 E54.80821
G1 X139.103 Y214.222 E54.90058
G1 X138.063 Y213.775 E55.04325
G1 X137.101 Y213.206 E55.18412
G1 X136.22 Y212.518 E55.325
G1 X135.425 Y211.714 E55.4675
G1 X134.97 Y211.144 E55.55942
G1 X134.555 Y210.521 E55.65376
G1 X134.202 Y209.878 E55.74621
G1 X133.762 Y208.822 E55.89039
G1 X133.554 Y208.12 E55.98267
G1 X133.398 Y207.362 E56.08021
G1 X129.775 Y184.898 E58.94802
G1 X129.775 Y155.102 E62.70332
G1 X133.398 Y132.638 E65.57113
G1 X133.554 Y131.88 E65.66867
G1 X133.767 Y131.162 E65.76306
G1 X134.038 Y130.471 E65.85661
G1 X134.369 Y129.803 E65.95057
G1 X134.748 Y129.176 E66.04291
G1 X135.509 Y128.196 E66.19929
G1 X136.119 Y127.581 E66.30846
G1 X136.563 Y127.194 E66.38269
G1 X137.346 Y126.64 E66.50358
G1 X137.983 Y126.273 E66.59623
G1 X138.462 Y126.036 E66.66359
G1 X139.314 Y125.712 E66.77847
G1 X140.071 Y125.503 E66.87745
G1 X140.592 Y125.396 E66.94448
G1 X141.635 Y125.284 E67.07669
G1 X189.4 Y125.275 E73.09669
G1 X189.4 Y127.725 E73.40547
G1 X143.28 Y127.73 E79.21815
G1 X142.358 Y127.831 E79.33505
G1 X141.798 Y127.962 E79.40753
G1 X141.232 Y128.155 E79.4829
G1 X140.836 Y128.329 E79.53741
G1 X140.294 Y128.608 E79.61424
G1 X139.597 Y129.09 E79.72104
G1 X139.203 Y129.431 E79.78671
G1 X138.618 Y130.064 E79.89534
G1 X138.166 Y130.698 E79.99347
G1 X137.781 Y131.423 E80.09693
G1 X137.488 Y132.217 E80.2036
G1 X137.271 Y133.262 E80.33811
G1 X137.225 Y133.999 E80.43118
G1 X137.225 Y206.001 E89.50586
G1 X137.338 Y207.174 E89.65438
G1 X137.645 Y208.247 E89.79504
G1 X138.094 Y209.184 E89.92599
G1 X138.41 Y209.666 E89.99863
G1 X138.821 Y210.178 E90.08138
G1 X139.206 Y210.55 E90.14885
G1 X139.769 Y211.04 E90.24292
G1 X140.651 Y211.59 E90.37392
G1 X141.231 Y211.845 E90.45377
G1 X141.981 Y212.084 E90.55298
G1 X142.846 Y212.237 E90.66369
G1 X143.499 Y212.275 E90.74613
G1 X189.28 Y212.275 E96.51608
G1 X190.225 Y211.45 F9000
;TYPE:External perimeter
G1 F1200
G1 X190.225 Y213.5 E96.77445
G1 X190.225 Y215.55 E97.03282
G1 X142.026 Y215.55 E103.10752
G1 X141.201 Y215.515 E103.21159
G1 X140.391 Y215.41 E103.31453
G1 X139.594 Y215.237 E103.41732
G1 X138.817 Y214.998 E103.51978
G1 X137.689 Y214.512 E103.67458
G1 X136.636 Y213.889 E103.82878
G1 X135.671 Y213.136 E103.98305
G1 X134.807 Y212.263 E104.13785
G1 X134.303 Y211.63 E104.23983
G1 X133.849 Y210.949 E104.34298
G1 X133.458 Y210.236 E104.44547
G1 X132.984 Y209.099 E104.60072
G1 X132.753 Y208.32 E104.70313
G1 X132.587 Y207.511 E104.80722
G1 X128.95 Y184.964 E107.68564
G1 X128.95 Y155.036 E111.45758
G1 X132.587 Y132.489 E114.336
G1 X132.753 Y131.679 E114.44021
G1 X132.986 Y130.894 E114.54341
G1 X133.283 Y130.137 E114.6459
G1 X133.645 Y129.405 E114.74882
G1 X134.066 Y128.711 E114.85112
G1 X134.813 Y127.731 E115.00642
G1 X135.371 Y127.141 E115.10877
G1 X135.981 Y126.599 E115.21161
G1 X136.468 Y126.236 E115.28816
G1 X136.911 Y125.939 E115.35538
G1 X137.61 Y125.537 E115.45701
G1 X138.057 Y125.31 E115.5202
G1 X138.813 Y125.004 E115.62299
G1 X139.593 Y124.763 E115.72588
G1 X140.391 Y124.59 E115.82879
G1 X141.08 Y124.501 E115.91635
G1 X141.605 Y124.459 E115.98273
G1 X190.225 Y124.45 E122.11049
G1 X190.225 Y128.55 E122.62723
G1 X143.28 Y128.555 E128.54388
G1 X142.551 Y128.633 E128.63628
G1 X142.063 Y128.744 E128.69936
G1 X141.201 Y129.069 E128.81547
G1 X140.752 Y129.294 E128.87877
G1 X140.181 Y129.677 E128.96542
G1 X139.798 Y130.001 E129.02865
G1 X139.284 Y130.552 E129.12362
G1 X138.89 Y131.095 E129.20817
G1 X138.55 Y131.722 E129.29806
G1 X138.293 Y132.395 E129.38885
G1 X138.094 Y133.316 E129.50761
G1 X138.05 Y133.999 E129.59387
G1 X138.05 Y206.001 E138.66855
G1 X138.141 Y206.982 E138.79272
G1 X138.393 Y207.898 E138.91246
G1 X138.78 Y208.724 E139.02742
G1 X139.053 Y209.15 E139.09119
G1 X139.403 Y209.586 E139.16166
G1 X139.763 Y209.942 E139.22547
G1 X140.212 Y210.344 E139.30143
G1 X141 Y210.842 E139.41892
G1 X141.496 Y211.064 E139.48741
G1 X142.124 Y211.272 E139.57079
G1 X142.989 Y211.425 E139.6815
G1 X143.499 Y211.45 E139.74585
G1 X190.105 Y211.45 E145.61978
G1 X190.224 Y212.241 F9000
G1 E145.31978 F2400
G92 E0
G1 X189.438 Y212.237 F9000
G1 X143.485 Y212.237
G1 X143.228 Y212.232
G1 X142.956 Y212.214
G1 X142.686 Y212.184
G1 X142.417 Y212.143
G1 X142.15 Y212.09
G1 X141.885 Y212.025
G1 X141.622 Y211.948
G1 X141.367 Y211.862
G1 X141.113 Y211.763
G1 X140.864 Y211.653
G1 X140.62 Y211.533
G1 X140.379 Y211.401
G1 X140.148 Y211.261
G1 X139.922 Y211.11
G1 X139.703 Y210.949
G1 X139.49 Y210.778
G1 X139.284 Y210.597
G1 X139.088 Y210.409
G1 X138.901 Y210.214
G1 X138.722 Y210.01
G1 X138.551 Y209.797
G1 X138.39 Y209.578
G1 X138.239 Y209.351
G1 X138.097 Y209.117
G1 X137.967 Y208.88
G1 X137.847 Y208.636
G1 X137.737 Y208.387
G1 X137.638 Y208.131
G1 X137.551 Y207.876
G1 X137.475 Y207.614
G1 X137.41 Y207.35
G1 X137.357 Y207.083
G1 X137.316 Y206.814
G1 X137.286 Y206.541
G1 X137.268 Y206.27
G1 X137.263 Y206.014
G1 X137.263 Y133.986
G1 X137.268 Y133.728
G1 X137.286 Y133.454
G1 X137.316 Y133.183
G1 X137.357 Y132.915
G1 X137.411 Y132.648
G1 X137.475 Y132.384
G1 X137.551 Y132.124
G1 X137.639 Y131.864
G1 X137.738 Y131.611
G1 X137.848 Y131.362
G1 X137.967 Y131.12
G1 X138.099 Y130.879
G1 X138.24 Y130.646
G1 X138.392 Y130.42
G1 X138.553 Y130.201
G1 X138.723 Y129.989
G1 X138.901 Y129.786
G1 X139.089 Y129.589
G1 X139.199 Y129.485
G1 X138.434 Y128.685
G1 E.4 F2400
;TYPE:Solid infill
;WIDTH:0.900117
G1 F1200
G1 X137.812 Y128.063 E.51088
G1 X137.416 Y128.359 E.5732
G1 X137.165 Y128.582 E.61552
G1 X137.607 Y129.024 E.69431
G1 X137.104 Y129.688 E.79931
G1 X136.58 Y129.164 E.89272
G1 X136.543 Y129.203 E.8995
G1 X136.071 Y129.822 E.99762
G1 X136.671 Y130.423 E1.10467
G1 X136.446 Y130.874 E1.1682
G1 X136.309 Y131.227 E1.21593
G1 X135.617 Y130.535 E1.33929
G1 X135.359 Y131.056 E1.41257
G1 X135.25 Y131.335 E1.45033
G1 X136.031 Y132.116 E1.58955
G1 X135.878 Y132.809 E1.67901
G1 X135.84 Y133.092 E1.715
G1 X134.961 Y132.213 E1.87169
G1 X134.818 Y132.898 E1.9599
G1 X134.771 Y133.19 E1.99718
G1 X135.782 Y134.2 E2.17732
G1 X135.782 Y135.367 E2.32442
G1 X134.609 Y134.194 E2.53352
G1 X134.447 Y135.199 E2.66184
G1 X135.782 Y136.533 E2.89973
G1 X135.782 Y137.7 E3.04683
G1 X134.285 Y136.204 E3.3136
G1 X134.123 Y137.208 E3.44179
G1 X135.782 Y138.867 E3.73753
G1 X135.782 Y140.034 E3.88463
G1 X133.961 Y138.213 E4.20925
G1 X133.799 Y139.218 E4.33757
G1 X135.782 Y141.2 E4.69098
G1 X135.782 Y142.367 E4.83808
G1 X133.637 Y140.222 E5.22046
G1 X133.475 Y141.227 E5.34878
G1 X135.782 Y143.534 E5.76003
G1 X135.782 Y144.7 E5.90701
G1 X133.313 Y142.232 E6.34705
G1 X133.151 Y143.237 E6.47537
G1 X135.782 Y145.867 E6.94429
G1 X135.782 Y147.034 E7.09139
G1 X132.989 Y144.241 E7.58928
G1 X132.827 Y145.246 E7.7176
G1 X135.782 Y148.201 E8.24437
G1 X135.782 Y149.367 E8.39135
G1 X132.665 Y146.251 E8.94691
G1 X132.503 Y147.255 E9.0751
G1 X135.782 Y150.534 E9.65963
G1 X135.782 Y151.701 E9.80673
G1 X132.341 Y148.26 E10.42014
G1 X132.179 Y149.265 E10.54846
G1 X135.782 Y152.868 E11.19074
G1 X135.782 Y154.034 E11.33772
G1 X132.017 Y150.269 E12.00888
G1 X131.855 Y151.274 E12.1372
G1 X135.782 Y155.201 E12.83724
G1 X135.782 Y156.368 E12.98434
G1 X131.692 Y152.279 E13.71335
G1 X131.53 Y153.283 E13.84154
G1 X135.782 Y157.535 E14.59952
G1 X135.782 Y158.701 E14.7465
G1 X131.368 Y154.288 E15.53327
G1 X131.218 Y155.218 E15.65201
G1 X131.218 Y155.305 E15.66298
G1 X135.782 Y159.868 E16.47649
G1 X135.782 Y161.035 E16.62359
G1 X131.218 Y156.472 E17.4371
G1 X131.218 Y157.638 E17.58408
G1 X135.782 Y162.201 E18.39759
G1 X135.782 Y163.368 E18.54469
G1 X131.218 Y158.805 E19.3582
G1 X131.218 Y159.972 E19.5053
G1 X135.782 Y164.535 E20.31881
G1 X135.782 Y165.702 E20.46591
G1 X131.218 Y161.139 E21.27942
G1 X131.218 Y162.305 E21.4264
G1 X135.782 Y166.868 E22.23991
G1 X135.782 Y168.035 E22.38701
G1 X131.218 Y163.472 E23.20052
G1 X131.218 Y164.639 E23.34762
G1 X135.782 Y169.202 E24.16113
G1 X135.782 Y170.369 E24.30823
G1 X131.218 Y165.806 E25.12174
G1 X131.218 Y166.972 E25.26872
G1 X135.782 Y171.535 E26.08223
G1 X135.782 Y172.702 E26.22933
G1 X131.218 Y168.139 E27.04284
G1 X131.218 Y169.306 E27.18994
G1 X135.782 Y173.869 E28.00345
G1 X135.782 Y175.036 E28.15055
G1 X131.218 Y170.472 E28.96415
G1 X131.218 Y171.639 E29.11125
G1 X135.782 Y176.202 E29.92476
G1 X135.782 Y177.369 E30.07186
G1 X131.218 Y172.806 E30.88537
G1 X131.218 Y173.973 E31.03247
G1 X135.782 Y178.536 E31.84598
G1 X135.782 Y179.703 E31.99308
G1 X131.218 Y175.139 E32.80668
