; generated by PrusaSlicer 2.7.1 on 2024-08-18 at 04:36:38 UTC

; 

; external perimeters extrusion width = 0.90mm
; perimeters extrusion width = 0.90mm
; infill extrusion width = 0.90mm
; solid infill extrusion width = 0.90mm
; top infill extrusion width = 0.80mm

M190 S60 ; set bed temperature and wait for it to be reached
;TYPE:Custom
; Start GCODE (begins)

G28 ; home all axes
G1 Z5 F5000 ; lift nozzle

M109 S200 ; Do this now so we can purge

; Extrude a small amount of waste material
G92 E0
G1 E20 F200
G92 E0

; Start GCODE (ends)
G21 ; set units to millimeters
G90 ; use absolute coordinates
M82 ; use absolute distances for extrusion
G92 E0
; Filament gcode
M107
;LAYER_CHANGE
;Z:0.35
;HEIGHT:0.35
G1 Z.35 F9000
G1 E-.3 F2400
G92 E0
G1 X141.413 Y152.187 F9000
G1 E.4 F2400
;TYPE:Skirt/Brim
;WIDTH:0.9
G1 F1200
G1 X142.34 Y151.341 E.55817
G1 X146.998 Y147.819 E1.29416
G1 X148.072 Y147.154 E1.45337
G1 X149.11 Y146.637 E1.59952
G1 X150.28 Y146.183 E1.75769
G1 X155.896 Y144.581 E2.49373
G1 X157.138 Y144.349 E2.65297
G1 X158.293 Y144.242 E2.79916
G1 X159.548 Y144.241 E2.95733
G1 X165.362 Y144.776 E3.69319
G1 X166.605 Y145.008 E3.85256
G1 X167.74 Y145.331 E4.00129
G1 X168.914 Y145.786 E4.15998
G1 X174.123 Y148.38 E4.89339
G1 X175.194 Y149.043 E5.05214
G1 X176.119 Y149.742 E5.19826
G1 X177.047 Y150.587 E5.35644
G1 X180.984 Y154.9 E6.09244
G1 X181.746 Y155.908 E6.2517
G1 X182.367 Y156.912 E6.40049
G1 X182.928 Y158.039 E6.55916
G1 X185.031 Y163.465 E7.29259
G1 X185.375 Y164.676 E7.45126
G1 X185.588 Y165.816 E7.59742
G1 X185.704 Y167.066 E7.75564
G1 X185.708 Y172.905 E8.49155
G1 X185.592 Y174.164 E8.6509
G1 X185.379 Y175.303 E8.79694
G1 X185.036 Y176.511 E8.95521
G1 X182.93 Y181.957 E9.69112
G1 X182.367 Y183.088 E9.85035
G1 X181.757 Y184.074 E9.99648
G1 X181.001 Y185.076 E10.15468
G1 X177.07 Y189.394 E10.89063
G1 X176.136 Y190.246 E11.04996
G1 X175.21 Y190.945 E11.19619
G1 X174.144 Y191.606 E11.35427
G1 X168.918 Y194.212 E12.09027
G1 X167.74 Y194.669 E12.24952
G1 X166.605 Y194.992 E12.39825
G1 X165.367 Y195.223 E12.55697
G1 X159.573 Y195.76 E13.29034
G1 X158.313 Y195.76 E13.44914
G1 X157.138 Y195.651 E13.59787
G1 X155.9 Y195.42 E13.75659
G1 X150.303 Y193.827 E14.49002
G1 X149.129 Y193.372 E14.64871
G1 X148.072 Y192.846 E14.79751
G1 X147.001 Y192.183 E14.95626
G1 X142.358 Y188.677 E15.68953
G1 X141.427 Y187.828 E15.84833
G1 X140.632 Y186.956 E15.99705
G1 X139.873 Y185.951 E16.15578
G1 X136.81 Y181.003 E16.88921
G1 X136.248 Y179.876 E17.04793
G1 X135.822 Y178.775 E17.19672
G1 X135.477 Y177.564 E17.35542
G1 X134.408 Y171.844 E18.08882
G1 X134.292 Y170.59 E18.24754
G1 X134.292 Y169.41 E18.39626
G1 X134.408 Y168.156 E18.55498
G1 X135.477 Y162.436 E19.28838
G1 X135.822 Y161.225 E19.44708
G1 X136.248 Y160.124 E19.59587
G1 X136.81 Y158.997 E19.75459
G1 X139.873 Y154.049 E20.48802
G1 X140.632 Y153.044 E20.64675
G1 X141.332 Y152.276 E20.77772
G1 E20.47772 F2400
G92 E0
G1 X141.332 Y152.276 F9000
G1 X158.913 Y182.889
G1 E.4 F2400
;TYPE:Perimeter
;WIDTH:0.9
G1 F1200
G1 X158.552 Y182.531 E.46408
G1 X158.338 Y182.395 E.49604
G1 X157.913 Y182.217 E.55411
G1 X155.359 Y181.501 E.88841
G1 X154.833 Y181.473 E.9548
G1 X154.338 Y181.587 E1.01882
G1 X154.13 Y181.123 E1.08291
G1 X153.981 Y180.919 E1.11475
G1 X153.638 Y180.593 E1.17439
G1 X151.524 Y179.008 E1.5074
G1 X151.044 Y178.793 E1.57369
G1 X150.542 Y178.72 E1.63762
G1 X150.516 Y178.214 E1.70148
G1 X150.45 Y177.969 E1.73346
G1 X150.249 Y177.54 E1.79317
G1 X148.85 Y175.299 E2.12613
G1 X148.479 Y174.924 E2.19261
G1 X148.038 Y174.676 E2.25638
G1 X148.196 Y174.195 E2.32019
G1 X148.223 Y173.943 E2.35213
G1 X148.191 Y173.47 E2.41188
G1 X147.695 Y170.875 E2.74486
G1 X147.485 Y170.391 E2.81135
G1 X147.164 Y170 E2.87511
G1 X147.485 Y169.609 E2.93887
G1 X147.601 Y169.384 E2.97077
G1 X147.742 Y168.931 E3.03057
G1 X148.09 Y167.067 E3.26956
G1 X148.218 Y166.333 E3.36346
G1 X148.197 Y165.806 E3.42993
G1 X148.038 Y165.324 E3.4939
G1 X148.48 Y165.075 E3.55784
G1 X148.669 Y164.907 E3.58971
G1 X148.963 Y164.536 E3.64937
G1 X150.345 Y162.285 E3.98227
G1 X150.516 Y161.786 E4.04875
G1 X150.542 Y161.28 E4.11261
G1 X151.044 Y161.207 E4.17654
G1 X151.281 Y161.119 E4.2084
G1 X151.69 Y160.879 E4.26817
G1 X153.792 Y159.279 E4.60111
G1 X154.131 Y158.875 E4.66758
G1 X154.338 Y158.413 E4.73139
G1 X154.831 Y158.527 E4.79516
G1 X155.085 Y158.531 E4.82718
G1 X155.553 Y158.454 E4.88696
G1 X157.607 Y157.87 E5.15609
G1 X158.091 Y157.722 E5.21988
G1 X158.553 Y157.468 E5.28633
G1 X158.913 Y157.111 E5.35023
G1 X159.333 Y157.396 E5.4142
G1 X159.567 Y157.491 E5.44603
G1 X160.031 Y157.588 E5.50577
G1 X162.663 Y157.823 E5.83881
G1 X163.185 Y157.753 E5.90519
G1 X163.65 Y157.55 E5.96914
G1 X163.938 Y157.967 E6.03301
G1 X164.123 Y158.14 E6.06493
G1 X164.52 Y158.399 E6.12467
G1 X166.06 Y159.166 E6.3415
G1 X166.889 Y159.568 E6.45762
G1 X167.402 Y159.692 E6.52414
G1 X167.908 Y159.671 E6.58797
G1 X168.026 Y160.163 E6.65174
G1 X168.136 Y160.392 E6.68376
G1 X168.413 Y160.777 E6.74354
G1 X169.54 Y162.013 E6.95435
G1 X170.199 Y162.722 E7.07635
G1 X170.632 Y163.022 E7.14274
G1 X171.113 Y163.186 E7.20679
G1 X171.045 Y163.689 E7.27076
G1 X171.065 Y163.941 E7.30262
G1 X171.184 Y164.4 E7.36238
G1 X172.147 Y166.86 E7.69533
G1 X172.443 Y167.296 E7.76175
G1 X172.831 Y167.622 E7.82562
G1 X172.587 Y168.065 E7.88936
G1 X172.514 Y168.308 E7.92134
G1 X172.459 Y168.779 E7.98111
G1 X172.469 Y171.421 E8.31409
G1 X172.587 Y171.935 E8.38056
G1 X172.831 Y172.378 E8.4443
G1 X172.443 Y172.704 E8.50817
G1 X172.287 Y172.904 E8.54014
G1 X172.066 Y173.323 E8.59984
G1 X171.415 Y175.003 E8.82692
G1 X171.121 Y175.789 E8.93269
G1 X171.045 Y176.311 E8.99917
G1 X171.113 Y176.814 E9.06314
G1 X170.632 Y176.978 E9.12719
G1 X170.415 Y177.108 E9.15907
G1 X170.058 Y177.419 E9.21874
G1 X168.286 Y179.378 E9.55166
G1 X168.026 Y179.836 E9.61804
G1 X167.908 Y180.329 E9.68193
G1 X167.401 Y180.308 E9.74588
G1 X167.152 Y180.351 E9.77773
G1 X166.706 Y180.512 E9.83749
G1 X165.353 Y181.186 E10.028
G1 X164.347 Y181.698 E10.17027
G1 X163.939 Y182.032 E10.23672
G1 X163.65 Y182.45 E10.30077
G1 X163.183 Y182.247 E10.36495
G1 X162.935 Y182.197 E10.39684
G1 X162.463 Y182.186 E10.45634
G1 X159.834 Y182.439 E10.78921
G1 X159.334 Y182.604 E10.85557
G1 X159.012 Y182.822 E10.90458
G1 X159.135 Y183.929 F9000
G1 F1200
G1 X158.984 Y184.459 E10.97404
G1 X158.998 Y184.468 E10.97614
;WIDTH:0.872938
G1 X159.011 Y184.478 E10.97814
;WIDTH:0.845877
G1 X159.026 Y185.829 E11.13725
G1 X158.939 Y186.332 E11.19736
;WIDTH:0.837195
G1 X158.75 Y186.851 E11.26167
G1 X158.505 Y187.339 E11.32525
G1 X158.355 Y186.802 E11.39017
G1 X158.236 Y186.041 E11.47986
;WIDTH:0.845877
G1 X158.262 Y185.758 E11.51333
G1 X158.525 Y184.433 E11.67241
;WIDTH:0.872938
G1 X158.54 Y184.426 E11.67443
;WIDTH:0.9
G1 X158.555 Y184.419 E11.67652
G1 X158.494 Y183.757 E11.76031
G1 X158.256 Y183.369 E11.81768
G1 X158.066 Y183.198 E11.8499
G1 X157.683 Y183.01 E11.90367
G1 X155.327 Y182.339 E12.21241
G1 X155.047 Y182.294 E12.24815
G1 X154.643 Y182.341 E12.29941
G1 X154.237 Y182.547 E12.35679
G1 X153.837 Y183.077 E12.44048
G1 X153.846 Y183.09 E12.44247
;WIDTH:0.872794
G1 X153.856 Y183.104 E12.44457
;WIDTH:0.845588
G1 X153.382 Y184.367 E12.60338
G1 X153.261 Y184.612 E12.63555
;WIDTH:0.83505
G1 X152.757 Y185.22 E12.72725
G1 X152.34 Y185.599 E12.79268
G1 X152.393 Y185.049 E12.85684
G1 X152.495 Y184.522 E12.91917
;WIDTH:0.845588
G1 X152.675 Y184.058 E12.97776
G1 X153.418 Y182.886 E13.14112
;WIDTH:0.872794
G1 X153.434 Y182.885 E13.14307
;WIDTH:0.9
G1 X153.451 Y182.884 E13.14522
G1 X153.633 Y182.246 E13.22884
G1 X153.552 Y181.798 E13.28622
G1 X153.436 Y181.569 E13.31857
G1 X153.141 Y181.251 E13.37324
G1 X151.494 Y180.007 E13.63338
G1 X150.947 Y179.635 E13.71675
G1 X150.553 Y179.534 E13.76801
G1 X150.1 Y179.579 E13.82538
G1 X149.537 Y179.928 E13.90886
G1 X149.54 Y179.945 E13.91104
;WIDTH:0.872939
G1 X149.544 Y179.961 E13.91305
;WIDTH:0.845878
G1 X148.644 Y180.969 E14.07219
G1 X148.241 Y181.282 E14.13228
;WIDTH:0.837191
G1 X147.752 Y181.538 E14.19655
G1 X147.242 Y181.734 E14.26017
G1 X147.493 Y181.236 E14.3251
G1 X147.917 Y180.594 E14.41468
;WIDTH:0.845878
G1 X148.127 Y180.403 E14.44811
G1 X149.214 Y179.599 E14.60733
;WIDTH:0.872939
G1 X149.23 Y179.604 E14.60937
;WIDTH:0.9
G1 X149.246 Y179.61 E14.61152
G1 X149.646 Y179.081 E14.69511
G1 X149.733 Y178.634 E14.7525
G1 X149.708 Y178.379 E14.78479
G1 X149.547 Y177.975 E14.8396
G1 X148.348 Y176.038 E15.12671
G1 X148.085 Y175.675 E15.18321
G1 X147.754 Y175.439 E15.23445
G1 X147.316 Y175.317 E15.29175
G1 X146.664 Y175.439 E15.37535
G1 X146.662 Y175.456 E15.37751
;WIDTH:0.872939
G1 X146.659 Y175.472 E15.37949
;WIDTH:0.845879
G1 X145.456 Y176.087 E15.5386
G1 X144.967 Y176.234 E15.59873
;WIDTH:0.837192
G1 X144.418 Y176.296 E15.66306
G1 X143.872 Y176.294 E15.72664
G1 X144.286 Y175.921 E15.79152
G1 X144.913 Y175.475 E15.88111
;WIDTH:0.845879
G1 X145.179 Y175.372 E15.9147
G1 X146.482 Y175.016 E16.07377
;WIDTH:0.872939
G1 X146.495 Y175.027 E16.07585
;WIDTH:0.9
G1 X146.508 Y175.037 E16.07792
G1 X147.072 Y174.689 E16.16145
G1 X147.314 Y174.303 E16.21887
G1 X147.383 Y174.056 E16.25119
G1 X147.38 Y173.621 E16.30602
G1 X146.942 Y171.281 E16.60606
G1 X146.847 Y170.949 E16.64958
G1 X146.623 Y170.609 E16.7009
G1 X146.259 Y170.337 E16.75817
G1 X145.607 Y170.216 E16.84175
G1 X145.599 Y170.23 E16.84378
;WIDTH:0.872793
G1 X145.59 Y170.245 E16.84591
;WIDTH:0.845587
G1 X144.249 Y170.383 E17.00461
G1 X143.976 Y170.384 E17.03675
;WIDTH:0.83505
G1 X143.207 Y170.204 E17.12845
G1 X142.682 Y170 E17.19385
G1 X143.197 Y169.802 E17.25791
G1 X143.715 Y169.659 E17.3203
;WIDTH:0.845587
G1 X144.211 Y169.613 E17.37894
G1 X145.59 Y169.755 E17.54213
;WIDTH:0.872793
G1 X145.599 Y169.77 E17.54426
;WIDTH:0.9
G1 X145.607 Y169.784 E17.54629
G1 X146.259 Y169.663 E17.62987
G1 X146.623 Y169.392 E17.68706
G1 X146.777 Y169.186 E17.71948
G1 X146.931 Y168.779 E17.77432
G1 X147.279 Y166.915 E18.01331
G1 X147.399 Y166.095 E18.11776
G1 X147.314 Y165.697 E18.16905
G1 X147.184 Y165.514 E18.19734
;WIDTH:0.87345
G1 X147.053 Y165.33 E18.22489
;WIDTH:0.846901
G1 X146.857 Y165.237 E18.25047
;WIDTH:0.800041
G1 X146.66 Y165.144 E18.2746
;WIDTH:0.753181
G1 X146.464 Y165.051 E18.29708
;WIDTH:0.752839
G1 X146.036 Y164.91 E18.34374
;WIDTH:0.799357
G1 X145.607 Y164.769 E18.39371
;WIDTH:0.845876
G1 X145.179 Y164.628 E18.44678
G1 X144.719 Y164.407 E18.50688
;WIDTH:0.837191
G1 X144.271 Y164.082 E18.57132
G1 X143.869 Y163.714 E18.63478
G1 X144.426 Y163.717 E18.69964
G1 X145.19 Y163.81 E18.78925
;WIDTH:0.845876
G1 X145.867 Y164.097 E18.87584
;WIDTH:0.799357
G1 X146.279 Y164.281 E18.92577
;WIDTH:0.752839
G1 X146.691 Y164.466 E18.97254
;WIDTH:0.706321
G1 X146.707 Y164.473 E18.97422
;WIDTH:0.751736
G1 X146.909 Y164.534 E18.99603
;WIDTH:0.799318
G1 X147.112 Y164.595 E19.01948
;WIDTH:0.846901
G1 X147.314 Y164.656 E19.04436
;WIDTH:0.87345
G1 X147.534 Y164.609 E19.0718
;WIDTH:0.9
G1 X147.754 Y164.561 E19.10018
G1 X147.972 Y164.425 E19.13256
G1 X148.262 Y164.102 E19.18727
G1 X149.417 Y162.237 E19.46375
G1 X149.668 Y161.768 E19.53079
G1 X149.733 Y161.366 E19.58211
G1 X149.677 Y161.148 E19.61048
;WIDTH:0.873394
G1 X149.621 Y160.929 E19.63805
;WIDTH:0.846788
G1 X149.472 Y160.772 E19.66357
;WIDTH:0.799965
G1 X149.322 Y160.614 E19.6877
;WIDTH:0.753142
G1 X149.173 Y160.457 E19.71012
;WIDTH:0.752742
G1 X148.825 Y160.171 E19.75676
;WIDTH:0.799164
G1 X148.477 Y159.885 E19.80659
;WIDTH:0.845586
G1 X147.927 Y159.416 E19.89168
;WIDTH:0.835046
G1 X147.48 Y158.765 E19.98337
G1 X147.23 Y158.26 E20.0488
G1 X147.744 Y158.462 E20.11292
G1 X148.247 Y158.717 E20.1784
;WIDTH:0.845586
G1 X148.646 Y159.033 E20.23832
G1 X148.963 Y159.353 E20.29134
;WIDTH:0.799164
G1 X149.279 Y159.673 E20.34109
;WIDTH:0.752742
G1 X149.596 Y159.993 E20.38773
;WIDTH:0.70632
G1 X149.609 Y160.005 E20.38944
;WIDTH:0.751697
G1 X149.775 Y160.135 E20.41124
;WIDTH:0.799242
G1 X149.942 Y160.265 E20.43466
;WIDTH:0.846788
G1 X150.108 Y160.396 E20.45959
;WIDTH:0.873394
G1 X150.33 Y160.431 E20.487
;WIDTH:0.9
G1 X150.553 Y160.466 E20.51545
G1 X150.805 Y160.418 E20.54778
G1 X151.193 Y160.221 E20.60262
G1 X153.048 Y158.819 E20.89568
G1 X153.347 Y158.553 E20.94612
G1 X153.552 Y158.201 E20.99746
G1 X153.579 Y157.977 E21.0259
;WIDTH:0.873322
G1 X153.606 Y157.753 E21.05342
;WIDTH:0.846644
G1 X153.524 Y157.553 E21.0789
;WIDTH:0.799869
G1 X153.441 Y157.352 E21.10298
;WIDTH:0.753095
G1 X153.359 Y157.151 E21.12547
;WIDTH:0.752839
G1 X153.137 Y156.758 E21.17221
;WIDTH:0.799358
G1 X152.916 Y156.365 E21.2221
;WIDTH:0.845877
G1 X152.694 Y155.972 E21.27526
G1 X152.503 Y155.499 E21.33533
;WIDTH:0.837192
G1 X152.391 Y154.958 E21.39966
G1 X152.342 Y154.415 E21.46314
G1 X152.752 Y154.792 E21.52799
G1 X153.254 Y155.376 E21.61766
;WIDTH:0.845877
G1 X153.561 Y156.044 E21.70424
;WIDTH:0.799358
G1 X153.741 Y156.458 E21.75419
;WIDTH:0.752839
G1 X153.921 Y156.871 E21.80084
;WIDTH:0.706321
G1 X153.928 Y156.888 E21.80261
;WIDTH:0.75165
G1 X154.036 Y157.069 E21.8244
;WIDTH:0.799147
G1 X154.144 Y157.25 E21.84772
;WIDTH:0.846644
G1 X154.252 Y157.432 E21.87267
;WIDTH:0.873322
G1 X154.447 Y157.545 E21.90016
;WIDTH:0.9
G1 X154.642 Y157.658 E21.92856
G1 X154.894 Y157.704 E21.96085
G1 X155.327 Y157.661 E22.01569
G1 X157.381 Y157.076 E22.28486
G1 X157.939 Y156.884 E22.35923
G1 X158.257 Y156.63 E22.41052
G1 X158.363 Y156.431 E22.43894
;WIDTH:0.873367
G1 X158.469 Y156.232 E22.46644
;WIDTH:0.846734
G1 X158.465 Y156.015 E22.49203
;WIDTH:0.799929
G1 X158.46 Y155.798 E22.51607
;WIDTH:0.753125
G1 X158.456 Y155.581 E22.53855
;WIDTH:0.752743
G1 X158.392 Y155.135 E22.5852
;WIDTH:0.799165
G1 X158.327 Y154.69 E22.63495
;WIDTH:0.845587
G1 X158.236 Y153.972 E22.72015
;WIDTH:0.835047
G1 X158.345 Y153.19 E22.81183
G1 X158.5 Y152.649 E22.87717
G1 X158.744 Y153.144 E22.94125
G1 X158.944 Y153.671 E23.0067
;WIDTH:0.845587
G1 X159.026 Y154.174 E23.06669
G1 X159.044 Y154.623 E23.11959
;WIDTH:0.799165
G1 X159.063 Y155.073 E23.16942
;WIDTH:0.752743
G1 X159.081 Y155.523 E23.21605
;WIDTH:0.706321
G1 X159.082 Y155.541 E23.21779
;WIDTH:0.75168
G1 X159.118 Y155.749 E23.23961
;WIDTH:0.799207
G1 X159.153 Y155.957 E23.26295
;WIDTH:0.846734
G1 X159.188 Y156.165 E23.28782
;WIDTH:0.873367
G1 X159.329 Y156.341 E23.31532
;WIDTH:0.9
G1 X159.469 Y156.517 E23.34366
G1 X159.688 Y156.651 E23.37602
G1 X160.108 Y156.767 E23.43094
G1 X162.42 Y156.981 E23.72358
G1 X162.824 Y156.986 E23.7745
G1 X163.212 Y156.864 E23.82576
G1 X163.383 Y156.717 E23.85418
;WIDTH:0.87334
G1 X163.553 Y156.57 E23.88159
;WIDTH:0.846681
G1 X163.628 Y156.366 E23.90721
;WIDTH:0.799893
G1 X163.702 Y156.162 E23.93124
;WIDTH:0.753106
G1 X163.776 Y155.958 E23.95372
;WIDTH:0.752838
G1 X163.877 Y155.518 E24.00047
;WIDTH:0.799357
G1 X163.978 Y155.079 E24.05032
;WIDTH:0.845877
G1 X164.079 Y154.639 E24.10348
G1 X164.257 Y154.161 E24.16355
;WIDTH:0.837192
G1 X164.539 Y153.685 E24.22797
G1 X164.868 Y153.251 E24.29138
G1 X164.917 Y153.806 E24.35625
G1 X164.895 Y154.575 E24.44583
;WIDTH:0.845877
G1 X164.671 Y155.276 E24.5325
;WIDTH:0.799357
G1 X164.526 Y155.703 E24.5824
;WIDTH:0.752838
G1 X164.38 Y156.13 E24.62913
;WIDTH:0.706319
G1 X164.375 Y156.147 E24.63084
;WIDTH:0.751661
G1 X164.332 Y156.354 E24.65269
;WIDTH:0.799171
G1 X164.29 Y156.561 E24.67606
;WIDTH:0.846681
G1 X164.248 Y156.767 E24.70084
;WIDTH:0.87334
G1 X164.315 Y156.982 E24.72831
;WIDTH:0.9
G1 X164.383 Y157.197 E24.75673
G1 X164.539 Y157.401 E24.7891
G1 X164.888 Y157.661 E24.84395
G1 X166.912 Y158.669 E25.12893
G1 X167.341 Y158.846 E25.18742
G1 X167.748 Y158.873 E25.23883
G1 X167.96 Y158.797 E25.26721
;WIDTH:0.873366
G1 X168.172 Y158.722 E25.29464
;WIDTH:0.846733
G1 X168.315 Y158.558 E25.32029
;WIDTH:0.799928
G1 X168.458 Y158.395 E25.3443
;WIDTH:0.753124
G1 X168.601 Y158.232 E25.36676
;WIDTH:0.752742
G1 X168.854 Y157.859 E25.41342
;WIDTH:0.799165
G1 X169.106 Y157.486 E25.46322
;WIDTH:0.845588
G1 X169.523 Y156.895 E25.54837
;WIDTH:0.835047
G1 X170.129 Y156.39 E25.63996
G1 X170.609 Y156.094 E25.70544
G1 X170.456 Y156.625 E25.7696
G1 X170.248 Y157.149 E25.83506
;WIDTH:0.845588
G1 X169.97 Y157.575 E25.89494
G1 X169.681 Y157.92 E25.94792
;WIDTH:0.799165
G1 X169.392 Y158.265 E25.99771
