; generated by PrusaSlicer 2.7.1 on 2024-08-18 at 04:36:41 UTC

; 

; external perimeters extrusion width = 0.90mm
; perimeters extrusion width = 0.90mm
; infill extrusion width = 0.90mm
; solid infill extrusion width = 0.90mm
; top infill extrusion width = 0.80mm

M190 S60 ; set bed temperature and wait for it to be reached
;TYPE:Custom
; Start GCODE (begins)

G28 ; home all axes
G1 Z5 F5000 ; lift nozzle

M109 S200 ; Do this now so we can purge

; Extrude a small amount of waste material
G92 E0
G1 E20 F200
G92 E0

; Start GCODE (ends)
G21 ; set units to millimeters
G90 ; use absolute coordinates
M82 ; use absolute distances for extrusion
G92 E0
; Filament gcode
M107
;LAYER_CHANGE
;Z:0.35
;HEIGHT:0.35
G1 Z.35 F9000
G1 E-.3 F2400
G92 E0
G1 X127.099 Y136.684 F9000
G1 E.4 F2400
;TYPE:Skirt/Brim
;WIDTH:0.9
G1 F1200
G1 X130.397 Y133.722 E.95869
G1 X132.571 Y132.052 E1.3042
G1 X134.835 Y130.517 E1.64894
G1 X136.469 Y129.519 E1.89025
G1 X138.878 Y128.211 E2.23573
G1 X142.925 Y126.401 E2.79448
G1 X147.125 Y124.981 E3.35326
G1 X151.441 Y123.965 E3.91209
G1 X155.833 Y123.362 E4.47082
G1 X158.564 Y123.2 E4.81562
G1 X160.478 Y123.178 E5.05686
G1 X164.905 Y123.433 E5.61574
G1 X169.287 Y124.106 E6.1745
G1 X173.586 Y125.19 E6.73328
G1 X177.763 Y126.676 E7.29205
G1 X181.781 Y128.55 E7.85082
G1 X184.169 Y129.895 E8.19624
G1 X186.469 Y131.377 E8.54108
G1 X188.027 Y132.489 E8.78233
G1 X190.174 Y134.193 E9.12779
G1 X193.425 Y137.208 E9.68661
G1 X196.377 Y140.516 E10.2454
G1 X199.002 Y144.088 E10.80408
G1 X201.278 Y147.893 E11.36288
G1 X202.591 Y150.542 E11.7355
G1 X203.267 Y152.095 E11.94897
G1 X204.766 Y156.268 E12.50781
G1 X205.864 Y160.563 E13.06653
G1 X206.369 Y163.476 E13.43914
G1 X206.671 Y166.2 E13.78456
G1 X206.821 Y170.631 E14.34334
G1 X206.551 Y175.057 E14.9022
G1 X205.864 Y179.437 E15.46098
G1 X204.766 Y183.732 E16.0197
G1 X203.811 Y186.53 E16.39232
G1 X203.184 Y188.104 E16.60586
G1 X201.278 Y192.107 E17.16464
G1 X199.002 Y195.911 E17.72334
G1 X197.289 Y198.321 E18.09599
G1 X195.568 Y200.454 E18.44141
G1 X192.529 Y203.682 E19.00017
G1 X189.197 Y206.607 E19.55897
G1 X185.604 Y209.205 E20.11779
G1 X181.781 Y211.45 E20.67655
G1 X180.268 Y212.211 E20.89
G1 X177.564 Y213.406 E21.26259
G1 X173.38 Y214.872 E21.82135
G1 X169.076 Y215.936 E22.38013
G1 X164.69 Y216.589 E22.93901
G1 X161.956 Y216.783 E23.28445
G1 X159 Y216.813 E23.65703
G1 X154.577 Y216.509 E24.21579
G1 X150.203 Y215.787 E24.77452
G1 X145.916 Y214.655 E25.33335
G1 X141.755 Y213.123 E25.89219
G1 X137.759 Y211.204 E26.45088
G1 X133.961 Y208.916 E27.00971
G1 X130.397 Y206.278 E27.56856
G1 X128.331 Y204.486 E27.91325
G1 X126.946 Y203.164 E28.15456
G1 X123.958 Y199.889 E28.7133
G1 X121.292 Y196.346 E29.27213
G1 X119.707 Y193.851 E29.64467
G1 X118.38 Y191.452 E29.9902
G1 X116.538 Y187.42 E30.54889
G1 X115.085 Y183.231 E31.1077
G1 X114.035 Y178.923 E31.66655
G1 X113.397 Y174.536 E32.22528
G1 X113.204 Y171.586 E32.59787
G1 X113.177 Y169.892 E32.8114
G1 X113.397 Y165.464 E33.37017
G1 X113.742 Y162.745 E33.7156
G1 X114.247 Y160.057 E34.06031
G1 X114.69 Y158.194 E34.30166
G1 X115.458 Y155.563 E34.64709
G1 X117.023 Y151.415 E35.20585
G1 X118.974 Y147.433 E35.76472
G1 X121.292 Y143.654 E36.32346
G1 X123.958 Y140.111 E36.88229
G1 X125.766 Y138.059 E37.22698
G1 X127.015 Y136.77 E37.45319
G1 E37.15319 F2400
G92 E0
G1 X127.015 Y136.77 F9000
G1 X181.647 Y201.117
G1 E.4 F2400
;TYPE:Perimeter
;WIDTH:0.888543
G1 F1200
G1 X180.751 Y201.721 E.5343
;WIDTH:0.887987
G1 X179.672 Y202.402 E.69277
;WIDTH:0.887552
G1 X179.593 Y202.45 E.70424
;WIDTH:0.888156
G1 X178.493 Y203.088 E.86221
;WIDTH:0.888686
G1 X177.361 Y203.695 E1.02188
;WIDTH:0.886403
G1 X176.216 Y204.26 E1.18015
;WIDTH:0.886044
G1 X175.053 Y204.786 E1.3383
;WIDTH:0.885767
G1 X173.873 Y205.273 E1.49641
;WIDTH:0.890043
G1 X172.678 Y205.72 E1.65527
G1 X171.468 Y206.126 E1.81418
G1 X170.245 Y206.492 E1.97313
G1 X169.091 Y206.796 E2.12172
;WIDTH:0.890279
G1 X167.426 Y207.171 E2.33429
;WIDTH:0.889667
G1 X166.249 Y207.387 E2.48322
;WIDTH:0.88935
G1 X165.072 Y207.565 E2.63131
;WIDTH:0.889178
G1 X163.973 Y207.696 E2.76897
;WIDTH:0.888636
G1 X163.878 Y207.707 E2.78086
;WIDTH:0.92786
G1 X162.269 Y207.828 E2.99109
;WIDTH:0.9
G1 X161.497 Y207.87 E3.08853
G1 X160.3 Y207.899 E3.23944
G1 X159.104 Y207.889 E3.39018
G1 X158.17 Y207.852 E3.50799
;WIDTH:0.914158
G1 X157.542 Y207.809 E3.58869
;WIDTH:0.919221
G1 X156.036 Y207.694 E3.78349
;WIDTH:0.890892
G1 X154.331 Y207.479 E3.99769
;WIDTH:0.889667
G1 X153.151 Y207.281 E4.1466
;WIDTH:0.889354
G1 X151.984 Y207.048 E4.29465
;WIDTH:0.888954
G1 X150.997 Y206.819 E4.42064
;WIDTH:0.888471
G1 X149.763 Y206.496 E4.57916
;WIDTH:0.887902
G1 X148.539 Y206.131 E4.73778
;WIDTH:0.887636
G1 X148.452 Y206.103 E4.74913
;WIDTH:0.888238
G1 X147.248 Y205.695 E4.90707
;WIDTH:0.888758
G1 X146.045 Y205.241 E5.06692
;WIDTH:0.886349
G1 X144.867 Y204.751 E5.22506
;WIDTH:0.886001
G1 X143.706 Y204.221 E5.38318
;WIDTH:0.885737
G1 X142.563 Y203.653 E5.54126
;WIDTH:0.890027
G1 X141.913 Y203.311 E5.63271
G1 X140.871 Y202.723 E5.78168
G1 X139.847 Y202.103 E5.93073
G1 X138.844 Y201.451 E6.07968
G1 X137.861 Y200.767 E6.22879
;WIDTH:0.889872
G1 X136.901 Y200.053 E6.37773
;WIDTH:0.893909
G1 X135.866 Y199.216 E6.54425
;WIDTH:0.935034
G1 X135.47 Y198.857 E6.61448
G1 X134.981 Y198.46 E6.69724
;WIDTH:0.908054
G1 X134.17 Y197.734 E6.83577
;WIDTH:0.9
G1 X133.308 Y196.905 E6.9865
G1 X132.472 Y196.049 E7.1373
G1 X131.8 Y195.316 E7.26263
;WIDTH:0.908691
G1 X130.869 Y194.238 E7.44404
;WIDTH:0.904917
G1 X130.483 Y193.776 E7.52037
;WIDTH:0.890028
G1 X129.402 Y192.371 E7.74109
G1 X128.711 Y191.394 E7.89009
;WIDTH:0.889873
G1 X128.051 Y190.396 E8.03904
;WIDTH:0.889627
G1 X127.423 Y189.377 E8.188
;WIDTH:0.889304
G1 X126.831 Y188.345 E8.336
;WIDTH:0.888887
G1 X126.348 Y187.442 E8.46333
;WIDTH:0.888394
G1 X125.779 Y186.299 E8.62199
;WIDTH:0.887723
G1 X125.214 Y185.054 E8.79174
;WIDTH:0.888318
G1 X124.726 Y183.87 E8.95086
;WIDTH:0.886719
G1 X124.283 Y182.675 E9.1089
;WIDTH:0.885959
G1 X123.873 Y181.464 E9.26729
G1 X123.508 Y180.241 E9.42541
;WIDTH:0.885703
G1 X123.184 Y179.006 E9.58354
;WIDTH:0.890011
G1 X122.902 Y177.762 E9.74236
G1 X122.662 Y176.508 E9.90133
G1 X122.47 Y175.294 E10.05436
G1 X122.313 Y174.031 E10.21282
;WIDTH:0.90157
G1 X122.266 Y173.451 E10.2863
;WIDTH:0.918809
G1 X122.166 Y172.157 E10.4536
;WIDTH:0.9
G1 X122.12 Y171.196 E10.57486
G1 X122.106 Y170.282 E10.69007
G1 X122.129 Y168.606 E10.90132
;WIDTH:0.915672
G1 X122.176 Y167.787 E11.00668
;WIDTH:0.959608
G1 X122.242 Y167.167 E11.09094
G1 X122.254 Y166.856 E11.133
;WIDTH:0.93359
G1 X122.267 Y166.544 E11.17396
;WIDTH:0.907572
G1 X122.31 Y166.033 E11.23918
;WIDTH:0.890556
G1 X122.475 Y164.671 E11.41011
;WIDTH:0.890096
G1 X122.736 Y163.075 E11.61148
;WIDTH:0.888284
G1 X122.908 Y162.216 E11.72032
;WIDTH:0.889975
G1 X123.301 Y160.521 E11.93695
;WIDTH:0.889841
G1 X123.618 Y159.367 E12.08592
;WIDTH:0.889584
G1 X123.97 Y158.23 E12.23404
;WIDTH:0.889464
G1 X124.303 Y157.257 E12.362
;WIDTH:0.888828
G1 X124.726 Y156.13 E12.51166
;WIDTH:0.888318
G1 X125.212 Y154.95 E12.67022
;WIDTH:0.887723
G1 X125.775 Y153.72 E12.83817
;WIDTH:0.888309
G1 X126.343 Y152.568 E12.99776
;WIDTH:0.889829
G1 X126.99 Y151.375 E13.1667
;WIDTH:0.886465
G1 X127.599 Y150.333 E13.31632
;WIDTH:0.885919
G1 X128.28 Y149.254 E13.47439
;WIDTH:0.885678
G1 X128.997 Y148.198 E13.63247
;WIDTH:0.890028
G1 X129.753 Y147.161 E13.79226
;WIDTH:0.890902
G1 X130.132 Y146.664 E13.87016
;WIDTH:0.894035
G1 X130.748 Y145.902 E13.99276
;WIDTH:0.926001
G1 X131.104 Y145.51 E14.0616
G1 X131.667 Y144.83 E14.17637
;WIDTH:0.9
G1 X132.472 Y143.951 E14.32659
G1 X133.157 Y143.25 E14.45012
G1 X134.387 Y142.07 E14.66494
;WIDTH:0.908375
G1 X134.844 Y141.664 E14.74277
;WIDTH:0.947781
G1 X135.361 Y141.24 E14.83192
G1 X135.814 Y140.83 E14.91339
;WIDTH:0.908165
G1 X136.228 Y140.483 E14.98215
;WIDTH:0.885704
G1 X137.239 Y139.693 E15.14106
;WIDTH:0.886084
G1 X138.261 Y138.952 E15.29748
;WIDTH:0.888641
G1 X139.327 Y138.235 E15.45717
;WIDTH:0.889993
G1 X140.411 Y137.555 E15.61649
;WIDTH:0.885333
G1 X141.47 Y136.936 E15.76834
;WIDTH:0.88999
G1 X142.985 Y136.129 E15.98206
;WIDTH:0.889821
G1 X144.063 Y135.609 E16.13104
G1 X145.156 Y135.122 E16.27999
;WIDTH:0.889193
G1 X146.259 Y134.673 E16.42812
;WIDTH:0.888757
G1 X147.24 Y134.308 E16.55824
;WIDTH:0.888237
G1 X148.448 Y133.898 E16.71673
;WIDTH:0.887667
G1 X148.515 Y133.876 E16.72548
;WIDTH:0.887901
G1 X149.757 Y133.506 E16.88642
;WIDTH:0.888471
G1 X150.986 Y133.183 E17.04434
;WIDTH:0.888953
G1 X152.242 Y132.899 E17.20446
;WIDTH:0.88619
G1 X153.496 Y132.659 E17.36268
;WIDTH:0.885879
G1 X154.764 Y132.461 E17.52166
;WIDTH:0.891009
G1 X156.085 Y132.301 E17.68754
;WIDTH:0.919137
G1 X157.376 Y132.201 E17.85452
;WIDTH:0.911287
G1 X157.908 Y132.158 E17.92271
;WIDTH:0.9
G1 X159.104 Y132.111 E18.07356
G1 X159.992 Y132.104 E18.18548
G1 X161.606 Y132.141 E18.38895
;WIDTH:0.917866
G1 X162.417 Y132.191 E18.49358
;WIDTH:0.939231
G1 X163.544 Y132.279 E18.64283
;WIDTH:0.912901
G1 X164.055 Y132.313 E18.70839
;WIDTH:0.888953
G1 X165.334 Y132.473 E18.86867
;WIDTH:0.886187
G1 X166.599 Y132.675 E19.02742
;WIDTH:0.885953
G1 X167.888 Y132.927 E19.19013
;WIDTH:0.889898
G1 X169.091 Y133.204 E19.34381
;WIDTH:0.890078
G1 X170.921 Y133.702 E19.57996
G1 X172.711 Y134.292 E19.81464
;WIDTH:0.889968
G1 X174.305 Y134.898 E20.02695
;WIDTH:0.889775
G1 X175.406 Y135.366 E20.17586
;WIDTH:0.889496
G1 X176.492 Y135.87 E20.32483
;WIDTH:0.889133
G1 X177.556 Y136.404 E20.47289
;WIDTH:0.888686
G1 X178.486 Y136.908 E20.60438
;WIDTH:0.888155
G1 X179.59 Y137.548 E20.7629
;WIDTH:0.88755
G1 X179.67 Y137.597 E20.77455
;WIDTH:0.889055
G1 X180.802 Y138.314 E20.94119
;WIDTH:0.888543
G1 X181.807 Y138.996 E21.09214
;WIDTH:0.886525
G1 X182.838 Y139.749 E21.25042
;WIDTH:0.888635
G1 X183.814 Y140.515 E21.40464
;WIDTH:0.902371
G1 X184.238 Y140.871 E21.47462
;WIDTH:0.910151
G1 X185.391 Y141.862 E21.66859
;WIDTH:0.9
G1 X186.266 Y142.677 E21.8193
G1 X187.116 Y143.52 E21.97018
G1 X187.945 Y144.397 E22.12228
;WIDTH:0.903989
G1 X188.341 Y144.845 E22.198
;WIDTH:0.941334
G1 X188.803 Y145.408 E22.29439
G1 X189.156 Y145.797 E22.36391
;WIDTH:0.901424
G1 X189.506 Y146.204 E22.43168
;WIDTH:0.889103
G1 X190.236 Y147.137 E22.57901
;WIDTH:0.888017
G1 X190.309 Y147.236 E22.59429
;WIDTH:0.886993
G1 X191.04 Y148.251 E22.74945
;WIDTH:0.888938
G1 X191.771 Y149.328 E22.9113
;WIDTH:0.886141
G1 X192.449 Y150.41 E23.06953
;WIDTH:0.88584
G1 X193.09 Y151.513 E23.22756
;WIDTH:0.889921
G1 X193.693 Y152.638 E23.38647
;WIDTH:0.890054
G1 X194.425 Y154.137 E23.59418
;WIDTH:0.888424
G1 X194.785 Y154.948 E23.70444
;WIDTH:0.89051
G1 X195.437 Y156.543 E23.91911
;WIDTH:0.889946
G1 X195.844 Y157.669 E24.06817
;WIDTH:0.88974
G1 X196.216 Y158.806 E24.21707
;WIDTH:0.889449
G1 X196.551 Y159.955 E24.36598
;WIDTH:0.889077
G1 X196.849 Y161.107 E24.51396
;WIDTH:0.888618
G1 X197.084 Y162.15 E24.64685
;WIDTH:0.888073
G1 X197.328 Y163.403 E24.80541
;WIDTH:0.887466
G1 X197.344 Y163.495 E24.817
;WIDTH:0.888068
G1 X197.541 Y164.751 E24.97492
;WIDTH:0.889997
G1 X197.697 Y166.037 E25.13621
;WIDTH:0.907389
G1 X197.735 Y166.549 E25.2015
;WIDTH:0.936445
G1 X197.75 Y166.891 E25.24655
;WIDTH:0.965502
G1 X197.802 Y167.59 E25.34191
;WIDTH:0.93569
G1 X197.839 Y167.948 E25.38923
;WIDTH:0.905879
G1 X197.87 Y168.578 E25.46929
;WIDTH:0.9
G1 X197.896 Y169.417 E25.57508
G1 X197.896 Y170.598 E25.72393
G1 X197.855 Y171.847 E25.88143
;WIDTH:0.904764
G1 X197.803 Y172.634 E25.98141
;WIDTH:0.920593
G1 X197.674 Y174.18 E26.18182
;WIDTH:0.892624
G1 X197.544 Y175.222 E26.31298
;WIDTH:0.888069
G1 X197.345 Y176.502 E26.47388
;WIDTH:0.887466
G1 X197.329 Y176.594 E26.48547
;WIDTH:0.888073
G1 X197.086 Y177.842 E26.6434
;WIDTH:0.888618
G1 X196.798 Y179.094 E26.80308
;WIDTH:0.886465
G1 X196.469 Y180.332 E26.96188
;WIDTH:0.88613
G1 X196.08 Y181.614 E27.12789
G1 X195.692 Y182.758 E27.27758
;WIDTH:0.889947
G1 X195.242 Y183.952 E27.43644
;WIDTH:0.890054
G1 X194.512 Y185.678 E27.66978
G1 X193.693 Y187.362 E27.90294
;WIDTH:0.889922
G1 X192.874 Y188.872 E28.1168
;WIDTH:0.889706
G1 X192.262 Y189.9 E28.2657
;WIDTH:0.889405
G1 X191.618 Y190.909 E28.41463
;WIDTH:0.889016
G1 X190.946 Y191.891 E28.5626
;WIDTH:0.888544
G1 X190.309 Y192.764 E28.69691
;WIDTH:0.888018
G1 X190.24 Y192.857 E28.71129
;WIDTH:0.889109
G1 X189.411 Y193.911 E28.87806
;WIDTH:0.915398
G1 X188.998 Y194.386 E28.95887
;WIDTH:0.916932
G1 X187.935 Y195.615 E29.16787
;WIDTH:0.9
G1 X187.116 Y196.48 E29.318
G1 X186.65 Y196.942 E29.4007
G1 X185.383 Y198.145 E29.6209
;WIDTH:0.904333
G1 X185.002 Y198.475 E29.68476
;WIDTH:0.926766
G1 X184.055 Y199.285 E29.84691
;WIDTH:0.894889
G1 X183.563 Y199.693 E29.92697
;WIDTH:0.889403
G1 X182.614 Y200.422 E30.07585
;WIDTH:0.889014
G1 X181.745 Y201.047 E30.20896
G1 X182.115 Y201.79 F9000
;WIDTH:0.9
G1 F1200
G1 X181.101 Y202.472 E30.36298
G1 X180.065 Y203.122 E30.51712
G1 X179.01 Y203.739 E30.67116
G1 X177.935 Y204.322 E30.82529
G1 X176.843 Y204.871 E30.97933
G1 X175.733 Y205.385 E31.1335
G1 X174.608 Y205.864 E31.28761
G1 X173.469 Y206.308 E31.44168
G1 X172.316 Y206.715 E31.59578
G1 X171.151 Y207.085 E31.74984
G1 X169.975 Y207.419 E31.90392
G1 X168.788 Y207.715 E32.0581
G1 X167.593 Y207.973 E32.21218
G1 X166.391 Y208.194 E32.36621
G1 X165.182 Y208.377 E32.52032
G1 X163.968 Y208.521 E32.6744
G1 X162.75 Y208.627 E32.82849
G1 X161.529 Y208.695 E32.98262
G1 X160.307 Y208.724 E33.13668
G1 X159.084 Y208.714 E33.29082
G1 X157.862 Y208.666 E33.44495
G1 X156.643 Y208.579 E33.59898
G1 X155.427 Y208.454 E33.75304
G1 X154.215 Y208.29 E33.90718
G1 X153.009 Y208.088 E34.06129
G1 X151.81 Y207.849 E34.21538
G1 X150.619 Y207.571 E34.36952
G1 X149.438 Y207.256 E34.52357
G1 X148.267 Y206.904 E34.67768
G1 X147.108 Y206.516 E34.83172
G1 X145.962 Y206.09 E34.98581
G1 X144.829 Y205.629 E35.13997
G1 X143.712 Y205.133 E35.294
G1 X142.611 Y204.601 E35.44811
G1 X141.528 Y204.035 E35.60212
G1 X140.462 Y203.434 E35.75635
G1 X139.417 Y202.801 E35.91033
G1 X138.392 Y202.135 E36.06439
G1 X137.388 Y201.437 E36.2185
G1 X136.407 Y200.707 E36.37262
G1 X135.62 Y200.082 E36.49928
G1 X134.514 Y199.155 E36.68116
G1 X133.608 Y198.338 E36.83492
G1 X132.727 Y197.49 E36.98904
G1 X131.872 Y196.616 E37.14314
G1 X131.046 Y195.715 E37.29719
G1 X130.249 Y194.788 E37.45127
G1 X129.481 Y193.836 E37.60543
G1 X128.744 Y192.861 E37.75947
G1 X128.038 Y191.863 E37.91354
G1 X127.364 Y190.843 E38.06763
G1 X126.722 Y189.802 E38.22178
G1 X126.113 Y188.742 E38.37585
G1 X125.539 Y187.662 E38.53
G1 X124.998 Y186.566 E38.68404
G1 X124.493 Y185.452 E38.83819
G1 X124.023 Y184.324 E38.9922
G1 X123.666 Y183.385 E39.11881
G1 X123.19 Y182.022 E39.30077
G1 X122.829 Y180.857 E39.45449
G1 X122.505 Y179.678 E39.60859
G1 X122.218 Y178.489 E39.76275
G1 X121.969 Y177.292 E39.91684
G1 X121.758 Y176.088 E40.0709
G1 X121.585 Y174.878 E40.22495
G1 X121.474 Y173.879 E40.35163
G1 X121.353 Y172.441 E40.53351
G1 X121.295 Y171.222 E40.68732
G1 X121.276 Y170 E40.84135
G1 X121.295 Y168.777 E40.99551
G1 X121.353 Y167.556 E41.14957
G1 X121.433 Y166.555 E41.27613
G1 X121.585 Y165.119 E41.45813
G1 X121.758 Y163.912 E41.61181
G1 X121.931 Y162.922 E41.73847
G1 X122.219 Y161.508 E41.92034
G1 X122.505 Y160.322 E42.0741
G1 X122.829 Y159.143 E42.2282
G1 X123.19 Y157.975 E42.38228
G1 X123.588 Y156.819 E42.53637
G1 X124.023 Y155.676 E42.69051
G1 X124.493 Y154.548 E42.84452
G1 X124.908 Y153.633 E42.97115
G1 X125.54 Y152.335 E43.1531
G1 X126.113 Y151.258 E43.30685
G1 X126.722 Y150.198 E43.46092
G1 X127.364 Y149.157 E43.61507
G1 X128.038 Y148.137 E43.76916
G1 X128.744 Y147.139 E43.92323
G1 X129.481 Y146.164 E44.07727
G1 X130.112 Y145.382 E44.20391
G1 X131.048 Y144.283 E44.38585
G1 X131.872 Y143.384 E44.53955
G1 X132.574 Y142.665 E44.6662
G1 X133.61 Y141.66 E44.84811
G1 X134.516 Y140.843 E45.00187
G1 X135.283 Y140.194 E45.1285
G1 X136.409 Y139.291 E45.31041
G1 X137.388 Y138.563 E45.46417
G1 X138.213 Y137.99 E45.59077
G1 X139.417 Y137.199 E45.77233
G1 X140.652 Y136.459 E45.95378
G1 X141.528 Y135.965 E46.08053
G1 X142.611 Y135.399 E46.23454
G1 X143.712 Y134.867 E46.38865
G1 X144.829 Y134.371 E46.54268
G1 X145.962 Y133.91 E46.69684
G1 X147.108 Y133.484 E46.85093
