; generated by PrusaSlicer 2.8.0 on 2024-08-20 at 00:41:50 UTC

; 

; external perimeters extrusion width = 0.90mm
; perimeters extrusion width = 0.90mm
; infill extrusion width = 0.90mm
; solid infill extrusion width = 0.90mm
; top infill extrusion width = 0.80mm

M190 S60 ; set bed temperature and wait for it to be reached
;TYPE:Custom
; Start GCODE (begins)

G28 ; home all axes
G1 Z5 F5000 ; lift nozzle

M109 S200 ; Do this now so we can purge

; Extrude a small amount of waste material
G92 E0
G1 E20 F200
G92 E0

; Start GCODE (ends)
G21 ; set units to millimeters
G90 ; use absolute coordinates
M82 ; use absolute distances for extrusion
G92 E0
; Filament gcode
M107
;LAYER_CHANGE
;Z:0.35
;HEIGHT:0.35
G1 E-.3 F2400
G1 Z.35 F9000
G1 X139.098 Y146.619
G1 E.1 F2400
G92 E0
;TYPE:Skirt/Brim
;WIDTH:0.9
G1 F1200
G1 X139.777 Y146.067 E.11029
G1 X144.319 Y142.861 E.81098
G1 X145.067 Y142.406 E.92132
G1 X146.987 Y141.478 E1.19009
G1 X152.225 Y139.617 E1.89068
G1 X153.068 Y139.38 E2.00105
G1 X155.142 Y139.01 E2.26657
G1 X160.71 Y138.626 E2.96999
G1 X162.823 Y138.71 E3.23651
G1 X163.686 Y138.829 E3.34631
G1 X169.151 Y139.961 E4.04971
G1 X169.997 Y140.198 E4.16044
G1 X171.962 Y140.959 E4.42602
G1 X176.919 Y143.524 E5.12945
G1 X177.67 Y143.981 E5.24025
G1 X179.356 Y145.244 E5.50575
G1 X183.437 Y149.051 E6.20915
G1 X184.037 Y149.693 E6.3199
G1 X185.321 Y151.364 E6.5855
G1 X188.223 Y156.131 E7.28888
G1 X188.627 Y156.911 E7.39959
G1 X189.412 Y158.867 E7.66522
G1 X190.921 Y164.24 E8.3686
G1 X191.268 Y166.325 E8.63499
G1 X191.328 Y167.195 E8.7449
G1 X191.331 Y172.776 E9.44829
G1 X191.271 Y173.653 E9.55908
G1 X190.922 Y175.757 E9.82788
G1 X189.422 Y181.11 E10.52853
G1 X189.129 Y181.934 E10.63875
G1 X188.235 Y183.843 E10.90442
G1 X185.338 Y188.613 E11.60779
G1 X184.051 Y190.29 E11.87422
G1 X183.456 Y190.927 E11.98408
G1 X179.38 Y194.739 E12.68745
G1 X178.698 Y195.294 E12.79827
G1 X176.922 Y196.474 E13.06701
G1 X171.986 Y199.032 E13.76769
G1 X171.183 Y199.38 E13.87799
G1 X169.154 Y200.038 E14.14682
G1 X163.712 Y201.169 E14.84735
G1 X162.845 Y201.288 E14.95765
G1 X160.714 Y201.374 E15.22645
G1 X155.167 Y200.995 E15.92719
G1 X154.3 Y200.876 E16.03749
G1 X152.225 Y200.383 E16.30629
G1 X146.987 Y198.522 E17.00688
G1 X145.067 Y197.594 E17.27565
G1 X144.319 Y197.139 E17.38599
G1 X139.777 Y193.933 E18.08668
G1 X139.098 Y193.381 E18.19697
G1 X137.581 Y191.882 E18.46576
G1 X134.073 Y187.57 E19.16635
G1 X133.568 Y186.855 E19.27667
G1 X132.511 Y185.002 E19.54553
G1 X130.296 Y179.904 E20.24608
G1 X130.003 Y179.079 E20.35642
G1 X129.486 Y177.01 E20.6252
G1 X128.729 Y171.503 E21.32579
G1 X128.669 Y170.629 E21.4362
G1 X128.729 Y168.497 E21.70501
G1 X129.486 Y162.99 E22.4056
G1 X129.664 Y162.133 E22.51592
G1 X130.289 Y160.121 E22.78145
G1 X132.51 Y155.001 E23.48484
G1 X132.914 Y154.22 E23.59566
G1 X134.059 Y152.451 E23.86124
G1 X137.579 Y148.12 E24.56464
G1 X139.013 Y146.703 E24.81872
G1 E24.51872 F2400
G92 E0
G1 X139.013 Y146.703 F9000
G92 E0
G1 X154.049 Y171.577
G1 E.4 F2400
;TYPE:Perimeter
;WIDTH:0.9
G1 F1200
G1 X153.97 Y171.304 E.43582
G1 X153.895 Y170.907 E.48674
G1 X153.832 Y170.18 E.57871
G1 X153.895 Y169.093 E.71594
G1 X154.061 Y168.382 E.80796
G1 X154.225 Y167.82 E.88175
G1 X154.397 Y167.405 E.93837
G1 X154.835 Y166.606 E1.05321
G1 X155.064 Y166.273 E1.10415
G1 X155.533 Y165.713 E1.19621
G1 X155.933 Y165.337 E1.2654
G1 X156.353 Y164.985 E1.33447
G1 X157.071 Y164.522 E1.44215
G1 X158.025 Y164.101 E1.57357
G1 X158.884 Y163.878 E1.68542
G1 X159.387 Y163.791 E1.74976
G1 X159.931 Y163.755 E1.81847
G1 X160.874 Y163.812 E1.93754
G1 X161.291 Y163.873 E1.99066
G1 X162.001 Y164.055 E2.08304
G1 X162.797 Y164.38 E2.1914
G1 X163.539 Y164.802 E2.29898
G1 X164.359 Y165.458 E2.43133
G1 X164.931 Y166.09 E2.53876
G1 X165.266 Y166.527 E2.60816
G1 X165.551 Y166.996 E2.67733
G1 X165.938 Y167.869 E2.79768
G1 X166.07 Y168.25 E2.8485
G1 X166.199 Y168.775 E2.91664
G1 X166.273 Y169.341 E2.98858
G1 X166.323 Y170 E3.07187
G1 X166.273 Y170.659 E3.15516
G1 X166.199 Y171.225 E3.2271
G1 X166.07 Y171.75 E3.29524
G1 X165.769 Y172.54 E3.40179
G1 X165.551 Y173.004 E3.4664
G1 X165.266 Y173.473 E3.53557
G1 X164.656 Y174.236 E3.65869
G1 X164.36 Y174.541 E3.71226
G1 X163.801 Y175.01 E3.80423
G1 X163.467 Y175.239 E3.85527
G1 X162.668 Y175.677 E3.97011
G1 X162.296 Y175.836 E4.0211
G1 X161.6 Y176.055 E4.11306
G1 X161.204 Y176.138 E4.16405
G1 X160.297 Y176.238 E4.27906
G1 X159.848 Y176.238 E4.33565
G1 X158.942 Y176.138 E4.45053
G1 X158.547 Y176.055 E4.5014
G1 X157.85 Y175.835 E4.59352
G1 X157.337 Y175.599 E4.66469
G1 X156.68 Y175.238 E4.75917
G1 X156.346 Y175.01 E4.81014
G1 X155.787 Y174.541 E4.90211
G1 X155.504 Y174.251 E4.95318
G1 X154.933 Y173.541 E5.06801
G1 X154.698 Y173.173 E5.12304
G1 X154.375 Y172.554 E5.21104
G1 X154.197 Y172.085 E5.27426
G1 X154.083 Y171.692 E5.32583
G1 X154.083 Y171.692 F9000
G1 X154.851 Y171.38
G1 F1200
G1 X154.724 Y170.896 E5.3889
G1 X154.653 Y170.108 E5.48862
G1 X154.717 Y169.165 E5.60774
G1 X155.017 Y168.051 E5.75314
G1 X155.37 Y167.347 E5.8524
G1 X155.683 Y166.817 E5.92998
G1 X156.165 Y166.244 E6.02435
G1 X156.883 Y165.617 E6.14449
G1 X157.498 Y165.228 E6.2362
G1 X158.341 Y164.863 E6.35198
G1 X159.063 Y164.684 E6.44573
G1 X159.446 Y164.614 E6.4948
G1 X159.985 Y164.578 E6.56288
G1 X160.803 Y164.634 E6.66622
G1 X161.734 Y164.836 E6.78629
G1 X162.481 Y165.143 E6.88808
G1 X163.111 Y165.508 E6.97984
G1 X163.829 Y166.09 E7.09633
G1 X164.299 Y166.621 E7.1857
G1 X164.562 Y166.957 E7.23948
G1 X164.846 Y167.424 E7.30837
G1 X165.176 Y168.185 E7.41291
G1 X165.398 Y168.971 E7.51585
G1 X165.494 Y169.891 E7.63243
G1 X165.451 Y170.586 E7.72019
G1 X165.398 Y171.029 E7.77642
G1 X165.269 Y171.554 E7.84456
G1 X165.007 Y172.224 E7.93523
G1 X164.846 Y172.576 E7.98401
G1 X164.561 Y173.044 E8.05307
G1 X164.025 Y173.706 E8.16042
G1 X163.27 Y174.378 E8.28781
G1 X162.271 Y174.954 E8.43315
G1 X161.66 Y175.171 E8.51487
G1 X161.114 Y175.318 E8.58613
G1 X160.201 Y175.418 E8.70189
G1 X159.032 Y175.318 E8.84976
G1 X158.099 Y175.049 E8.97214
G1 X157.307 Y174.642 E9.08437
G1 X156.876 Y174.378 E9.14807
G1 X156.317 Y173.909 E9.24004
G1 X155.577 Y173.024 E9.38543
G1 X155.107 Y172.173 E9.50796
G1 X154.888 Y171.494 E9.59788
G1 X154.888 Y171.494 F9000
G1 X155.66 Y171.18
;TYPE:External perimeter
G1 F1200
G1 X155.539 Y170.763 E9.6526
G1 X155.475 Y170.036 E9.74458
G1 X155.539 Y169.236 E9.84573
G1 X155.824 Y168.239 E9.97642
G1 X156.327 Y167.333 E10.10702
G1 X156.797 Y166.774 E10.19907
G1 X157.412 Y166.25 E10.3009
G1 X157.926 Y165.933 E10.37701
G1 X158.656 Y165.625 E10.47687
G1 X159.5 Y165.437 E10.58585
G1 X160.04 Y165.401 E10.65406
G1 X160.732 Y165.456 E10.74155
G1 X161.466 Y165.616 E10.83623
G1 X162.165 Y165.905 E10.93156
G1 X162.684 Y166.213 E11.00762
G1 X163.299 Y166.723 E11.10831
G1 X163.857 Y167.384 E11.21733
G1 X164.14 Y167.852 E11.28626
G1 X164.414 Y168.501 E11.37505
G1 X164.597 Y169.168 E11.46222
G1 X164.672 Y169.964 E11.56299
G1 X164.597 Y170.832 E11.67279
G1 X164.468 Y171.357 E11.74093
G1 X164.245 Y171.908 E11.81585
G1 X163.857 Y172.616 E11.9176
G1 X163.393 Y173.176 E12.00926
G1 X162.74 Y173.746 E12.1185
G1 X161.874 Y174.23 E12.24353
G1 X161.104 Y174.482 E12.34564
G1 X160.045 Y174.599 E12.47992
G1 X159.122 Y174.498 E12.59694
G1 X158.347 Y174.262 E12.69904
G1 X157.407 Y173.746 E12.83419
G1 X156.847 Y173.277 E12.92625
G1 X156.22 Y172.508 E13.0513
G1 X155.839 Y171.793 E13.15341
G1 X155.694 Y171.295 E13.21878
G1 X155.53 Y170.512 F9000
G1 E12.91878 F2400
G92 E0
G1 X154.721 Y170.601 F9000
G1 X154.732 Y170.703
G1 X154.768 Y170.936
G1 X154.813 Y171.166
G1 X154.869 Y171.394
G1 X154.935 Y171.62
G1 X155.011 Y171.843
G1 X155.096 Y172.062
G1 X155.191 Y172.277
G1 X155.295 Y172.488
G1 X155.408 Y172.694
G1 X155.53 Y172.895
G1 X155.66 Y173.09
G1 X155.799 Y173.28
G1 X155.946 Y173.463
G1 X156.101 Y173.64
G1 X156.264 Y173.81
G1 X156.434 Y173.972
G1 X156.61 Y174.127
G1 X156.794 Y174.274
G1 X156.983 Y174.413
G1 X157.179 Y174.544
G1 X157.38 Y174.666
G1 X157.586 Y174.779
G1 X157.797 Y174.883
G1 X158.012 Y174.978
G1 X158.231 Y175.063
G1 X158.453 Y175.138
G1 X158.679 Y175.204
G1 X158.907 Y175.26
G1 X159.138 Y175.306
G1 X159.37 Y175.342
G1 X159.604 Y175.367
G1 X159.839 Y175.383
G1 X160.074 Y175.388
G1 X160.309 Y175.383
G1 X160.543 Y175.367
G1 X160.777 Y175.342
G1 X161.009 Y175.306
G1 X161.239 Y175.26
G1 X161.468 Y175.204
G1 X161.694 Y175.138
G1 X161.916 Y175.063
G1 X162.135 Y174.978
G1 X162.35 Y174.883
G1 X162.561 Y174.779
G1 X162.767 Y174.666
G1 X162.968 Y174.544
G1 X163.164 Y174.413
G1 X163.353 Y174.274
G1 X163.537 Y174.127
G1 X163.713 Y173.972
G1 X163.883 Y173.81
G1 X164.046 Y173.64
G1 X164.201 Y173.463
G1 X164.305 Y173.333
G1 X177.962 Y177.432
G1 X177.617 Y177.613
G1 E.4 F2400
;TYPE:Perimeter
G1 F1200
G1 X177.624 Y177.623 E.40154
G1 X177.446 Y177.655 E.42433
G1 X177.055 Y177.845 E.47912
G1 X176.704 Y178.123 E.53555
G1 X176.388 Y178.521 E.5996
G1 X175.145 Y180.565 E.90111
G1 X174.978 Y180.91 E.94942
G1 X174.852 Y181.469 E1.02164
G1 X174.862 Y181.903 E1.07635
G1 X174.916 Y182.076 E1.09919
G1 X174.737 Y182.058 E1.12186
G1 X174.309 Y182.136 E1.17669
G1 X173.895 Y182.309 E1.23324
G1 X173.484 Y182.607 E1.29722
G1 X171.865 Y184.119 E1.57642
G1 X171.481 Y184.527 E1.64703
G1 X171.21 Y185.03 E1.71904
G1 X171.103 Y185.451 E1.77379
G1 X171.108 Y185.632 E1.79661
G1 X170.939 Y185.567 E1.81943
G1 X170.507 Y185.527 E1.87411
G1 X170.062 Y185.581 E1.93061
G1 X169.586 Y185.758 E1.99462
G1 X167.462 Y186.858 E2.29609
G1 X167.139 Y187.066 E2.34451
G1 X166.741 Y187.478 E2.41671
G1 X166.524 Y187.855 E2.47153
G1 X166.481 Y188.03 E2.49424
G1 X166.337 Y187.921 E2.517
G1 X165.931 Y187.766 E2.57177
G1 X165.488 Y187.699 E2.62824
G1 X164.981 Y187.74 E2.69235
G1 X163.101 Y188.131 E2.93436
G1 X162.273 Y188.339 E3.04196
G1 X161.779 Y188.629 E3.11416
G1 X161.468 Y188.933 E3.16897
G1 X161.379 Y189.09 E3.19172
G1 X161.27 Y188.947 E3.21438
G1 X160.92 Y188.687 E3.26933
G1 X160.512 Y188.503 E3.32574
G1 X160.013 Y188.406 E3.38981
G1 X157.864 Y188.259 E3.66129
G1 X157.243 Y188.252 E3.73956
G1 X156.69 Y188.398 E3.81164
G1 X156.309 Y188.607 E3.86641
G1 X156.181 Y188.734 E3.88914
G1 X156.113 Y188.566 E3.91198
G1 X155.847 Y188.223 E3.96669
G1 X155.504 Y187.935 E4.02314
G1 X155.05 Y187.707 E4.08717
G1 X152.796 Y186.906 E4.38865
G1 X152.425 Y186.812 E4.43689
G1 X151.853 Y186.803 E4.50899
G1 X151.43 Y186.901 E4.56371
G1 X151.27 Y186.99 E4.58679
G1 X151.251 Y186.808 E4.60985
G1 X151.087 Y186.406 E4.66457
G1 X150.834 Y186.036 E4.72106
G1 X150.459 Y185.695 E4.78494
G1 X148.504 Y184.316 E5.08647
G1 X148.171 Y184.125 E5.13485
G1 X147.622 Y183.961 E5.20706
G1 X147.188 Y183.942 E5.26181
G1 X147.013 Y183.984 E5.28449
G1 X147.043 Y183.807 E5.30712
G1 X146.994 Y183.375 E5.36192
G1 X146.85 Y182.95 E5.41848
G1 X146.581 Y182.519 E5.48251
G1 X145.071 Y180.664 E5.78397
G1 X144.802 Y180.39 E5.83236
G1 X144.318 Y180.085 E5.90446
G1 X143.906 Y179.949 E5.95914
G1 X143.725 Y179.942 E5.98197
G1 X143.802 Y179.778 E6.0048
G1 X143.871 Y179.349 E6.05956
G1 X143.847 Y178.902 E6.11598
G1 X143.707 Y178.422 E6.179
G1 X142.789 Y176.31 E6.46924
G1 X142.566 Y175.885 E6.52973
G1 X142.183 Y175.461 E6.60174
G1 X141.822 Y175.219 E6.65652
G1 X141.648 Y175.163 E6.67956
G1 X141.768 Y175.024 E6.7027
G1 X141.95 Y174.63 E6.7574
G1 X142.047 Y174.193 E6.81382
G1 X142.04 Y173.686 E6.87773
G1 X141.745 Y171.538 E7.15099
G1 X141.627 Y170.942 E7.22756
G1 X141.371 Y170.429 E7.29982
G1 X141.089 Y170.099 E7.35453
G1 X140.939 Y170 E7.37718
G1 X141.089 Y169.901 E7.39983
G1 X141.371 Y169.57 E7.45463
G1 X141.584 Y169.175 E7.51119
G1 X141.714 Y168.684 E7.5752
G1 X142.04 Y166.314 E7.87671
G1 X142.057 Y165.932 E7.9249
G1 X141.95 Y165.37 E7.997
G1 X141.768 Y164.976 E8.0517
G1 X141.648 Y164.838 E8.07475
G1 X141.822 Y164.781 E8.09783
G1 X142.183 Y164.539 E8.15261
G1 X142.493 Y164.216 E8.20903
G1 X142.75 Y163.779 E8.27293
G1 X143.703 Y161.585 E8.57441
G1 X143.823 Y161.221 E8.62271
G1 X143.871 Y160.65 E8.69493
G1 X143.801 Y160.221 E8.74971
G1 X143.725 Y160.058 E8.77238
G1 X143.905 Y160.051 E8.79508
G1 X144.318 Y159.915 E8.84988
G1 X144.704 Y159.688 E8.90632
G1 X145.071 Y159.336 E8.97041
G1 X146.581 Y157.481 E9.27187
G1 X146.794 Y157.162 E9.32021
G1 X146.994 Y156.625 E9.39243
G1 X147.043 Y156.193 E9.44723
G1 X147.013 Y156.016 E9.46986
G1 X147.188 Y156.058 E9.49254
G1 X147.623 Y156.039 E9.54742
G1 X148.056 Y155.924 E9.60388
G1 X148.504 Y155.684 E9.66793
G1 X150.405 Y154.343 E9.96113
G1 X150.75 Y154.055 E10.01777
G1 X151.087 Y153.593 E10.08984
G1 X151.251 Y153.191 E10.14456
G1 X151.27 Y153.011 E10.16737
G1 X151.429 Y153.099 E10.19027
G1 X151.852 Y153.197 E10.24499
G1 X152.3 Y153.204 E10.30146
G1 X152.796 Y153.094 E10.36549
G1 X155.01 Y152.307 E10.66163
G1 X155.398 Y152.131 E10.71533
G1 X155.847 Y151.777 E10.78739
G1 X156.114 Y151.433 E10.84227
G1 X156.181 Y151.266 E10.86495
G1 X156.309 Y151.393 E10.88768
G1 X156.69 Y151.602 E10.94245
G1 X157.12 Y151.729 E10.99896
G1 X157.627 Y151.757 E11.06296
G1 X160.014 Y151.594 E11.3645
G1 X160.392 Y151.532 E11.41278
G1 X160.921 Y151.313 E11.48494
G1 X161.27 Y151.053 E11.53979
G1 X161.379 Y150.91 E11.56245
G1 X161.469 Y151.067 E11.58526
G1 X161.779 Y151.371 E11.63998
G1 X162.159 Y151.61 E11.69656
G1 X162.639 Y151.774 E11.76049
G1 X164.981 Y152.26 E12.06195
G1 X165.363 Y152.303 E12.1104
G1 X165.931 Y152.234 E12.18251
G1 X166.336 Y152.079 E12.23716
G1 X166.481 Y151.97 E12.26002
G1 X166.525 Y152.146 E12.28288
G1 X166.742 Y152.523 E12.3377
G1 X167.043 Y152.854 E12.39409
G1 X167.462 Y153.142 E12.45817
G1 X169.493 Y154.194 E12.74644
G1 X169.942 Y154.386 E12.80799
G1 X170.508 Y154.473 E12.88016
G1 X170.941 Y154.433 E12.93496
G1 X171.108 Y154.368 E12.95755
G1 X171.103 Y154.547 E12.98012
G1 X171.21 Y154.969 E13.03499
G1 X171.41 Y155.37 E13.09147
G1 X171.736 Y155.76 E13.15553
G1 X173.436 Y157.348 E13.44872
G1 X173.787 Y157.627 E13.50523
G1 X174.308 Y157.864 E13.57737
G1 X174.735 Y157.942 E13.63208
G1 X174.917 Y157.924 E13.65513
G1 X174.862 Y158.098 E13.67813
G1 X174.852 Y158.532 E13.73284
G1 X174.937 Y158.972 E13.78932
G1 X175.146 Y159.435 E13.85334
G1 X176.388 Y161.478 E14.15467
G1 X176.617 Y161.786 E14.20304
G1 X177.055 Y162.154 E14.27514
G1 X177.445 Y162.345 E14.32987
G1 X177.624 Y162.377 E14.35279
G1 X177.525 Y162.53 E14.37576
G1 X177.398 Y162.945 E14.43046
G1 X177.361 Y163.391 E14.48686
G1 X177.437 Y163.893 E14.55085
G1 X178.083 Y166.196 E14.85231
G1 X178.22 Y166.555 E14.90074
G1 X178.543 Y167.028 E14.97293
G1 X178.868 Y167.317 E15.02774
G1 X179.03 Y167.395 E15.0504
G1 X178.895 Y167.513 E15.073
G1 X178.66 Y167.879 E15.12782
G1 X178.503 Y168.3 E15.18445
G1 X178.441 Y168.804 E15.24845
G1 X178.441 Y170.717 E15.48955
G1 X178.477 Y171.578 E15.59816
G1 X178.659 Y172.12 E15.67022
G1 X178.894 Y172.485 E15.72493
G1 X179.03 Y172.605 E15.74779
G1 X178.866 Y172.684 E15.77073
G1 X178.542 Y172.973 E15.82545
G1 X178.279 Y173.335 E15.88184
G1 X178.082 Y173.804 E15.94595
G1 X177.461 Y176.021 E16.23612
G1 X177.368 Y176.485 E16.29576
G1 X177.398 Y177.056 E16.36782
G1 X177.526 Y177.472 E16.42268
G1 X177.552 Y177.512 E16.42869
G1 X177.552 Y177.512 F9000
G1 X178.342 Y177.237
G1 F1200
G1 X178.517 Y177.507 E16.46924
G1 X179.03 Y177.812 E16.54446
;WIDTH:0.890702
G1 X179.53 Y178.007 E16.61134
;WIDTH:0.929241
G1 X180.031 Y178.202 E16.6815
G1 X180.485 Y178.456 E16.74939
;WIDTH:0.928122
G1 X180.906 Y178.78 E16.81863
G1 X181.455 Y179.288 E16.91611
G1 X180.699 Y179.235 E17.01488
G1 X179.983 Y179.095 E17.10996
;WIDTH:0.929241
G1 X179.626 Y178.954 E17.16005
G1 X179.17 Y178.736 E17.22601
;WIDTH:0.890343
G1 X178.715 Y178.519 E17.2888
;WIDTH:0.9
G1 X178.148 Y178.356 E17.36316
G1 X177.728 Y178.43 E17.41691
G1 X177.362 Y178.639 E17.47003
G1 X177.093 Y178.95 E17.52185
G1 X175.85 Y180.994 E17.82336
G1 X175.698 Y181.375 E17.87506
G1 X175.68 Y181.797 E17.92829
G1 X175.808 Y182.204 E17.98206
G1 X176.219 Y182.636 E18.05721
;WIDTH:0.890702
G1 X176.648 Y182.959 E18.12413
;WIDTH:0.92924
G1 X177.078 Y183.282 E18.19431
G1 X177.447 Y183.649 E18.26223
;WIDTH:0.928122
G1 X177.764 Y184.075 E18.33144
G1 X178.156 Y184.712 E18.42892
G1 X177.443 Y184.458 E18.52757
G1 X176.791 Y184.129 E18.62275
;WIDTH:0.92924
