; generated by PrusaSlicer 2.8.0 on 2024-08-20 at 00:41:55 UTC

; 

; external perimeters extrusion width = 0.90mm
; perimeters extrusion width = 0.90mm
; infill extrusion width = 0.90mm
; solid infill extrusion width = 0.90mm
; top infill extrusion width = 0.80mm

M190 S60 ; set bed temperature and wait for it to be reached
;TYPE:Custom
; Start GCODE (begins)

G28 ; home all axes
G1 Z5 F5000 ; lift nozzle

M109 S200 ; Do this now so we can purge

; Extrude a small amount of waste material
G92 E0
G1 E20 F200
G92 E0

; Start GCODE (ends)
G21 ; set units to millimeters
G90 ; use absolute coordinates
M82 ; use absolute distances for extrusion
G92 E0
; Filament gcode
M107
;LAYER_CHANGE
;Z:0.35
;HEIGHT:0.35
G1 E-.3 F2400
G1 Z.35 F9000
G1 X127.385 Y136.981
G1 E.1 F2400
G92 E0
;TYPE:Skirt/Brim
;WIDTH:0.9
G1 F1200
G1 X130.654 Y134.045 E.55378
G1 X132.817 Y132.383 E.89757
G1 X134.371 Y131.31 E1.13558
G1 X136.671 Y129.878 E1.47705
G1 X139.069 Y128.577 E1.82089
G1 X143.081 Y126.783 E2.37479
G1 X147.244 Y125.376 E2.92863
G1 X151.522 Y124.369 E3.48254
G1 X155.876 Y123.772 E4.03643
G1 X158.801 Y123.604 E4.40569
G1 X160.469 Y123.591 E4.61592
G1 X164.856 Y123.843 E5.16974
G1 X169.2 Y124.509 E5.72363
G1 X171.857 Y125.128 E6.06747
G1 X174.665 Y125.966 E6.4368
G1 X178.764 Y127.55 E6.99064
G1 X182.694 Y129.515 E7.54442
G1 X186.422 Y131.842 E8.09829
G1 X189.912 Y134.512 E8.65211
G1 X192.092 Y136.471 E9.0215
G1 X193.276 Y137.645 E9.23165
G1 X195.12 Y139.656 E9.57553
G1 X196.323 Y141.112 E9.81357
G1 X197.949 Y143.279 E10.15502
G1 X199.453 Y145.555 E10.49885
G1 X201.588 Y149.396 E11.0527
G1 X203.351 Y153.421 E11.60651
G1 X204.724 Y157.596 E12.16042
G1 X205.697 Y161.881 E12.71422
G1 X206.26 Y166.239 E13.26804
G1 X206.366 Y167.904 E13.47831
G1 X206.405 Y170.834 E13.84762
G1 X206.118 Y175.219 E14.40146
G1 X205.418 Y179.557 E14.95527
G1 X204.311 Y183.81 E15.50915
G1 X202.806 Y187.939 E16.06303
G1 X200.917 Y191.907 E16.61691
G1 X198.662 Y195.679 E17.17079
G1 X196.06 Y199.22 E17.72461
G1 X194.281 Y201.288 E18.06842
G1 X192.238 Y203.389 E18.43777
G1 X188.936 Y206.288 E18.99156
G1 X187.613 Y207.304 E19.2018
G1 X185.204 Y208.973 E19.57116
G1 X181.405 Y211.182 E20.12502
G1 X177.414 Y213.021 E20.67885
G1 X173.267 Y214.475 E21.23271
G1 X169.001 Y215.531 E21.7866
G1 X164.655 Y216.178 E22.34038
G1 X161.731 Y216.38 E22.70978
G1 X159.003 Y216.401 E23.05361
G1 X154.619 Y216.099 E23.60745
G1 X150.283 Y215.383 E24.16133
G1 X146.035 Y214.26 E24.71511
G1 X144.453 Y213.73 E24.92539
G1 X141.725 Y212.662 E25.29462
G1 X137.772 Y210.742 E25.84849
G1 X135.417 Y209.366 E26.19225
G1 X133.837 Y208.331 E26.4303
G1 X131.643 Y206.741 E26.7718
G1 X129.533 Y205.011 E27.11569
G1 X126.359 Y201.972 E27.66952
G1 X123.486 Y198.647 E28.22335
G1 X121.878 Y196.466 E28.56486
G1 X120.831 Y194.895 E28.8028
G1 X118.652 Y191.078 E29.35674
G1 X116.844 Y187.073 E29.91056
G1 X115.422 Y182.915 E30.46441
G1 X114.401 Y178.64 E31.01836
G1 X113.788 Y174.289 E31.57215
G1 X113.616 Y171.566 E31.91602
G1 X113.593 Y169.678 E32.15399
G1 X113.688 Y166.97 E32.4955
G1 X113.946 Y164.254 E32.83935
G1 X114.696 Y159.924 E33.3932
G1 X115.852 Y155.685 E33.94697
G1 X117.404 Y151.573 E34.50091
G1 X119.338 Y147.627 E35.05476
G1 X121.636 Y143.881 E35.60864
G1 X124.278 Y140.37 E36.16243
G1 X125.515 Y138.943 E36.40045
G1 X127.302 Y137.068 E36.7269
G1 E36.4269 F2400
G92 E0
G1 X127.302 Y137.068 F9000
G92 E0
G1 X155.59 Y165.525
G1 E.4 F2400
;TYPE:Perimeter
;WIDTH:0.9
G1 F1200
G1 X155.966 Y165.162 E.46587
G1 X156.899 Y164.526 E.60818
G1 X157.447 Y164.257 E.68512
G1 X157.938 Y164.053 E.75213
G1 X158.691 Y163.854 E.85029
G1 X159.278 Y163.743 E.92558
G1 X159.861 Y163.705 E.99921
G1 X160.714 Y163.755 E1.1069
G1 X161.253 Y163.83 E1.17549
G1 X162.137 Y164.087 E1.29152
G1 X162.615 Y164.277 E1.35635
G1 X163.433 Y164.726 E1.47396
G1 X163.777 Y164.965 E1.52675
G1 X164.323 Y165.424 E1.61665
G1 X164.913 Y166.06 E1.72599
G1 X165.499 Y166.935 E1.85872
G1 X165.745 Y167.446 E1.9302
G1 X165.948 Y167.937 E1.99716
G1 X166.113 Y168.561 E2.07851
G1 X166.245 Y169.229 E2.16433
G1 X166.285 Y170.018 E2.2639
G1 X166.277 Y170.55 E2.33096
G1 X166.177 Y171.23 E2.41758
G1 X165.938 Y172.066 E2.52717
G1 X165.724 Y172.614 E2.60132
G1 X165.28 Y173.423 E2.71763
G1 X165.052 Y173.756 E2.76849
G1 X164.577 Y174.322 E2.86162
G1 X164.139 Y174.725 E2.93663
G1 X163.569 Y175.182 E3.02871
G1 X163.23 Y175.403 E3.07971
G1 X162.575 Y175.744 E3.17278
G1 X162.028 Y175.955 E3.24667
G1 X161.456 Y176.124 E3.32184
G1 X160.729 Y176.252 E3.41488
G1 X160.116 Y176.284 E3.49224
G1 X159.496 Y176.279 E3.57038
G1 X158.324 Y176.064 E3.72056
G1 X157.938 Y175.947 E3.77139
G1 X157.255 Y175.664 E3.86457
G1 X156.623 Y175.309 E3.95593
G1 X156.245 Y175.051 E4.01361
G1 X155.679 Y174.576 E4.10674
G1 X154.947 Y173.752 E4.24565
G1 X154.719 Y173.418 E4.29662
G1 X154.277 Y172.612 E4.41248
G1 X154.106 Y172.198 E4.46893
G1 X153.845 Y171.303 E4.58643
G1 X153.77 Y170.88 E4.64057
G1 X153.709 Y170.179 E4.72925
G1 X153.742 Y169.312 E4.8386
G1 X153.946 Y168.279 E4.97131
G1 X154.134 Y167.745 E5.04266
G1 X154.337 Y167.254 E5.10962
G1 X154.662 Y166.696 E5.19101
G1 X155.044 Y166.125 E5.27759
G1 X155.508 Y165.612 E5.36477
G1 X155.508 Y165.612 F9000
G1 X156.161 Y166.121
G1 F1200
G1 X156.403 Y165.879 E5.4079
G1 X157.357 Y165.212 E5.55461
G1 X158.253 Y164.815 E5.67812
G1 X158.869 Y164.66 E5.75818
G1 X159.367 Y164.564 E5.8221
G1 X159.915 Y164.528 E5.89132
G1 X160.642 Y164.577 E5.98315
G1 X161.084 Y164.639 E6.0394
G1 X161.97 Y164.897 E6.1557
G1 X163.044 Y165.454 E6.30818
G1 X163.644 Y165.931 E6.40479
G1 X164.001 Y166.271 E6.46692
G1 X164.35 Y166.674 E6.53411
G1 X164.803 Y167.378 E6.63962
G1 X165.186 Y168.253 E6.76
G1 X165.363 Y169.023 E6.85958
G1 X165.457 Y169.55 E6.92705
G1 X165.46 Y170.37 E7.0304
G1 X165.395 Y170.883 E7.09557
G1 X165.318 Y171.289 E7.14765
G1 X165.096 Y171.994 E7.2408
G1 X164.557 Y173.026 E7.38754
G1 X164.18 Y173.513 E7.46516
G1 X163.824 Y173.917 E7.53303
G1 X163.152 Y174.459 E7.64184
G1 X162.849 Y174.672 E7.68852
G1 X162.194 Y175.013 E7.78159
G1 X161.496 Y175.265 E7.87512
G1 X160.749 Y175.411 E7.97105
G1 X160.37 Y175.459 E8.0192
G1 X159.627 Y175.458 E8.11284
G1 X159.111 Y175.38 E8.17861
G1 X158.485 Y175.255 E8.25906
G1 X157.727 Y174.966 E8.3613
G1 X157.402 Y174.816 E8.40641
G1 X156.929 Y174.529 E8.47614
G1 X156.425 Y174.126 E8.55747
G1 X156.056 Y173.791 E8.62028
G1 X155.579 Y173.222 E8.71386
G1 X155.442 Y173.022 E8.74441
G1 X155.001 Y172.216 E8.8602
G1 X154.635 Y171.063 E9.01266
G1 X154.533 Y170.129 E9.13108
G1 X154.565 Y169.366 E9.22733
G1 X154.752 Y168.458 E9.34417
G1 X155.099 Y167.569 E9.46445
G1 X155.541 Y166.866 E9.56911
G1 X155.878 Y166.403 E9.64128
G1 X156.076 Y166.206 E9.67648
G1 X156.076 Y166.206 F9000
G1 X156.731 Y166.717
;TYPE:External perimeter
G1 F1200
G1 X156.986 Y166.462 E9.72193
G1 X157.815 Y165.898 E9.8483
G1 X158.569 Y165.578 E9.95153
G1 X159.359 Y165.396 E10.0537
G1 X159.97 Y165.351 E10.13092
G1 X160.571 Y165.398 E10.2069
G1 X160.853 Y165.431 E10.24268
G1 X161.739 Y165.689 E10.35898
G1 X162.664 Y166.188 E10.49144
G1 X163.113 Y166.562 E10.56509
G1 X163.673 Y167.148 E10.66725
G1 X164.108 Y167.822 E10.76835
G1 X164.424 Y168.568 E10.87046
G1 X164.635 Y169.631 E11.00705
G1 X164.635 Y170.37 E11.10019
G1 X164.546 Y170.98 E11.17788
G1 X164.365 Y171.57 E11.25566
G1 X164.228 Y171.911 E11.30198
G1 X163.834 Y172.629 E11.4052
G1 X163.313 Y173.262 E11.50853
G1 X162.468 Y173.94 E11.64507
G1 X161.813 Y174.281 E11.73814
G1 X161.231 Y174.484 E11.81583
G1 X160.606 Y174.599 E11.89592
G1 X160.002 Y174.634 E11.97217
G1 X159.473 Y174.611 E12.0389
G1 X158.646 Y174.446 E12.14518
G1 X158.042 Y174.204 E12.22719
G1 X157.479 Y173.898 E12.30795
G1 X156.956 Y173.494 E12.39124
G1 X156.689 Y173.261 E12.4359
G1 X156.166 Y172.625 E12.53968
G1 X155.724 Y171.82 E12.65542
G1 X155.424 Y170.82 E12.787
G1 X155.355 Y170.057 E12.88356
G1 X155.388 Y169.42 E12.96395
G1 X155.557 Y168.637 E13.06491
G1 X155.861 Y167.885 E13.16714
G1 X156.463 Y166.985 E13.30361
G1 X156.646 Y166.802 E13.33623
G1 X157.261 Y166.289 F9000
G1 E13.03623 F2400
G92 E0
G1 X156.774 Y165.625 F9000
G1 X156.691 Y165.686
G1 X156.506 Y165.834
G1 X156.327 Y165.991
G1 X156.156 Y166.155
G1 X156.004 Y166.314
G1 X155.98 Y166.34
G1 X155.836 Y166.505
G1 X155.687 Y166.69
G1 X155.547 Y166.881
G1 X155.415 Y167.078
G1 X155.292 Y167.281
G1 X155.178 Y167.489
G1 X155.081 Y167.686
G1 X155.066 Y167.718
G1 X154.977 Y167.919
G1 X154.891 Y168.14
G1 X154.815 Y168.365
G1 X154.749 Y168.593
G1 X154.692 Y168.823
G1 X154.646 Y169.056
G1 X154.61 Y169.29
G1 X154.584 Y169.526
G1 X154.569 Y169.763
G1 X154.563 Y170
G1 X154.569 Y170.237
G1 X154.584 Y170.474
G1 X154.608 Y170.692
G1 X154.613 Y170.727
G1 X154.646 Y170.944
G1 X154.692 Y171.177
G1 X154.749 Y171.407
G1 X154.815 Y171.635
G1 X154.891 Y171.86
G1 X154.971 Y172.065
G1 X158.744 Y181.221
G1 X158.841 Y181.318
G1 X158.934 Y181.42
G1 X159.023 Y181.525
G1 X159.107 Y181.634
G1 X159.186 Y181.747
G1 X159.261 Y181.862
G1 X159.329 Y181.98
G1 X159.391 Y182.096
G1 X159.451 Y182.22
G1 X159.498 Y182.33
G1 X159.512 Y182.365
G1 X159.555 Y182.481
G1 X159.596 Y182.606
G1 X159.628 Y182.721
G1 X159.636 Y182.758
G1 X159.652 Y182.884
G1 X159.667 Y183.02
G1 X159.678 Y183.156
G1 X159.686 Y183.29
G1 X160.31 Y197.319
G1 X160.31 Y202.827
G1 X160.311 Y202.945
G1 X160.316 Y203.08
G1 X160.325 Y203.218
G1 X160.336 Y203.356
G1 X160.351 Y203.493
G1 X160.37 Y203.632
G1 X160.407 Y203.766
G1 X160.45 Y203.898
G1 X160.5 Y204.028
G1 X160.555 Y204.156
G1 X160.615 Y204.282
G1 X160.681 Y204.404
G1 X160.752 Y204.524
G1 X160.828 Y204.641
G1 X160.909 Y204.754
G1 X160.995 Y204.864
G1 X161.074 Y204.956
G1 X161.062 Y204.966
G1 E.4 F2400
;TYPE:Perimeter
G1 F1200
G1 X161.051 Y204.955 E.40196
G1 X160.745 Y204.578 E.46316
G1 X160.484 Y204.081 E.53391
G1 X160.37 Y203.75 E.57803
;WIDTH:0.892225
G1 X160.355 Y203.563 E.60145
;WIDTH:0.845915
G1 X160.339 Y203.375 E.62367
;WIDTH:0.799605
G1 X160.324 Y203.188 E.64444
;WIDTH:0.753296
G1 X160.324 Y202.989 E.66506
;WIDTH:0.720059
G1 X160.32 Y183.554 E2.5802
;WIDTH:0.758254
G1 X160.334 Y183.22 E2.61509
;WIDTH:0.803842
G1 X160.349 Y182.886 E2.65232
;WIDTH:0.851921
G1 X160.404 Y182.621 E2.68444
;WIDTH:0.9
G1 X160.46 Y182.357 E2.71845
G1 X160.712 Y181.861 E2.78857
G1 X160.954 Y181.504 E2.84293
G1 X161.325 Y181.108 E2.91132
G1 X161.797 Y180.764 E2.98493
G1 X162.318 Y180.505 E3.05826
G1 X163.491 Y180.14 E3.21309
G1 X164.702 Y179.639 E3.37826
G1 X165.566 Y179.173 E3.50198
G1 X166.307 Y178.894 E3.60177
G1 X166.857 Y178.801 E3.67207
G1 X167.176 Y178.79 E3.7123
G1 X167.708 Y178.84 E3.77965
G1 X168.386 Y179.048 E3.86903
G1 X168.771 Y179.245 E3.92354
;WIDTH:0.893233
G1 X168.913 Y179.377 E3.94777
;WIDTH:0.843921
G1 X169.056 Y179.509 E3.97063
;WIDTH:0.794609
G1 X169.198 Y179.641 E3.99194
;WIDTH:0.745298
G1 X169.359 Y179.811 E4.01592
;WIDTH:0.716329
G1 X182.981 Y193.428 E5.90293
;WIDTH:0.754423
G1 X183.135 Y193.592 E5.92628
;WIDTH:0.792517
G1 X183.289 Y193.755 E5.95086
;WIDTH:0.830612
G1 X183.443 Y193.919 E5.97683
;WIDTH:0.865306
G1 X183.542 Y194.056 E5.99724
;WIDTH:0.9
G1 X183.64 Y194.192 E6.01837
G1 X183.885 Y194.825 E6.10392
G1 X183.98 Y195.342 E6.17017
G1 X183.987 Y195.859 E6.23534
G1 X183.941 Y196.305 E6.29185
G1 X183.751 Y196.917 E6.37261
G1 X183.467 Y197.459 E6.44973
G1 X183.266 Y197.739 E6.49317
G1 X182.904 Y198.117 E6.55913
G1 X181.839 Y198.965 E6.73071
G1 X180.85 Y199.684 E6.88482
G1 X179.777 Y200.409 E7.04803
G1 X178.768 Y201.043 E7.19822
G1 X177.712 Y201.657 E7.35217
G1 X176.672 Y202.217 E7.50104
G1 X175.765 Y202.668 E7.6287
G1 X174.727 Y203.147 E7.77278
G1 X173.676 Y203.594 E7.91672
G1 X172.611 Y204.008 E8.06073
G1 X171.033 Y204.556 E8.27126
G1 X169.863 Y204.909 E8.42528
G1 X168.681 Y205.221 E8.57935
G1 X167.42 Y205.507 E8.74231
G1 X166.289 Y205.726 E8.8875
G1 X165.082 Y205.917 E9.04152
G1 X163.775 Y206.076 E9.20746
G1 X163.139 Y206.064 E9.28763
G1 X162.561 Y205.948 E9.36193
G1 X162.079 Y205.759 E9.42718
G1 X161.56 Y205.448 E9.50344
G1 X161.148 Y205.049 E9.57573
G1 X161.148 Y205.049 F9000
G1 X161.687 Y204.428
;TYPE:External perimeter
G1 F1200
G1 X161.521 Y204.25 E9.60641
G1 X161.261 Y203.802 E9.67169
G1 X161.125 Y203.404 E9.7247
G1 X161.059 Y202.989 E9.77766
G1 X161.051 Y183.554 E12.22713
G1 X161.096 Y183.098 E12.28488
G1 X161.249 Y182.598 E12.35078
G1 X161.508 Y182.134 E12.41775
G1 X161.853 Y181.745 E12.48328
G1 X162.272 Y181.438 E12.54875
G1 X162.77 Y181.219 E12.61732
G1 X163.769 Y180.918 E12.74882
G1 X165.056 Y180.385 E12.92439
G1 X165.957 Y179.899 E13.05341
G1 X166.583 Y179.671 E13.13738
G1 X167.104 Y179.612 E13.20346
G1 X167.607 Y179.662 E13.26717
G1 X168.015 Y179.785 E13.32088
G1 X168.468 Y180.021 E13.38526
G1 X168.842 Y180.328 E13.44624
G1 X182.462 Y193.946 E15.87367
G1 X182.817 Y194.401 E15.9464
G1 X183.045 Y194.883 E16.0136
G1 X183.169 Y195.493 E16.09205
G1 X183.153 Y196.025 E16.15913
G1 X183.021 Y196.534 E16.2254
G1 X182.737 Y197.076 E16.30252
G1 X182.308 Y197.548 E16.38291
G1 X181.332 Y198.315 E16.53936
G1 X180.269 Y199.082 E16.70457
G1 X179.317 Y199.724 E16.84929
G1 X178.353 Y200.33 E16.9928
G1 X177.321 Y200.931 E17.14332
G1 X176.281 Y201.491 E17.29219
G1 X175.398 Y201.928 E17.41636
G1 X174.386 Y202.396 E17.55688
G1 X173.36 Y202.832 E17.69738
G1 X172.321 Y203.235 E17.83783
G1 X170.77 Y203.775 E18.04482
G1 X169.626 Y204.118 E18.19534
G1 X168.471 Y204.423 E18.3459
G1 X167.238 Y204.702 E18.50523
G1 X166.133 Y204.916 E18.64708
G1 X164.953 Y205.102 E18.79764
G1 X163.678 Y205.257 E18.95952
G1 X163.175 Y205.24 E19.02295
G1 X162.689 Y205.124 E19.08592
G1 X162.305 Y204.951 E19.139
G1 X161.939 Y204.696 E19.19522
G1 X161.77 Y204.516 E19.22634
G1 X161.313 Y203.859 F9000
G1 E18.92634 F2400
G92 E0
G1 X160.581 Y204.211 F9000
G1 X160.615 Y204.282
G1 X160.681 Y204.404
G1 X160.752 Y204.524
G1 X160.828 Y204.641
G1 X160.909 Y204.754
G1 X160.995 Y204.864
G1 X161.085 Y204.969
G1 X161.18 Y205.071
G1 X161.279 Y205.169
G1 X161.383 Y205.262
G1 X161.49 Y205.351
G1 X161.601 Y205.435
G1 X161.715 Y205.514
G1 X161.833 Y205.589
G1 X161.954 Y205.658
G1 X162.078 Y205.722
G1 X162.204 Y205.78
G1 X162.333 Y205.833
G1 X162.463 Y205.881
G1 X162.596 Y205.922
G1 X162.731 Y205.959
G1 X162.867 Y205.989
G1 X163.004 Y206.013
G1 X163.142 Y206.031
G1 X163.28 Y206.044
G1 X163.419 Y206.05
G1 X163.559 Y206.051
G1 X163.698 Y206.046
G1 X163.834 Y206.034
G1 X163.932 Y206.022
G1 X165.056 Y205.883
G1 X166.262 Y205.693
G1 X167.461 Y205.461
G1 X168.652 Y205.19
G1 X169.833 Y204.878
G1 X171.002 Y204.527
G1 X172.159 Y204.137
G1 X173.303 Y203.708
G1 X174.431 Y203.241
G1 X175.543 Y202.736
G1 X176.637 Y202.194
G1 X177.712 Y201.615
G1 X178.767 Y201
G1 X179.801 Y200.35
G1 X180.812 Y199.666
G1 X181.8 Y198.948
G1 X182.765 Y198.195
G1 X182.869 Y198.107
G1 X182.967 Y198.018
G1 X183.056 Y197.929
G1 X188.014 Y192.971
G1 X188.104 Y192.873
G1 X188.192 Y192.769
G1 X188.949 Y191.799
G1 X189.667 Y190.811
G1 X190.351 Y189.8
G1 X191.001 Y188.766
G1 X191.616 Y187.711
G1 X192.195 Y186.636
G1 X192.737 Y185.541
G1 X193.242 Y184.43
G1 X193.709 Y183.302
G1 X194.138 Y182.158
G1 X194.528 Y181.001
G1 X194.88 Y179.832
G1 X195.191 Y178.651
G1 X195.462 Y177.46
G1 X195.694 Y176.261
G1 X195.884 Y175.055
G1 X196.035 Y173.841
G1 X196.046 Y173.711
G1 X196.052 Y173.574
G1 X196.052 Y173.435
G1 X196.046 Y173.295
G1 X196.034 Y173.157
G1 X196.017 Y173.019
G1 X195.995 Y172.893
G1 X195.988 Y172.856
G1 X195.962 Y172.738
G1 X195.928 Y172.609
G1 X195.887 Y172.478
G1 X195.84 Y172.347
G1 X195.788 Y172.218
G1 X195.735 Y172.102
G1 X195.718 Y172.067
G1 X195.663 Y171.96
G1 X195.597 Y171.845
G1 X195.531 Y171.738
G1 X195.51 Y171.706
G1 X195.441 Y171.606
G1 X195.368 Y171.51
G1 X195.346 Y171.481
G1 X195.269 Y171.388
G1 X195.18 Y171.289
G1 X195.092 Y171.199
G1 X195.065 Y171.172
G1 X194.977 Y171.09
G1 X194.885 Y171.011
G1 X194.857 Y170.988
G1 X194.762 Y170.913
G1 X194.649 Y170.832
G1 X194.538 Y170.759
G1 X194.42 Y170.688
G1 X194.297 Y170.622
G1 X194.172 Y170.561
G1 X194.044 Y170.505
G1 X193.915 Y170.455
G1 X193.783 Y170.41
G1 X193.649 Y170.372
G1 X193.511 Y170.352
G1 X193.347 Y170.333
G1 X193.227 Y170.324
G1 X193.096 Y170.316
G1 X192.96 Y170.311
G1 X192.84 Y170.309
G1 X192.84 Y170.32
G1 E.4 F2400
;TYPE:Perimeter
