; generated by PrusaSlicer 2.7.1 on 2024-08-18 at 04:13:21 UTC

; 

; external perimeters extrusion width = 0.90mm
; perimeters extrusion width = 0.90mm
; infill extrusion width = 0.90mm
; solid infill extrusion width = 0.90mm
; top infill extrusion width = 0.80mm

M190 S60 ; set bed temperature and wait for it to be reached
;TYPE:Custom
; Start GCODE (begins)

G28 ; home all axes
G1 Z5 F5000 ; lift nozzle

M109 S200 ; Do this now so we can purge

; Extrude a small amount of waste material
G92 E0
G1 E20 F200
G92 E0

; Start GCODE (ends)
G21 ; set units to millimeters
G90 ; use absolute coordinates
M82 ; use absolute distances for extrusion
G92 E0
; Filament gcode
M107
;LAYER_CHANGE
;Z:0.35
;HEIGHT:0.35
G1 Z.43 F9000
G1 E-.3 F2400
G92 E0
G1 X127.099 Y136.684 F9000
G1 E.4 F2400
;TYPE:Skirt/Brim
;WIDTH:0.9
G1 F1200
G1 X130.397 Y133.722 E.95869
G1 X132.571 Y132.052 E1.3042
G1 X134.147 Y130.964 E1.54556
G1 X136.469 Y129.519 E1.89025
G1 X138.878 Y128.211 E2.23573
G1 X142.925 Y126.401 E2.79448
G1 X144.513 Y125.812 E3.00795
G1 X147.333 Y124.922 E3.38065
G1 X151.653 Y123.926 E3.9394
G1 X156.048 Y123.343 E4.49817
G1 X160.478 Y123.178 E5.05689
G1 X164.905 Y123.433 E5.61577
G1 X169.287 Y124.106 E6.17453
G1 X173.586 Y125.19 E6.73331
G1 X177.763 Y126.676 E7.29208
G1 X181.781 Y128.55 E7.85085
G1 X185.604 Y130.796 E8.40968
G1 X189.197 Y133.393 E8.96842
G1 X191.289 Y135.164 E9.31387
G1 X193.425 Y137.208 E9.68648
G1 X196.377 Y140.516 E10.24527
G1 X199.002 Y144.088 E10.80395
G1 X201.278 Y147.893 E11.36275
G1 X202.591 Y150.542 E11.73537
G1 X203.267 Y152.095 E11.94884
G1 X204.766 Y156.268 E12.50768
G1 X205.864 Y160.563 E13.0664
G1 X206.338 Y163.263 E13.4119
G1 X206.671 Y166.2 E13.78443
G1 X206.821 Y170.631 E14.34321
G1 X206.551 Y175.057 E14.90207
G1 X205.864 Y179.437 E15.46085
G1 X204.766 Y183.732 E16.01957
G1 X203.811 Y186.53 E16.39219
G1 X203.184 Y188.104 E16.60573
G1 X201.278 Y192.107 E17.16451
G1 X199.002 Y195.912 E17.72331
G1 X196.377 Y199.484 E18.28199
G1 X194.589 Y201.562 E18.62749
G1 X192.529 Y203.682 E19.00005
G1 X189.197 Y206.607 E19.55885
G1 X185.604 Y209.205 E20.11767
G1 X181.781 Y211.45 E20.67643
G1 X180.268 Y212.211 E20.88988
G1 X177.564 Y213.406 E21.26247
G1 X173.38 Y214.872 E21.82123
G1 X169.076 Y215.936 E22.38001
G1 X164.69 Y216.589 E22.93889
G1 X161.956 Y216.783 E23.28433
G1 X159 Y216.813 E23.65691
G1 X154.577 Y216.509 E24.21567
G1 X150.203 Y215.787 E24.7744
G1 X145.916 Y214.655 E25.33323
G1 X144.31 Y214.117 E25.5467
G1 X141.557 Y213.039 E25.91932
G1 X137.569 Y211.101 E26.47815
G1 X135.203 Y209.718 E26.82355
G1 X133.601 Y208.669 E27.06489
G1 X131.387 Y207.064 E27.40954
G1 X129.267 Y205.326 E27.75504
G1 X126.064 Y202.261 E28.31378
G1 X123.165 Y198.906 E28.87261
G1 X120.596 Y195.293 E29.43135
G1 X119.707 Y193.851 E29.64485
G1 X118.282 Y191.261 E30.01742
G1 X116.458 Y187.219 E30.57632
G1 X115.025 Y183.024 E31.13503
G1 X113.995 Y178.712 E31.69378
G1 X113.377 Y174.321 E32.25265
G1 X113.204 Y171.586 E32.59804
G1 X113.181 Y169.671 E32.83941
G1 X113.277 Y166.938 E33.18407
G1 X113.536 Y164.209 E33.52956
G1 X114.292 Y159.84 E34.08838
G1 X115.458 Y155.563 E34.6471
G1 X117.023 Y151.415 E35.20586
G1 X118.974 Y147.433 E35.76473
G1 X121.292 Y143.654 E36.32347
G1 X123.957 Y140.111 E36.88223
G1 X125.211 Y138.664 E37.12356
G1 X127.016 Y136.771 E37.45322
G1 E37.15322 F2400
G92 E0
G1 X127.016 Y136.771 F9000
G1 X166.327 Y132.632
G1 E.4 F2400
;TYPE:Perimeter
;WIDTH:0.886187
G1 F1200
G1 X166.599 Y132.676 E.43415
;WIDTH:0.889287
G1 X167.912 Y132.935 E.60063
;WIDTH:0.889836
G1 X169.091 Y133.204 E.75116
;WIDTH:0.890077
G1 X170.921 Y133.702 E.98731
G1 X172.711 Y134.292 E1.22199
;WIDTH:0.889967
G1 X174.098 Y134.816 E1.40659
;WIDTH:0.887442
G1 X175.051 Y135.215 E1.53482
;WIDTH:0.889475
G1 X176.492 Y135.87 E1.73177
;WIDTH:0.889134
G1 X177.556 Y136.404 E1.87983
;WIDTH:0.888686
G1 X178.486 Y136.908 E2.01132
;WIDTH:0.888154
G1 X179.59 Y137.548 E2.16984
;WIDTH:0.887551
G1 X179.67 Y137.597 E2.18149
;WIDTH:0.887986
G1 X180.745 Y138.275 E2.33934
;WIDTH:0.888543
G1 X181.807 Y138.996 E2.49887
;WIDTH:0.886524
G1 X182.838 Y139.749 E2.65715
;WIDTH:0.886139
G1 X183.827 Y140.521 E2.81262
;WIDTH:0.903233
G1 X184.24 Y140.872 E2.8812
;WIDTH:0.916733
G1 X185.391 Y141.862 E3.07642
;WIDTH:0.9
G1 X186.266 Y142.677 E3.22713
G1 X187.116 Y143.52 E3.37801
G1 X187.945 Y144.397 E3.53011
;WIDTH:0.90399
G1 X188.341 Y144.845 E3.60583
;WIDTH:0.941335
G1 X188.803 Y145.408 E3.70222
G1 X189.156 Y145.797 E3.77174
;WIDTH:0.901425
G1 X189.503 Y146.2 E3.83888
;WIDTH:0.889002
G1 X190.246 Y147.158 E3.98964
;WIDTH:0.887146
G1 X191.058 Y148.27 E4.16047
;WIDTH:0.886525
G1 X191.771 Y149.328 E4.31864
;WIDTH:0.886139
G1 X192.449 Y150.41 E4.47687
;WIDTH:0.88584
G1 X193.09 Y151.514 E4.635
;WIDTH:0.889921
G1 X193.693 Y152.638 E4.7938
;WIDTH:0.890054
G1 X194.425 Y154.137 E5.00151
;WIDTH:0.888423
G1 X194.783 Y154.944 E5.11122
;WIDTH:0.889946
G1 X195.437 Y156.543 E5.3263
G1 X195.844 Y157.669 E5.47536
;WIDTH:0.88974
G1 X196.216 Y158.806 E5.62426
;WIDTH:0.889449
G1 X196.551 Y159.955 E5.77317
;WIDTH:0.889077
G1 X196.849 Y161.107 E5.92115
;WIDTH:0.888618
G1 X197.084 Y162.15 E6.05404
;WIDTH:0.888073
G1 X197.328 Y163.403 E6.2126
;WIDTH:0.887467
G1 X197.344 Y163.495 E6.22419
;WIDTH:0.888068
G1 X197.541 Y164.751 E6.38211
;WIDTH:0.889997
G1 X197.697 Y166.037 E6.5434
;WIDTH:0.907389
G1 X197.735 Y166.549 E6.60869
;WIDTH:0.936446
G1 X197.75 Y166.891 E6.65374
;WIDTH:0.965504
G1 X197.802 Y167.59 E6.7491
;WIDTH:0.935691
G1 X197.839 Y167.948 E6.79642
;WIDTH:0.905879
G1 X197.87 Y168.579 E6.87661
;WIDTH:0.9
G1 X197.896 Y169.417 E6.98228
G1 X197.896 Y170.598 E7.13113
G1 X197.855 Y171.848 E7.28876
;WIDTH:0.904745
G1 X197.803 Y172.635 E7.38874
;WIDTH:0.920512
G1 X197.674 Y174.18 E7.589
;WIDTH:0.892623
G1 X197.544 Y175.223 E7.72029
;WIDTH:0.888069
G1 X197.345 Y176.502 E7.88107
;WIDTH:0.887466
G1 X197.329 Y176.594 E7.89266
;WIDTH:0.888073
G1 X197.086 Y177.842 E8.05059
;WIDTH:0.888618
G1 X196.798 Y179.094 E8.21027
;WIDTH:0.886465
G1 X196.471 Y180.327 E8.3684
;WIDTH:0.886092
G1 X196.102 Y181.549 E8.52657
;WIDTH:0.8858
G1 X195.692 Y182.758 E8.6847
;WIDTH:0.889946
G1 X195.242 Y183.952 E8.84356
;WIDTH:0.890054
G1 X194.512 Y185.678 E9.0769
G1 X193.693 Y187.362 E9.31006
;WIDTH:0.889921
G1 X192.874 Y188.872 E9.52392
;WIDTH:0.889705
G1 X192.262 Y189.9 E9.67282
;WIDTH:0.889405
G1 X191.618 Y190.909 E9.82175
;WIDTH:0.889016
G1 X190.946 Y191.891 E9.96972
;WIDTH:0.888544
G1 X190.309 Y192.764 E10.10403
;WIDTH:0.888018
G1 X190.24 Y192.858 E10.11851
;WIDTH:0.88911
G1 X189.458 Y193.855 E10.2761
;WIDTH:0.907209
G1 X189.123 Y194.242 E10.34117
;WIDTH:0.937198
G1 X188.888 Y194.499 E10.38704
;WIDTH:0.967187
G1 X188.313 Y195.173 E10.50779
;WIDTH:0.921486
G1 X187.938 Y195.611 E10.58235
;WIDTH:0.9
G1 X187.116 Y196.48 E10.73311
G1 X186.65 Y196.942 E10.81581
G1 X185.383 Y198.145 E11.03601
;WIDTH:0.904334
G1 X185.002 Y198.475 E11.09987
;WIDTH:0.926763
G1 X184.055 Y199.285 E11.26202
;WIDTH:0.894887
G1 X183.563 Y199.693 E11.34208
;WIDTH:0.889403
G1 X182.614 Y200.422 E11.49096
;WIDTH:0.889014
G1 X181.647 Y201.117 E11.63905
;WIDTH:0.88864
G1 X180.69 Y201.761 E11.78243
;WIDTH:0.88797
G1 X179.672 Y202.402 E11.93184
;WIDTH:0.887552
G1 X179.593 Y202.45 E11.94331
;WIDTH:0.888156
G1 X178.493 Y203.088 E12.10128
;WIDTH:0.888686
G1 X177.361 Y203.695 E12.26095
;WIDTH:0.886403
G1 X176.216 Y204.26 E12.41922
;WIDTH:0.886044
G1 X175.053 Y204.786 E12.57737
;WIDTH:0.885768
G1 X173.873 Y205.273 E12.73548
;WIDTH:0.890043
G1 X172.678 Y205.72 E12.89434
G1 X171.468 Y206.126 E13.05325
G1 X170.289 Y206.48 E13.20652
G1 X169.091 Y206.796 E13.36079
;WIDTH:0.890279
G1 X167.426 Y207.171 E13.57336
;WIDTH:0.889666
G1 X166.249 Y207.387 E13.72229
;WIDTH:0.88935
G1 X165.072 Y207.565 E13.87038
;WIDTH:0.889178
G1 X163.973 Y207.696 E14.00804
;WIDTH:0.888636
G1 X163.878 Y207.707 E14.01993
;WIDTH:0.92786
G1 X162.269 Y207.828 E14.23016
;WIDTH:0.9
G1 X161.497 Y207.87 E14.3276
G1 X160.3 Y207.899 E14.47851
G1 X159.104 Y207.889 E14.62925
G1 X158.169 Y207.852 E14.74718
;WIDTH:0.914189
G1 X157.54 Y207.809 E14.82801
;WIDTH:0.919221
G1 X156.036 Y207.694 E15.02255
;WIDTH:0.890892
G1 X154.331 Y207.479 E15.23675
;WIDTH:0.889667
G1 X153.151 Y207.281 E15.38566
;WIDTH:0.889354
G1 X151.977 Y207.046 E15.53461
;WIDTH:0.888954
G1 X150.912 Y206.797 E15.67061
;WIDTH:0.886731
G1 X149.765 Y206.496 E15.81766
;WIDTH:0.887899
G1 X148.539 Y206.131 E15.97651
;WIDTH:0.887636
G1 X148.452 Y206.103 E15.98786
;WIDTH:0.888238
G1 X147.248 Y205.695 E16.1458
;WIDTH:0.888757
G1 X146.045 Y205.241 E16.30565
;WIDTH:0.886349
G1 X144.867 Y204.751 E16.46379
;WIDTH:0.886001
G1 X143.706 Y204.221 E16.62191
;WIDTH:0.885737
G1 X142.563 Y203.653 E16.77999
;WIDTH:0.890028
G1 X141.913 Y203.311 E16.87144
G1 X140.871 Y202.723 E17.02041
G1 X139.847 Y202.103 E17.16946
G1 X138.844 Y201.451 E17.31841
G1 X137.861 Y200.767 E17.46752
;WIDTH:0.889872
G1 X136.901 Y200.053 E17.61646
;WIDTH:0.896477
G1 X135.862 Y199.218 E17.78374
;WIDTH:0.936359
G1 X135.467 Y198.857 E17.85415
G1 X134.98 Y198.458 E17.937
;WIDTH:0.908369
G1 X134.387 Y197.923 E18.03868
;WIDTH:0.9
G1 X133.308 Y196.905 E18.22564
G1 X132.472 Y196.049 E18.37644
G1 X131.8 Y195.316 E18.50177
;WIDTH:0.908691
G1 X130.869 Y194.238 E18.68318
;WIDTH:0.904917
G1 X130.483 Y193.776 E18.75951
;WIDTH:0.890027
G1 X129.402 Y192.371 E18.98023
G1 X128.711 Y191.394 E19.12923
;WIDTH:0.889872
G1 X128.051 Y190.396 E19.27818
;WIDTH:0.889627
G1 X127.423 Y189.377 E19.42714
;WIDTH:0.889304
G1 X126.831 Y188.345 E19.57514
;WIDTH:0.888887
G1 X126.348 Y187.442 E19.70247
;WIDTH:0.888394
G1 X125.779 Y186.299 E19.86113
;WIDTH:0.887723
G1 X125.214 Y185.055 E20.03077
;WIDTH:0.888318
G1 X124.729 Y183.879 E20.18883
;WIDTH:0.888827
G1 X124.279 Y182.674 E20.34875
;WIDTH:0.886298
G1 X123.873 Y181.464 E20.50693
;WIDTH:0.885959
G1 X123.508 Y180.241 E20.66505
;WIDTH:0.885702
G1 X123.203 Y179.076 E20.8142
;WIDTH:0.885456
G1 X122.902 Y177.762 E20.9811
;WIDTH:0.890012
G1 X122.567 Y175.953 E21.21016
G1 X122.398 Y174.775 E21.35833
G1 X122.313 Y174.031 E21.45157
;WIDTH:0.904159
G1 X122.262 Y173.449 E21.52557
;WIDTH:0.919735
G1 X122.165 Y172.149 E21.6938
;WIDTH:0.9
G1 X122.12 Y171.196 E21.81404
G1 X122.106 Y170.282 E21.92925
G1 X122.129 Y168.606 E22.1405
;WIDTH:0.915673
G1 X122.176 Y167.787 E22.24586
;WIDTH:0.961183
G1 X122.241 Y167.185 E22.32783
G1 X122.253 Y166.87 E22.37051
;WIDTH:0.934929
G1 X122.264 Y166.556 E22.41179
;WIDTH:0.908675
G1 X122.307 Y166.031 E22.47888
;WIDTH:0.890591
G1 X122.477 Y164.669 E22.6499
;WIDTH:0.885459
G1 X122.676 Y163.41 E22.80771
;WIDTH:0.890096
G1 X122.909 Y162.203 E22.96078
;WIDTH:0.890446
G1 X123.301 Y160.521 E23.17593
;WIDTH:0.889841
G1 X123.615 Y159.378 E23.32348
;WIDTH:0.889516
G1 X123.886 Y158.504 E23.43734
;WIDTH:0.888996
G1 X124.359 Y157.098 E23.62181
;WIDTH:0.888828
G1 X124.725 Y156.13 E23.75047
;WIDTH:0.888319
G1 X125.212 Y154.95 E23.90908
;WIDTH:0.887815
G1 X125.777 Y153.706 E24.07874
;WIDTH:0.888394
G1 X126.343 Y152.568 E24.23667
;WIDTH:0.888887
G1 X126.955 Y151.435 E24.39678
;WIDTH:0.88624
G1 X127.599 Y150.333 E24.55496
;WIDTH:0.885919
G1 X128.28 Y149.254 E24.71303
;WIDTH:0.885676
G1 X128.997 Y148.198 E24.87111
;WIDTH:0.890028
G1 X129.753 Y147.161 E25.0309
;WIDTH:0.890901
G1 X130.132 Y146.664 E25.1088
;WIDTH:0.894034
G1 X130.748 Y145.902 E25.2314
;WIDTH:0.925999
G1 X131.104 Y145.51 E25.30024
G1 X131.667 Y144.83 E25.41501
;WIDTH:0.9
G1 X132.472 Y143.951 E25.56523
G1 X133.308 Y143.095 E25.71603
G1 X134.391 Y142.069 E25.90405
;WIDTH:0.90842
G1 X134.849 Y141.665 E25.98181
;WIDTH:0.938998
G1 X135.837 Y140.821 E26.15332
;WIDTH:0.912455
G1 X136.227 Y140.48 E26.2196
;WIDTH:0.885912
G1 X137.236 Y139.695 E26.37797
;WIDTH:0.885678
G1 X138.269 Y138.946 E26.53599
;WIDTH:0.890057
G1 X139.327 Y138.232 E26.69492
G1 X140.411 Y137.555 E26.85405
;WIDTH:0.885331
G1 X141.47 Y136.936 E27.0059
;WIDTH:0.889989
G1 X142.985 Y136.129 E27.21962
;WIDTH:0.88981
G1 X144.063 Y135.609 E27.3686
;WIDTH:0.889545
G1 X145.156 Y135.122 E27.5175
;WIDTH:0.889191
G1 X146.259 Y134.673 E27.66563
;WIDTH:0.888756
G1 X147.24 Y134.308 E27.79575
;WIDTH:0.888238
G1 X148.527 Y133.877 E27.96437
;WIDTH:0.887794
G1 X149.765 Y133.504 E28.12492
;WIDTH:0.886676
G1 X151.034 Y133.172 E28.28757
G1 X152.242 Y132.899 E28.44114
;WIDTH:0.886189
G1 X153.496 Y132.659 E28.59936
;WIDTH:0.885878
G1 X154.764 Y132.461 E28.75834
;WIDTH:0.891009
G1 X156.085 Y132.301 E28.92422
;WIDTH:0.919137
G1 X157.376 Y132.201 E29.0912
;WIDTH:0.911286
G1 X157.908 Y132.158 E29.15939
;WIDTH:0.9
G1 X159.099 Y132.111 E29.30961
G1 X160.673 Y132.11 E29.50799
G1 X161.608 Y132.136 E29.62588
;WIDTH:0.917857
G1 X162.419 Y132.19 E29.73054
;WIDTH:0.939231
G1 X163.544 Y132.279 E29.87954
;WIDTH:0.912901
G1 X164.055 Y132.313 E29.9451
;WIDTH:0.888953
G1 X165.334 Y132.473 E30.10538
;WIDTH:0.886187
G1 X166.209 Y132.613 E30.21519
G1 X166.433 Y131.814 F9000
;WIDTH:0.9
G1 F1200
G1 X167.379 Y131.987 E30.3364
G1 X168.791 Y132.286 E30.51831
G1 X169.975 Y132.581 E30.6721
G1 X171.151 Y132.915 E30.82618
G1 X172.316 Y133.285 E30.98024
G1 X173.469 Y133.692 E31.13434
G1 X174.405 Y134.057 E31.26096
G1 X175.736 Y134.616 E31.4429
G1 X176.843 Y135.129 E31.59667
G1 X177.935 Y135.678 E31.75071
G1 X179.01 Y136.261 E31.90484
G1 X180.065 Y136.878 E32.05888
G1 X181.101 Y137.528 E32.21302
G1 X182.115 Y138.21 E32.36704
G1 X183.108 Y138.924 E32.52119
G1 X184.077 Y139.669 E32.67524
G1 X185.023 Y140.444 E32.82937
G1 X185.943 Y141.249 E32.98344
G1 X186.838 Y142.082 E33.13754
G1 X187.706 Y142.943 E33.29163
G1 X188.546 Y143.832 E33.44578
G1 X189.214 Y144.583 E33.57246
G1 X190.141 Y145.685 E33.75395
G1 X191.022 Y146.825 E33.93553
G1 X191.615 Y147.636 E34.06215
G1 X192.305 Y148.645 E34.21621
G1 X192.964 Y149.675 E34.37032
G1 X193.589 Y150.726 E34.52443
G1 X194.18 Y151.796 E34.67849
G1 X194.738 Y152.884 E34.8326
G1 X195.168 Y153.792 E34.95922
G1 X195.75 Y155.113 E35.14115
G1 X196.201 Y156.246 E35.29484
G1 X196.617 Y157.396 E35.44897
G1 X196.997 Y158.558 E35.60305
G1 X197.34 Y159.731 E35.75708
G1 X197.645 Y160.915 E35.91118
G1 X197.913 Y162.108 E36.06529
G1 X198.144 Y163.309 E36.21943
G1 X198.336 Y164.516 E36.37347
G1 X198.49 Y165.729 E36.52758
G1 X198.605 Y166.946 E36.68165
G1 X198.666 Y167.896 E36.80163
G1 X198.721 Y169.417 E36.99345
G1 X198.721 Y170.611 E37.14393
G1 X198.683 Y171.833 E37.29802
G1 X198.605 Y173.054 E37.45222
G1 X198.49 Y174.271 E37.60629
G1 X198.336 Y175.484 E37.7604
G1 X198.144 Y176.691 E37.91444
G1 X197.913 Y177.892 E38.06858
G1 X197.645 Y179.085 E38.22269
G1 X197.34 Y180.269 E38.37679
G1 X196.997 Y181.442 E38.53082
G1 X196.617 Y182.604 E38.6849
G1 X196.201 Y183.754 E38.83903
G1 X195.749 Y184.89 E38.99312
G1 X195.261 Y186.011 E39.14721
G1 X194.738 Y187.116 E39.30129
G1 X194.18 Y188.204 E39.4554
G1 X193.589 Y189.274 E39.60946
G1 X192.964 Y190.325 E39.76357
G1 X192.306 Y191.355 E39.91761
G1 X191.615 Y192.364 E40.07174
G1 X190.893 Y193.351 E40.22587
G1 X190.141 Y194.315 E40.37996
G1 X189.358 Y195.254 E40.53405
G1 X188.546 Y196.168 E40.68814
G1 X187.706 Y197.057 E40.84229
G1 X186.838 Y197.918 E40.99638
G1 X185.943 Y198.751 E41.15048
G1 X185.023 Y199.556 E41.30455
G1 X184.077 Y200.331 E41.45868
G1 X183.108 Y201.076 E41.61273
G1 X182.115 Y201.79 E41.76688
G1 X181.101 Y202.472 E41.9209
G1 X180.065 Y203.122 E42.07504
G1 X179.01 Y203.739 E42.22908
G1 X177.935 Y204.322 E42.38321
G1 X176.843 Y204.871 E42.53725
G1 X175.733 Y205.385 E42.69142
G1 X174.608 Y205.864 E42.84553
G1 X173.469 Y206.308 E42.9996
G1 X172.316 Y206.715 E43.1537
G1 X171.151 Y207.085 E43.30776
G1 X169.975 Y207.419 E43.46184
G1 X168.788 Y207.715 E43.61602
G1 X167.593 Y207.973 E43.7701
G1 X166.391 Y208.194 E43.92413
G1 X165.182 Y208.377 E44.07824
G1 X163.968 Y208.521 E44.23232
G1 X162.75 Y208.627 E44.38641
G1 X161.529 Y208.695 E44.54054
G1 X160.307 Y208.724 E44.6946
G1 X159.084 Y208.714 E44.84874
G1 X157.862 Y208.666 E45.00287
G1 X156.643 Y208.579 E45.1569
G1 X155.427 Y208.454 E45.31096
G1 X154.215 Y208.29 E45.4651
G1 X153.009 Y208.089 E45.61919
G1 X151.81 Y207.849 E45.7733
G1 X150.832 Y207.621 E45.89987
G1 X149.435 Y207.256 E46.08185
G1 X148.267 Y206.904 E46.2356
G1 X147.108 Y206.516 E46.38964
G1 X145.962 Y206.09 E46.54373
