; generated by PrusaSlicer 2.8.0 on 2024-08-25 at 04:54:37 UTC

; 

; external perimeters extrusion width = 0.90mm
; perimeters extrusion width = 0.90mm
; infill extrusion width = 0.90mm
; solid infill extrusion width = 0.90mm
; top infill extrusion width = 0.80mm

M190 S60 ; set bed temperature and wait for it to be reached
;TYPE:Custom
; Start GCODE (begins)

G28 ; home all axes
G1 Z5 F5000 ; lift nozzle

M109 S200 ; Do this now so we can purge

; Extrude a small amount of waste material
G92 E0
G1 E20 F200
G92 E0

; Start GCODE (ends)
G21 ; set units to millimeters
G90 ; use absolute coordinates
M82 ; use absolute distances for extrusion
G92 E0
; Filament gcode
M107
;LAYER_CHANGE
;Z:0.35
;HEIGHT:0.35
G1 E-.3 F2400
G1 Z.35 F9000
G1 X151.404 Y160.84
G1 E.1 F2400
G92 E0
;TYPE:Skirt/Brim
;WIDTH:0.9
G1 F1200
G1 X152.235 Y160.126 E.13808
G1 X153.353 Y159.341 E.31025
G1 X154.324 Y158.794 E.45071
G1 X155.564 Y158.248 E.62147
G1 X156.884 Y157.831 E.79594
G1 X159.045 Y157.475 E1.07197
G1 X160.408 Y157.445 E1.2438
G1 X161.501 Y157.528 E1.38195
G1 X162.855 Y157.767 E1.55524
G1 X163.911 Y158.062 E1.69343
G1 X165.173 Y158.553 E1.8641
G1 X166.151 Y159.047 E2.00219
G1 X167.304 Y159.78 E2.17439
G1 X168.181 Y160.468 E2.31488
G1 X169.16 Y161.404 E2.48559
G1 X169.88 Y162.242 E2.62484
G1 X170.669 Y163.369 E2.79823
G1 X171.206 Y164.324 E2.93632
G1 X171.756 Y165.572 E3.10821
G1 X172.169 Y166.884 E3.28157
G1 X172.525 Y169.045 E3.5576
G1 X172.555 Y170.408 E3.72943
G1 X172.472 Y171.501 E3.86758
G1 X172.233 Y172.855 E4.04087
G1 X171.938 Y173.911 E4.17906
G1 X171.443 Y175.182 E4.35097
G1 X170.948 Y176.159 E4.48901
G1 X170.209 Y177.319 E4.66236
G1 X169.355 Y178.383 E4.83431
G1 X167.758 Y179.88 E5.11019
G1 X166.647 Y180.659 E5.2812
G1 X165.676 Y181.206 E5.42166
G1 X164.428 Y181.756 E5.59355
G1 X163.116 Y182.169 E5.76691
G1 X160.955 Y182.525 E6.04294
G1 X159.601 Y182.555 E6.21363
G1 X158.499 Y182.472 E6.35291
G1 X157.145 Y182.233 E6.5262
G1 X155.835 Y181.851 E6.69818
G1 X153.841 Y180.948 E6.97406
G1 X152.681 Y180.209 E7.14741
G1 X151.819 Y179.532 E7.28555
G1 X150.84 Y178.596 E7.45626
G1 X150.12 Y177.758 E7.59551
G1 X149.331 Y176.631 E7.7689
G1 X148.679 Y175.444 E7.93959
G1 X147.903 Y173.386 E8.21679
G1 X147.606 Y172.043 E8.39014
G1 X147.457 Y170.688 E8.56195
G1 X147.528 Y168.499 E8.83798
G1 X147.767 Y167.145 E9.01127
G1 X148.063 Y166.089 E9.14949
G1 X148.557 Y164.818 E9.32135
G1 X149.182 Y163.615 E9.49221
G1 X150.468 Y161.819 E9.77061
G1 X151.321 Y160.927 E9.92616
G1 E9.62616 F2400
G92 E0
G1 X151.321 Y160.927 F9000
G92 E0
G1 X159.977 Y165.343
G1 E.4 F2400
;TYPE:External perimeter
;WIDTH:1.03635
G1 F1200
G1 X160.375 Y165.35 E.45846
;WIDTH:1.04258
G1 X161.029 Y165.454 E.55635
G1 X161.803 Y165.702 E.67649
G1 X162.48 Y166.049 E.78894
G1 X163.012 Y166.444 E.88689
;WIDTH:1.04397
G1 X163.272 Y166.683 E.93917
G1 X163.792 Y167.281 E1.05648
;WIDTH:1.03763
G1 X164.21 Y167.991 E1.17765
;WIDTH:1.04888
G1 X164.439 Y168.612 E1.27612
G1 X164.565 Y169.031 E1.34122
;WIDTH:1.03706
G1 X164.658 Y169.755 E1.4485
;WIDTH:1.04875
G1 X164.633 Y170.405 E1.54527
G1 X164.552 Y170.999 E1.63445
;WIDTH:1.04258
G1 X164.399 Y171.557 E1.71998
;WIDTH:1.04875
G1 X164.125 Y172.147 E1.81675
G1 X163.823 Y172.665 E1.90595
;WIDTH:1.04258
G1 X163.469 Y173.122 E1.9914
G1 X162.98 Y173.584 E2.09084
;WIDTH:1.04394
G1 X162.699 Y173.798 E2.14312
G1 X162.018 Y174.205 E2.26056
;WIDTH:1.04888
G1 X161.388 Y174.439 E2.36055
G1 X160.969 Y174.565 E2.42565
;WIDTH:1.03706
G1 X160.245 Y174.658 E2.53293
;WIDTH:1.04887
G1 X159.585 Y174.632 E2.6312
G1 X159.148 Y174.588 E2.69655
;WIDTH:1.04212
G1 X158.568 Y174.436 E2.78514
;WIDTH:1.04876
G1 X157.853 Y174.125 E2.90113
G1 X157.335 Y173.823 E2.99033
;WIDTH:1.04258
G1 X156.878 Y173.468 E3.07587
;WIDTH:1.04887
G1 X156.431 Y172.982 E3.17411
G1 X156.154 Y172.642 E3.23936
;WIDTH:1.04212
G1 X155.851 Y172.124 E3.32803
;WIDTH:1.04888
G1 X155.561 Y171.388 E3.44573
G1 X155.435 Y170.969 E3.51083
;WIDTH:1.03699
G1 X155.342 Y170.245 E3.61811
;WIDTH:1.0367
G1 X155.348 Y169.625 E3.7092
G1 X155.484 Y168.833 E3.82726
;WIDTH:1.04258
G1 X155.702 Y168.197 E3.92664
G1 X156.046 Y167.519 E4.03902
;WIDTH:1.0367
G1 X156.533 Y166.88 E4.15706
;WIDTH:1.04259
G1 X157.02 Y166.416 E4.25649
;WIDTH:1.04394
G1 X157.301 Y166.202 E4.30877
G1 X157.982 Y165.795 E4.42621
;WIDTH:1.04876
G1 X158.601 Y165.565 E4.52444
G1 X159.18 Y165.412 E4.61353
;WIDTH:1.04265
G1 X159.762 Y165.34 E4.70022
;WIDTH:1.03635
G1 X159.857 Y165.341 E4.71417
G1 X160.654 Y165.404 F9000
G1 X159.998 Y164.374
;WIDTH:1.04286
G1 F1200
G1 X160.029 Y164.373 E4.71876
;WIDTH:1.04258
G1 X160.766 Y164.425 E4.82797
G1 X161.672 Y164.627 E4.96518
G1 X162.154 Y164.8 E5.04088
G1 X162.617 Y165.018 E5.11653
;WIDTH:1.04231
G1 X163.246 Y165.404 E5.22559
G1 X163.878 Y165.924 E5.34653
;WIDTH:1.04888
G1 X164.295 Y166.369 E5.43726
G1 X164.613 Y166.77 E5.5134
;WIDTH:1.04479
G1 X164.882 Y167.205 E5.58918
G1 X165.136 Y167.71 E5.67293
;WIDTH:1.04888
G1 X165.357 Y168.289 E5.76514
G1 X165.498 Y168.781 E5.84129
;WIDTH:1.04479
G1 X165.58 Y169.286 E5.91709
G1 X165.626 Y170.032 E6.02782
;WIDTH:1.04875
G1 X165.6 Y170.511 E6.09918
G1 X165.524 Y171.048 E6.17986
;WIDTH:1.04259
G1 X165.373 Y171.672 E6.27476
;WIDTH:1.04397
G1 X165.199 Y172.154 E6.35062
;WIDTH:1.04875
G1 X164.978 Y172.615 E6.42667
G1 X164.591 Y173.254 E6.5378
;WIDTH:1.04258
G1 X164.091 Y173.863 E6.65428
G1 X163.633 Y174.297 E6.74755
;WIDTH:1.04394
G1 X163.228 Y174.61 E6.82332
;WIDTH:1.04858
G1 X162.786 Y174.884 E6.90067
G1 X162.29 Y175.136 E6.98342
;WIDTH:1.04888
G1 X161.711 Y175.357 E7.07563
G1 X161.219 Y175.498 E7.15178
;WIDTH:1.04479
G1 X160.714 Y175.58 E7.22758
G1 X159.994 Y175.627 E7.33448
;WIDTH:1.04887
G1 X159.489 Y175.601 E7.40971
G1 X158.91 Y175.518 E7.49673
;WIDTH:1.04212
G1 X158.328 Y175.372 E7.58538
;WIDTH:1.04397
G1 X157.846 Y175.199 E7.66119
;WIDTH:1.04876
G1 X157.385 Y174.978 E7.73724
G1 X156.917 Y174.703 E7.81799
;WIDTH:1.04259
G1 X156.399 Y174.324 E7.91287
;WIDTH:1.04397
G1 X156.021 Y173.979 E7.98863
;WIDTH:1.04887
G1 X155.678 Y173.599 E8.06479
G1 X155.327 Y173.131 E8.15183
;WIDTH:1.03746
G1 X154.857 Y172.282 E8.29452
;WIDTH:1.04888
G1 X154.643 Y171.711 E8.38524
G1 X154.503 Y171.219 E8.46135
;WIDTH:1.0447
G1 X154.419 Y170.705 E8.53851
G1 X154.373 Y170.021 E8.64007
;WIDTH:1.04079
G1 X154.39 Y169.51 E8.71551
;WIDTH:1.0447
G1 X154.466 Y168.994 E8.79278
G1 X154.643 Y168.278 E8.90204
;WIDTH:1.04258
G1 X154.998 Y167.42 E9.0393
;WIDTH:1.04091
G1 X155.251 Y166.974 E9.11496
;WIDTH:1.04479
G1 X155.55 Y166.559 E9.19074
G1 X155.904 Y166.147 E9.27122
;WIDTH:1.04259
G1 X156.367 Y165.703 E9.36604
;WIDTH:1.04394
G1 X156.772 Y165.39 E9.44181
;WIDTH:1.04858
G1 X157.214 Y165.116 E9.51916
G1 X157.852 Y164.799 E9.62512
;WIDTH:1.04876
G1 X158.329 Y164.631 E9.70035
G1 X159.003 Y164.463 E9.80368
;WIDTH:1.04286
G1 X159.509 Y164.393 E9.87921
G1 X159.878 Y164.379 E9.93381
G1 X160.677 Y164.425 F9000
;LAYER_CHANGE
;Z:0.65
;HEIGHT:0.3
G1 Z.65 F9000
G1 X159.977 Y165.345
G92 E0
;WIDTH:1.03854
G1 F1298
G1 X159.982 Y165.344 E.00065
G1 X160.65 Y165.388 E.08606
;WIDTH:1.03806
G1 X161.421 Y165.564 E.1869
;WIDTH:1.03859
G1 X161.753 Y165.686 E.23203
G1 X162.461 Y166.039 E.33297
;WIDTH:1.03227
G1 X163.119 Y166.535 E.43742
;WIDTH:1.04348
G1 X163.567 Y167.019 E.52199
G1 X163.844 Y167.36 E.57832
;WIDTH:1.03677
G1 X164.146 Y167.877 E.65457
;WIDTH:1.038
G1 X164.286 Y168.178 E.6969
G1 X164.509 Y168.836 E.78549
G1 X164.642 Y169.615 E.88625
;WIDTH:1.0386
G1 X164.657 Y169.968 E.93133
G1 X164.602 Y170.758 E1.03237
;WIDTH:1.03227
G1 X164.395 Y171.555 E1.13675
;WIDTH:1.03856
G1 X164.023 Y172.344 E1.24804
G1 X163.555 Y173.01 E1.35189
G1 X163.315 Y173.27 E1.39703
G1 X162.718 Y173.79 E1.49804
;WIDTH:1.03227
G1 X162.008 Y174.207 E1.60241
;WIDTH:1.0435
G1 X161.388 Y174.436 E1.68716
G1 X160.968 Y174.563 E1.74342
;WIDTH:1.0317
G1 X160.245 Y174.655 E1.83575
;WIDTH:1.03721
G1 X159.573 Y174.638 E1.92139
;WIDTH:1.03859
G1 X159.223 Y174.591 E1.96645
G1 X158.455 Y174.398 E2.06748
;WIDTH:1.03799
G1 X157.832 Y174.121 E2.15441
G1 X157.185 Y173.72 E2.25147
;WIDTH:1.03673
G1 X156.683 Y173.271 E2.33723
G1 X156.209 Y172.717 E2.43007
;WIDTH:1.03116
G1 X155.793 Y172.009 E2.53404
;WIDTH:1.03802
G1 X155.491 Y171.164 E2.64846
G1 X155.358 Y170.385 E2.74923
;WIDTH:1.0386
G1 X155.343 Y170.032 E2.79431
G1 X155.398 Y169.242 E2.89535
;WIDTH:1.03227
G1 X155.605 Y168.445 E2.99973
;WIDTH:1.03721
G1 X155.878 Y167.83 E3.08546
G1 X156.28 Y167.186 E3.18218
;WIDTH:1.03673
G1 X156.729 Y166.683 E3.26804
G1 X157.283 Y166.209 E3.36088
;WIDTH:1.03116
G1 X157.991 Y165.793 E3.46485
;WIDTH:1.03802
G1 X158.836 Y165.491 E3.57927
G1 X159.614 Y165.358 E3.67991
;WIDTH:1.03854
G1 X159.857 Y165.349 E3.71093
G1 X160.655 Y165.408 F9000
G1 X159.998 Y164.371
G1 F1298
G1 X160.02 Y164.371 E3.71374
G1 X160.74 Y164.419 E3.8058
;WIDTH:1.03806
G1 X161.239 Y164.508 E3.87043
;WIDTH:1.03859
G1 X162.135 Y164.791 E3.99031
;WIDTH:1.0435
G1 X162.599 Y165.008 E4.05599
G1 X163.044 Y165.261 E4.12163
;WIDTH:1.03916
G1 X163.462 Y165.564 E4.18754
G1 X163.985 Y166.023 E4.27637
;WIDTH:1.04348
G1 X164.324 Y166.4 E4.34138
G1 X164.676 Y166.868 E4.41647
;WIDTH:1.03677
G1 X164.984 Y167.382 E4.49278
;WIDTH:1.038
G1 X165.2 Y167.84 E4.55735
G1 X165.431 Y168.523 E4.64928
G1 X165.541 Y169.001 E4.71182
;WIDTH:1.03721
G1 X165.609 Y169.509 E4.77712
;WIDTH:1.0386
G1 X165.629 Y170.021 E4.84249
;WIDTH:1.0435
G1 X165.607 Y170.469 E4.9
G1 X165.548 Y170.978 E4.9657
;WIDTH:1.03942
G1 X165.431 Y171.477 E5.03115
G1 X165.187 Y172.183 E5.12653
;WIDTH:1.03856
G1 X164.871 Y172.82 E5.21725
G1 X164.599 Y173.248 E5.28195
;WIDTH:1.03721
G1 X164.078 Y173.88 E5.3863
;WIDTH:1.0435
G1 X163.633 Y174.297 E5.4645
G1 X163.231 Y174.615 E5.53023
;WIDTH:1.03941
G1 X162.796 Y174.884 E5.59554
G1 X162.291 Y175.138 E5.66772
;WIDTH:1.0435
G1 X161.712 Y175.36 E5.74723
G1 X161.219 Y175.5 E5.81295
;WIDTH:1.03941
G1 X160.714 Y175.582 E5.87828
G1 X160.172 Y175.623 E5.94769
;WIDTH:1.03721
G1 X159.53 Y175.61 E6.0295
;WIDTH:1.03859
G1 X159.022 Y175.545 E6.09484
;WIDTH:1.04338
G1 X158.524 Y175.429 E6.1604
G1 X157.865 Y175.208 E6.24952
;WIDTH:1.03799
G1 X157.4 Y174.994 E6.31479
G1 X156.957 Y174.738 E6.38003
;WIDTH:1.03525
G1 X156.483 Y174.393 E6.45457
;WIDTH:1.03673
G1 X156.034 Y173.995 E6.53098
G1 X155.686 Y173.62 E6.59613
;WIDTH:1.03542
G1 X155.374 Y173.213 E6.66135
;WIDTH:1.03963
G1 X155.104 Y172.774 E6.72717
G1 X154.799 Y172.155 E6.8153
;WIDTH:1.03802
G1 X154.56 Y171.452 E6.90998
G1 X154.452 Y170.957 E6.97458
;WIDTH:1.03721
G1 X154.373 Y170.14 E7.07915
;WIDTH:1.0435
G1 X154.393 Y169.531 E7.15728
G1 X154.452 Y169.022 E7.22298
;WIDTH:1.03941
G1 X154.569 Y168.523 E7.28843
G1 X154.792 Y167.865 E7.37715
;WIDTH:1.03721
G1 X155.005 Y167.4 E7.44231
G1 X155.262 Y166.957 E7.50756
;WIDTH:1.03554
G1 X155.607 Y166.483 E7.58212
;WIDTH:1.03673
G1 X156.005 Y166.034 E7.65853
G1 X156.38 Y165.686 E7.72368
;WIDTH:1.03542
G1 X156.787 Y165.374 E7.7889
;WIDTH:1.03963
G1 X157.226 Y165.104 E7.85472
G1 X157.845 Y164.799 E7.94285
;WIDTH:1.03802
G1 X158.523 Y164.569 E8.03414
G1 X159.001 Y164.459 E8.09668
;WIDTH:1.03721
G1 X159.508 Y164.391 E8.16185
;WIDTH:1.03854
G1 X159.878 Y164.376 E8.20909
G1 X160.677 Y164.422 F9000
;LAYER_CHANGE
;Z:0.95
;HEIGHT:0.3
G1 Z.95 F9000
G1 X159.977 Y165.352
G92 E0
;WIDTH:1.03792
G1 F1298
G1 X160.648 Y165.388 E.08567
G1 X161.421 Y165.564 E.18675
;WIDTH:1.03859
G1 X161.753 Y165.686 E.23188
G1 X162.46 Y166.041 E.33282
;WIDTH:1.03721
G1 X163.01 Y166.445 E.41976
;WIDTH:1.0386
G1 X163.27 Y166.685 E.4649
G1 X163.79 Y167.282 E.56591
;WIDTH:1.03227
G1 X164.207 Y167.992 E.67028
;WIDTH:1.03134
G1 X164.439 Y168.567 E.7488
G1 X164.617 Y169.35 E.85048
;WIDTH:1.03721
G1 X164.658 Y170.021 E.93613
G1 X164.602 Y170.748 E1.02903
;WIDTH:1.03739
G1 X164.434 Y171.425 E1.11791
;WIDTH:1.0386
G1 X164.314 Y171.753 E1.16247
G1 X163.961 Y172.461 E1.26341
;WIDTH:1.03227
G1 X163.465 Y173.119 E1.36786
;WIDTH:1.0435
G1 X162.98 Y173.568 E1.45261
G1 X162.641 Y173.845 E1.50875
;WIDTH:1.0317
G1 X162.008 Y174.207 E1.60113
;WIDTH:1.04347
G1 X161.39 Y174.436 E1.68564
G1 X160.968 Y174.562 E1.74211
;WIDTH:1.03679
G1 X160.375 Y174.643 E1.81833
;WIDTH:1.0435
G1 X159.584 Y174.63 E1.91977
G1 X159.149 Y174.586 E1.97583
;WIDTH:1.0317
G1 X158.445 Y174.395 E2.06824
;WIDTH:1.0435
G1 X157.844 Y174.118 E2.1531
G1 X157.458 Y173.911 E2.20926
;WIDTH:1.0317
G1 X156.881 Y173.465 E2.30165
;WIDTH:1.03721
G1 X156.418 Y172.978 E2.38726
;WIDTH:1.0386
G1 X156.204 Y172.697 E2.43232
G1 X155.798 Y172.017 E2.53337
;WIDTH:1.0435
G1 X155.564 Y171.388 E2.61943
G1 X155.438 Y170.968 E2.67566
;WIDTH:1.03138
G1 X155.344 Y170.245 E2.76799
;WIDTH:1.0435
G1 X155.37 Y169.584 E2.85281
G1 X155.414 Y169.149 E2.90887
;WIDTH:1.0317
G1 X155.605 Y168.445 E3.00128
;WIDTH:1.04338
G1 X155.877 Y167.854 E3.08469
G1 X156.179 Y167.337 E3.16146
;WIDTH:1.03721
G1 X156.533 Y166.88 E3.23511
;WIDTH:1.0435
G1 X157.02 Y166.432 E3.31996
G1 X157.359 Y166.155 E3.3761
;WIDTH:1.03138
G1 X157.992 Y165.792 E3.46851
;WIDTH:1.04338
G1 X158.602 Y165.567 E3.55187
G1 X159.179 Y165.416 E3.62834
;WIDTH:1.03752
G1 X159.786 Y165.342 E3.70627
;WIDTH:1.03792
G1 X159.857 Y165.346 E3.71534
G1 X160.654 Y165.407 F9000
G1 X159.998 Y164.374
;WIDTH:1.03843
G1 F1298
G1 X160.061 Y164.372 E3.72338
;WIDTH:1.03777
G1 X161.06 Y164.472 E3.85137
;WIDTH:1.03721
G1 X161.673 Y164.624 E3.93183
;WIDTH:1.03859
G1 X162.155 Y164.798 E3.99721
;WIDTH:1.04338
G1 X162.616 Y165.02 E4.06281
G1 X163.255 Y165.407 E4.15859
;WIDTH:1.03721
G1 X163.88 Y165.922 E4.26177
;WIDTH:1.0435
G1 X164.297 Y166.367 E4.33997
G1 X164.615 Y166.769 E4.4057
;WIDTH:1.03941
G1 X164.884 Y167.204 E4.47101
G1 X165.205 Y167.85 E4.56312
;WIDTH:1.03542
G1 X165.378 Y168.326 E4.62753
;WIDTH:1.039
G1 X165.507 Y168.842 E4.69542
G1 X165.61 Y169.514 E4.78219
;WIDTH:1.03721
G1 X165.63 Y170.021 E4.84683
G1 X165.607 Y170.511 E4.90933
G1 X165.497 Y171.209 E4.99936
G1 X165.253 Y172.024 E5.10775
;WIDTH:1.0435
G1 X165.001 Y172.579 E5.18591
G1 X164.751 Y173.027 E5.25169
;WIDTH:1.03942
G1 X164.452 Y173.443 E5.31711
G1 X164.083 Y173.87 E5.38917
;WIDTH:1.0435
G1 X163.633 Y174.297 E5.46872
G1 X163.231 Y174.615 E5.53445
;WIDTH:1.03941
G1 X162.796 Y174.884 E5.59976
G1 X162.149 Y175.204 E5.69193
;WIDTH:1.04347
G1 X161.672 Y175.373 E5.75682
G1 X161.104 Y175.519 E5.83202
;WIDTH:1.03212
G1 X160.14 Y175.627 E5.95496
;WIDTH:1.0435
G1 X159.531 Y175.607 E6.03309
G1 X159.022 Y175.548 E6.09879
;WIDTH:1.03942
G1 X158.523 Y175.431 E6.16424
G1 X157.987 Y175.253 E6.23636
;WIDTH:1.0435
G1 X157.421 Y175.001 E6.3158
G1 X156.973 Y174.751 E6.38158
;WIDTH:1.03941
G1 X156.557 Y174.452 E6.447
G1 X156.145 Y174.098 E6.51636
;WIDTH:1.03721
G1 X155.701 Y173.635 E6.59809
;WIDTH:1.0386
G1 X155.388 Y173.229 E6.6635
;WIDTH:1.04339
G1 X155.117 Y172.795 E6.7291
G1 X154.808 Y172.173 E6.81815
;WIDTH:1.0435
G1 X154.633 Y171.692 E6.88378
G1 X154.496 Y171.199 E6.94939
;WIDTH:1.03901
G1 X154.413 Y170.674 E7.01723
G1 X154.376 Y170.149 E7.08441
;WIDTH:1.0435
G1 X154.393 Y169.531 E7.16368
G1 X154.452 Y169.022 E7.22938
;WIDTH:1.03942
G1 X154.569 Y168.523 E7.29483
G1 X154.801 Y167.84 E7.38694
;WIDTH:1.04338
G1 X155.02 Y167.384 E7.4518
G1 X155.407 Y166.745 E7.54758
;WIDTH:1.0386
G1 X156.004 Y166.035 E7.66593
;WIDTH:1.0435
G1 X156.383 Y165.689 E7.73173
G1 X156.787 Y165.374 E7.79742
;WIDTH:1.039
G1 X157.24 Y165.096 E7.86526
G1 X157.85 Y164.797 E7.95197
;WIDTH:1.04338
G1 X158.328 Y164.628 E8.01697
G1 X159.028 Y164.454 E8.10945
;WIDTH:1.03843
G1 X159.53 Y164.39 E8.17401
G1 X159.878 Y164.379 E8.21842
G1 X160.676 Y164.437 F9000
M106 S252.45
;LAYER_CHANGE
;Z:1.25
;HEIGHT:0.3
G1 Z1.25 F9000
G1 X159.977 Y165.351
G92 E0
;WIDTH:1.03789
G1 F1298
G1 X160.647 Y165.388 E.08555
G1 X161.421 Y165.564 E.18675
;WIDTH:1.03859
G1 X161.753 Y165.686 E.23188
G1 X162.461 Y166.039 E.33282
;WIDTH:1.03885
G1 X162.867 Y166.334 E.39687
G1 X163.276 Y166.692 E.46624
;WIDTH:1.0387
G1 X163.79 Y167.282 E.56608
;WIDTH:1.03885
G1 X164.052 Y167.71 E.63012
G1 X164.293 Y168.197 E.69946
;WIDTH:1.03869
G1 X164.541 Y168.939 E.79929
;WIDTH:1.03227
G1 X164.656 Y169.755 E.90375
;WIDTH:1.0435
G1 X164.63 Y170.416 E.98857
G1 X164.586 Y170.851 E1.04463
;WIDTH:1.0317
G1 X164.395 Y171.555 E1.13704
;WIDTH:1.03134
