; generated by PrusaSlicer 2.8.0 on 2024-08-23 at 05:36:36 UTC

; 

; external perimeters extrusion width = 0.90mm
; perimeters extrusion width = 0.90mm
; infill extrusion width = 0.90mm
; solid infill extrusion width = 0.90mm
; top infill extrusion width = 0.80mm

M190 S60 ; set bed temperature and wait for it to be reached
;TYPE:Custom
; Start GCODE (begins)

G28 ; home all axes
G1 Z5 F5000 ; lift nozzle

M109 S200 ; Do this now so we can purge

; Extrude a small amount of waste material
G92 E0
G1 E20 F200
G92 E0

; Start GCODE (ends)
G21 ; set units to millimeters
G90 ; use absolute coordinates
M82 ; use absolute distances for extrusion
G92 E0
; Filament gcode
M107
;LAYER_CHANGE
;Z:0.35
;HEIGHT:0.35
G1 E-.3 F2400
G1 Z.35 F9000
G1 X151.411 Y160.834
G1 E.1 F2400
G92 E0
;TYPE:Skirt/Brim
;WIDTH:0.9
G1 F1200
G1 X152.449 Y159.961 E.17094
G1 X154.324 Y158.794 E.44929
G1 X155.572 Y158.244 E.62118
G1 X156.884 Y157.831 E.79454
G1 X157.957 Y157.606 E.93272
G1 X159.303 Y157.458 E1.10338
G1 X161.501 Y157.528 E1.38054
G1 X162.855 Y157.767 E1.55383
G1 X163.911 Y158.062 E1.69202
G1 X165.182 Y158.557 E1.86393
G1 X166.385 Y159.182 E2.03479
G1 X168.181 Y160.468 E2.31319
G1 X169.166 Y161.411 E2.48505
G1 X170.05 Y162.464 E2.65833
G1 X170.669 Y163.369 E2.79652
G1 X171.325 Y164.565 E2.96844
G1 X171.756 Y165.572 E3.10649
G1 X172.169 Y166.884 E3.27985
G1 X172.525 Y169.045 E3.55588
G1 X172.555 Y170.408 E3.72771
G1 X172.472 Y171.501 E3.86586
G1 X172.233 Y172.855 E4.03915
G1 X171.938 Y173.911 E4.17734
G1 X171.443 Y175.182 E4.34925
G1 X170.948 Y176.159 E4.48729
G1 X170.209 Y177.319 E4.66064
G1 X169.532 Y178.181 E4.79878
G1 X168.589 Y179.166 E4.97064
G1 X167.758 Y179.88 E5.10872
G1 X166.631 Y180.669 E5.28211
G1 X165.676 Y181.206 E5.4202
G1 X164.428 Y181.756 E5.59209
G1 X163.116 Y182.169 E5.76545
G1 X160.955 Y182.525 E6.04148
G1 X159.592 Y182.555 E6.21331
G1 X158.499 Y182.472 E6.35146
G1 X157.145 Y182.233 E6.52475
G1 X156.089 Y181.937 E6.66297
G1 X154.818 Y181.443 E6.83483
G1 X153.841 Y180.948 E6.97287
G1 X152.681 Y180.209 E7.14622
G1 X151.819 Y179.532 E7.28436
G1 X150.84 Y178.596 E7.45507
G1 X149.961 Y177.551 E7.62717
G1 X149.331 Y176.631 E7.7677
G1 X148.679 Y175.444 E7.93839
G1 X147.903 Y173.386 E8.21559
G1 X147.606 Y172.043 E8.38894
G1 X147.458 Y170.697 E8.5596
G1 X147.445 Y169.592 E8.69888
G1 X147.562 Y168.24 E8.86991
G1 X148.063 Y166.089 E9.14827
G1 X148.557 Y164.818 E9.32013
G1 X149.182 Y163.615 E9.49099
G1 X150.468 Y161.819 E9.76939
G1 X151.328 Y160.92 E9.92619
G1 E9.62619 F2400
G92 E0
G1 X151.328 Y160.92 F9000
G92 E0
G1 X159.977 Y165.334
G1 E.4 F2400
;TYPE:External perimeter
;WIDTH:1.04211
G1 F1200
G1 X160.64 Y165.383 E.49822
G1 X161.373 Y165.539 E.60894
;WIDTH:1.03706
G1 X162.118 Y165.841 E.72709
;WIDTH:1.0422
G1 X162.692 Y166.196 E.82681
;WIDTH:1.04398
G1 X162.971 Y166.411 E.87895
G1 X163.541 Y166.961 E.9962
;WIDTH:1.04411
G1 X164.045 Y167.689 E1.12729
;WIDTH:1.04479
G1 X164.306 Y168.228 E1.21602
G1 X164.461 Y168.627 E1.27944
;WIDTH:1.03669
G1 X164.589 Y169.152 E1.35883
;WIDTH:1.03571
G1 X164.666 Y169.958 E1.47766
;WIDTH:1.03556
G1 X164.6 Y170.776 E1.59809
;WIDTH:1.04878
G1 X164.433 Y171.408 E1.69534
G1 X164.3 Y171.816 E1.75918
;WIDTH:1.0367
G1 X164.056 Y172.305 E1.83947
;WIDTH:1.03706
G1 X163.602 Y172.968 E1.95757
;WIDTH:1.03725
G1 X163.026 Y173.553 E2.07826
;WIDTH:1.04407
G1 X162.312 Y174.045 E2.20663
;WIDTH:1.04479
G1 X161.772 Y174.306 E2.29549
G1 X161.373 Y174.461 E2.35891
;WIDTH:1.03669
G1 X160.848 Y174.589 E2.4383
;WIDTH:1.03571
G1 X160.042 Y174.666 E2.55713
;WIDTH:1.0356
G1 X159.429 Y174.632 E2.64723
G1 X158.637 Y174.463 E2.76607
;WIDTH:1.03706
G1 X157.882 Y174.159 E2.88569
;WIDTH:1.04211
G1 X157.3 Y173.8 E2.98672
;WIDTH:1.04888
G1 X156.704 Y173.281 E3.1043
G1 X156.398 Y172.968 E3.16943
;WIDTH:1.03699
G1 X155.981 Y172.368 E3.27681
;WIDTH:1.04888
G1 X155.699 Y171.77 E3.37518
G1 X155.539 Y171.373 E3.43886
;WIDTH:1.03669
G1 X155.411 Y170.848 E3.51825
;WIDTH:1.0356
G1 X155.334 Y170.042 E3.63707
;WIDTH:1.04852
G1 X155.391 Y169.38 E3.73589
G1 X155.453 Y168.949 E3.80065
;WIDTH:1.03706
G1 X155.673 Y168.252 E3.90807
;WIDTH:1.04411
G1 X156.082 Y167.48 E4.03742
;WIDTH:1.04479
G1 X156.44 Y166.998 E4.12637
G1 X156.685 Y166.714 E4.18194
;WIDTH:1.0366
G1 X157.134 Y166.317 E4.26999
;WIDTH:1.0423
G1 X157.686 Y165.955 E4.36754
;WIDTH:1.04479
G1 X158.228 Y165.694 E4.45667
G1 X158.637 Y165.537 E4.52158
;WIDTH:1.04211
G1 X159.222 Y165.404 E4.61022
G1 X159.857 Y165.343 E4.70447
G1 X160.655 Y165.403 F9000
G1 X159.998 Y164.379
;WIDTH:1.04085
G1 F1200
G1 X160.108 Y164.376 E4.72071
;WIDTH:1.04218
G1 X160.714 Y164.419 E4.81048
G1 X161.198 Y164.501 E4.88301
;WIDTH:1.04091
G1 X161.693 Y164.63 E4.95849
;WIDTH:1.04503
G1 X162.173 Y164.81 E5.03446
G1 X162.699 Y165.065 E5.12109
;WIDTH:1.03737
G1 X163.508 Y165.601 E5.26377
;WIDTH:1.04887
G1 X163.962 Y166.008 E5.35448
G1 X164.314 Y166.38 E5.43068
G1 X164.619 Y166.792 E5.50695
G1 X165.028 Y167.488 E5.62706
;WIDTH:1.03705
G1 X165.363 Y168.287 E5.7544
;WIDTH:1.04081
G1 X165.496 Y168.782 E5.83003
;WIDTH:1.04239
G1 X165.581 Y169.286 E5.90557
G1 X165.63 Y170.032 E6.01606
;WIDTH:1.04495
G1 X165.602 Y170.511 E6.08716
G1 X165.493 Y171.224 E6.19404
;WIDTH:1.04878
G1 X165.358 Y171.711 E6.26922
G1 X165.167 Y172.231 E6.35163
;WIDTH:1.0366
G1 X164.82 Y172.891 E6.46117
G1 X164.352 Y173.57 E6.58232
;WIDTH:1.0452
G1 X163.993 Y173.963 E6.66121
G1 X163.619 Y174.314 E6.73723
;WIDTH:1.04869
G1 X163.209 Y174.619 E6.81324
G1 X162.512 Y175.028 E6.93345
;WIDTH:1.03705
G1 X161.713 Y175.363 E7.06079
;WIDTH:1.04081
G1 X161.218 Y175.496 E7.13642
;WIDTH:1.04239
G1 X160.714 Y175.581 E7.21196
G1 X160.021 Y175.629 E7.31462
;WIDTH:1.0408
G1 X159.51 Y175.608 E7.39008
;WIDTH:1.04248
G1 X158.994 Y175.536 E7.46709
G1 X158.302 Y175.369 E7.57231
;WIDTH:1.04502
G1 X157.827 Y175.19 E7.64753
G1 X157.301 Y174.935 E7.73416
;WIDTH:1.03746
G1 X156.492 Y174.399 E7.87685
;WIDTH:1.04888
G1 X156.038 Y173.992 E7.96757
G1 X155.687 Y173.62 E8.04366
;WIDTH:1.0447
G1 X155.375 Y173.202 E8.12093
G1 X154.995 Y172.57 E8.23018
;WIDTH:1.04409
G1 X154.637 Y171.713 E8.36768
;WIDTH:1.0408
G1 X154.504 Y171.219 E8.44316
;WIDTH:1.04248
G1 X154.418 Y170.705 E8.52019
G1 X154.378 Y169.864 E8.64463
;WIDTH:1.03655
G1 X154.491 Y168.845 E8.79524
;WIDTH:1.04503
G1 X154.628 Y168.328 E8.8745
G1 X154.798 Y167.845 E8.95038
;WIDTH:1.04887
G1 X155.021 Y167.384 E9.02657
G1 X155.45 Y166.7 E9.14669
;WIDTH:1.03705
G1 X156.004 Y166.034 E9.27401
;WIDTH:1.04091
G1 X156.382 Y165.688 E9.34963
;WIDTH:1.04256
G1 X156.79 Y165.378 E9.42537
G1 X157.339 Y165.046 E9.52021
;WIDTH:1.04479
G1 X157.877 Y164.79 E9.60848
G1 X158.419 Y164.602 E9.69347
;WIDTH:1.04211
G1 X159.028 Y164.456 E9.786
G1 X159.53 Y164.391 E9.86079
;WIDTH:1.04085
G1 X159.878 Y164.382 E9.91216
G1 X160.677 Y164.426 F9000
;LAYER_CHANGE
;Z:0.65
;HEIGHT:0.3
G1 Z.65 F9000
G1 X159.977 Y165.345
G92 E0
;WIDTH:1.03854
G1 F1298
G1 X159.982 Y165.344 E.00065
G1 X160.65 Y165.388 E.08606
;WIDTH:1.03806
G1 X161.421 Y165.564 E.1869
;WIDTH:1.03721
G1 X162.126 Y165.848 E.28373
;WIDTH:1.03701
G1 X162.678 Y166.189 E.36638
;WIDTH:1.03721
G1 X163.309 Y166.721 E.47153
G1 X163.803 Y167.298 E.5683
;WIDTH:1.03134
G1 X164.208 Y167.992 E.67005
;WIDTH:1.03802
G1 X164.509 Y168.836 E.78431
G1 X164.642 Y169.615 E.88508
;WIDTH:1.0386
G1 X164.657 Y169.968 E.93016
G1 X164.599 Y170.758 E1.03122
;WIDTH:1.03721
G1 X164.436 Y171.421 E1.1182
;WIDTH:1.0386
G1 X164.314 Y171.753 E1.16333
G1 X163.959 Y172.46 E1.26427
;WIDTH:1.03714
G1 X163.554 Y173.012 E1.35149
;WIDTH:1.03859
G1 X163.315 Y173.27 E1.39636
G1 X162.718 Y173.79 E1.49737
;WIDTH:1.03701
G1 X162.144 Y174.135 E1.58267
;WIDTH:1.03861
G1 X161.81 Y174.29 E1.62965
G1 X161.061 Y174.541 E1.73044
;WIDTH:1.03227
G1 X160.245 Y174.655 E1.83488
;WIDTH:1.03721
G1 X159.573 Y174.638 E1.92052
G1 X158.824 Y174.514 E2.01724
;WIDTH:1.03673
G1 X158.188 Y174.291 E2.10306
;WIDTH:1.0435
G1 X157.494 Y173.915 E2.20427
G1 X157.128 Y173.674 E2.26046
;WIDTH:1.03673
G1 X156.683 Y173.271 E2.33691
G1 X156.209 Y172.717 E2.42975
;WIDTH:1.03116
G1 X155.793 Y172.009 E2.53372
;WIDTH:1.0435
G1 X155.564 Y171.388 E2.61859
G1 X155.437 Y170.968 E2.67485
;WIDTH:1.0315
G1 X155.344 Y170.245 E2.76718
;WIDTH:1.03134
G1 X155.35 Y169.625 E2.8457
;WIDTH:1.0317
G1 X155.484 Y168.834 E2.94733
;WIDTH:1.03673
G1 X155.709 Y168.188 E3.03444
G1 X156.051 Y167.522 E3.12978
;WIDTH:1.03715
G1 X156.533 Y166.88 E3.23205
;WIDTH:1.0435
G1 X157.02 Y166.432 E3.3169
G1 X157.359 Y166.155 E3.37304
;WIDTH:1.0315
G1 X157.992 Y165.792 E3.46546
;WIDTH:1.03802
G1 X158.836 Y165.491 E3.57972
G1 X159.614 Y165.358 E3.68036
;WIDTH:1.03854
G1 X159.857 Y165.349 E3.71138
G1 X160.655 Y165.408 F9000
G1 X159.998 Y164.371
G1 F1298
G1 X160.02 Y164.371 E3.71419
G1 X160.714 Y164.417 E3.80292
;WIDTH:1.03806
G1 X161.198 Y164.499 E3.86552
;WIDTH:1.03721
G1 X161.693 Y164.63 E3.93076
G1 X162.174 Y164.806 E3.99601
;WIDTH:1.03554
G1 X162.7 Y165.062 E4.07041
;WIDTH:1.0308
G1 X163.492 Y165.585 E4.19053
;WIDTH:1.03721
G1 X163.966 Y166.004 E4.27113
G1 X164.314 Y166.38 E4.3364
;WIDTH:1.03554
G1 X164.626 Y166.786 E4.40152
;WIDTH:1.03916
G1 X164.897 Y167.226 E4.46749
G1 X165.201 Y167.845 E4.55553
;WIDTH:1.03802
G1 X165.431 Y168.523 E4.64682
G1 X165.541 Y169.001 E4.70936
;WIDTH:1.03721
G1 X165.609 Y169.509 E4.77466
;WIDTH:1.0386
G1 X165.629 Y170.021 E4.84003
;WIDTH:1.04338
G1 X165.603 Y170.511 E4.90294
G1 X165.527 Y171.049 E4.9726
;WIDTH:1.03721
G1 X165.376 Y171.673 E5.05439
;WIDTH:1.0386
G1 X165.202 Y172.155 E5.11977
;WIDTH:1.04339
G1 X164.981 Y172.616 E5.18532
G1 X164.637 Y173.191 E5.27123
;WIDTH:1.03714
G1 X164.326 Y173.603 E5.33699
;WIDTH:1.03859
G1 X163.981 Y173.981 E5.40228
;WIDTH:1.0435
G1 X163.6 Y174.324 E5.46802
G1 X163.133 Y174.675 E5.54293
;WIDTH:1.03186
G1 X162.284 Y175.144 E5.66582
;WIDTH:1.0435
G1 X161.712 Y175.36 E5.74422
G1 X161.219 Y175.5 E5.80994
;WIDTH:1.03941
G1 X160.714 Y175.582 E5.87527
G1 X160.021 Y175.629 E5.96396
;WIDTH:1.03721
G1 X159.509 Y175.609 E6.02924
G1 X159.001 Y175.542 E6.09452
;WIDTH:1.03554
G1 X158.432 Y175.405 E6.16896
;WIDTH:1.03673
G1 X157.865 Y175.209 E6.24535
;WIDTH:1.0386
G1 X157.4 Y174.994 E6.31071
;WIDTH:1.0435
G1 X156.959 Y174.734 E6.37635
G1 X156.483 Y174.393 E6.45143
;WIDTH:1.03673
G1 X156.034 Y173.995 E6.52784
G1 X155.7 Y173.636 E6.59028
;WIDTH:1.03542
G1 X155.385 Y173.231 E6.65553
;WIDTH:1.03991
G1 X155.116 Y172.796 E6.72087
G1 X154.808 Y172.173 E6.80966
;WIDTH:1.0435
G1 X154.633 Y171.692 E6.87529
G1 X154.496 Y171.199 E6.9409
;WIDTH:1.03916
G1 X154.415 Y170.689 E7.00682
G1 X154.37 Y170.021 E7.09229
;WIDTH:1.03543
G1 X154.388 Y169.509 E7.15744
;WIDTH:1.03966
G1 X154.46 Y169.002 E7.22285
G1 X154.595 Y168.432 E7.29767
;WIDTH:1.03673
G1 X154.8 Y167.84 E7.37745
G1 X155.016 Y167.382 E7.44193
;WIDTH:1.03642
G1 X155.392 Y166.766 E7.5338
;WIDTH:1.0386
G1 X156.004 Y166.035 E7.65544
;WIDTH:1.0435
G1 X156.383 Y165.689 E7.72124
G1 X156.787 Y165.374 E7.78693
;WIDTH:1.03916
G1 X157.226 Y165.103 E7.85279
G1 X157.845 Y164.799 E7.94083
;WIDTH:1.03802
G1 X158.523 Y164.569 E8.03212
G1 X159.001 Y164.459 E8.09466
;WIDTH:1.03721
G1 X159.508 Y164.391 E8.15983
;WIDTH:1.03854
G1 X159.878 Y164.376 E8.20707
G1 X160.677 Y164.424 F9000
;LAYER_CHANGE
;Z:0.95
;HEIGHT:0.3
G1 Z.95 F9000
G1 X159.977 Y165.356
G92 E0
;WIDTH:1.04254
G1 F1298
G1 X160.039 Y165.352 E.00796
G1 X160.597 Y165.381 E.07954
;WIDTH:1.03721
G1 X161.167 Y165.484 E.15334
;WIDTH:1.03133
G1 X161.756 Y165.678 E.23187
G1 X162.631 Y166.15 E.35777
;WIDTH:1.0317
G1 X163.268 Y166.672 E.4621
G1 X163.797 Y167.291 E.56525
G1 X164.287 Y168.167 E.6924
G1 X164.544 Y168.95 E.7968
G1 X164.662 Y169.947 E.92398
;WIDTH:1.03053
G1 X164.593 Y170.799 E1.03213
;WIDTH:1.03105
G1 X164.458 Y171.373 E1.10678
;WIDTH:1.0317
G1 X164.156 Y172.117 E1.2085
G1 X163.839 Y172.649 E1.28695
;WIDTH:1.03027
G1 X163.327 Y173.268 E1.38856
;WIDTH:1.03861
G1 X162.645 Y173.833 E1.50156
G1 X162.357 Y174.018 E1.54523
;WIDTH:1.03673
G1 X161.823 Y174.292 E1.62166
;WIDTH:1.03704
G1 X160.949 Y174.56 E1.73811
;WIDTH:1.03944
G1 X160.396 Y174.637 E1.80941
G1 X159.947 Y174.663 E1.86684
;WIDTH:1.03861
G1 X159.16 Y174.58 E1.96781
G1 X158.825 Y174.508 E2.01153
;WIDTH:1.03673
G1 X158.254 Y174.324 E2.08792
;WIDTH:1.03861
G1 X157.471 Y173.91 E2.20093
G1 X157.291 Y173.796 E2.22811
;WIDTH:1.03108
G1 X156.732 Y173.327 E2.32049
;WIDTH:1.03028
G1 X156.319 Y172.865 E2.39888
;WIDTH:1.03721
G1 X155.961 Y172.32 E2.48196
;WIDTH:1.03942
G1 X155.696 Y171.771 E2.5598
G1 X155.537 Y171.352 E2.61703
;WIDTH:1.03704
G1 X155.374 Y170.548 E2.72153
;WIDTH:1.03944
G1 X155.346 Y169.99 E2.79287
G1 X155.356 Y169.562 E2.84754
;WIDTH:1.03088
G1 X155.439 Y169.022 E2.91669
;WIDTH:1.0317
G1 X155.675 Y168.254 E3.01847
G1 X156.063 Y167.504 E3.12544
;WIDTH:1.04293
G1 X156.446 Y167.003 E3.20626
G1 X156.733 Y166.671 E3.2625
;WIDTH:1.03257
G1 X157.316 Y166.186 E3.35866
G1 X157.82 Y165.878 E3.43355
;WIDTH:1.0317
G1 X158.557 Y165.565 E3.53499
;WIDTH:1.03673
G1 X159.223 Y165.407 E3.62215
;WIDTH:1.04254
G1 X159.857 Y165.364 E3.70355
G1 X160.656 Y165.407 F9000
G1 X159.998 Y164.377
G1 F1298
G1 X160.061 Y164.375 E3.71162
G1 X160.766 Y164.423 E3.80214
;WIDTH:1.03721
G1 X161.673 Y164.623 E3.92047
;WIDTH:1.03554
G1 X162.156 Y164.795 E3.98568
;WIDTH:1.04318
G1 X162.616 Y165.019 E4.05126
G1 X163.312 Y165.449 E4.15613
;WIDTH:1.03124
G1 X163.937 Y165.973 E4.2594
;WIDTH:1.03965
G1 X164.298 Y166.366 E4.32756
G1 X164.615 Y166.769 E4.39305
;WIDTH:1.04313
G1 X164.883 Y167.205 E4.45865
G1 X165.163 Y167.759 E4.53822
;WIDTH:1.03965
G1 X165.362 Y168.287 E4.61029
G1 X165.5 Y168.781 E4.6758
;WIDTH:1.04313
G1 X165.581 Y169.286 E4.74136
G1 X165.632 Y170.032 E4.8372
;WIDTH:1.04018
G1 X165.604 Y170.511 E4.89852
G1 X165.499 Y171.209 E4.98872
;WIDTH:1.03407
G1 X165.337 Y171.793 E5.06568
;WIDTH:1.0317
G1 X165.006 Y172.582 E5.17407
;WIDTH:1.03554
G1 X164.75 Y173.026 E5.23925
;WIDTH:1.03673
G1 X164.453 Y173.443 E5.30444
G1 X164.046 Y173.913 E5.38361
;WIDTH:1.04349
G1 X163.633 Y174.297 E5.45592
G1 X163.229 Y174.612 E5.52161
;WIDTH:1.03861
G1 X162.797 Y174.885 E5.58681
;WIDTH:1.03673
G1 X162.151 Y175.207 E5.67872
;WIDTH:1.04341
G1 X161.672 Y175.373 E5.74372
G1 X160.882 Y175.554 E5.84763
;WIDTH:1.03124
G1 X160.063 Y175.631 E5.95179
;WIDTH:1.04349
G1 X159.531 Y175.607 E6.02008
G1 X159.022 Y175.545 E6.08583
;WIDTH:1.03861
G1 X158.523 Y175.432 E6.15111
;WIDTH:1.03673
G1 X157.934 Y175.235 E6.2302
;WIDTH:1.04349
G1 X157.421 Y175.001 E6.3025
G1 X156.975 Y174.748 E6.36825
;WIDTH:1.03861
G1 X156.557 Y174.453 E6.43353
;WIDTH:1.03673
G1 X156.032 Y173.997 E6.52208
;WIDTH:1.03554
G1 X155.686 Y173.62 E6.58716
;WIDTH:1.03721
G1 X155.376 Y173.212 E6.65244
G1 X155.044 Y172.663 E6.73418
;WIDTH:1.03942
G1 X154.809 Y172.173 E6.80357
G1 X154.627 Y171.694 E6.869
;WIDTH:1.04341
G1 X154.502 Y171.197 E6.93471
G1 X154.403 Y170.584 E7.01432
;WIDTH:1.03944
G1 X154.372 Y169.969 E7.09295
G1 X154.402 Y169.416 E7.16367
;WIDTH:1.03124
G1 X154.493 Y168.815 E7.24064
;WIDTH:1.0396
G1 X154.626 Y168.328 E7.30512
G1 X154.795 Y167.844 E7.37059
;WIDTH:1.04018
G1 X155.018 Y167.383 E7.43603
G1 X155.368 Y166.799 E7.52304
;WIDTH:1.04293
G1 X155.676 Y166.399 E7.58774
G1 X156.016 Y166.016 E7.65337
;WIDTH:1.04041
G1 X156.398 Y165.675 E7.71882
G1 X156.869 Y165.322 E7.79406
;WIDTH:1.03071
G1 X157.358 Y165.032 E7.86601
;WIDTH:1.03944
G1 X157.875 Y164.788 E7.93901
G1 X158.419 Y164.599 E8.01255
;WIDTH:1.03673
G1 X159.028 Y164.454 E8.09227
;WIDTH:1.03846
G1 X159.53 Y164.39 E8.15683
;WIDTH:1.04254
G1 X159.878 Y164.38 E8.20143
G1 X160.677 Y164.423 F9000
M106 S252.45
;LAYER_CHANGE
;Z:1.25
;HEIGHT:0.3
G1 Z1.25 F9000
G1 X159.977 Y165.358
G92 E0
;WIDTH:1.03842
G1 F1299
G1 X160.354 Y165.352 E.0481
;WIDTH:1.03721
G1 X161.029 Y165.457 E.13513
G1 X161.756 Y165.678 E.23194
;WIDTH:1.03162
G1 X162.631 Y166.15 E.35787
G1 X163.268 Y166.672 E.46219
G1 X163.681 Y167.135 E.54078
;WIDTH:1.03721
G1 X164.039 Y167.68 E.62385
;WIDTH:1.03941
G1 X164.304 Y168.229 E.70169
G1 X164.458 Y168.626 E.75606
;WIDTH:1.03096
G1 X164.579 Y169.118 E.8202
;WIDTH:1.03182
G1 X164.664 Y169.955 E.92679
;WIDTH:1.03289
G1 X164.593 Y170.811 E1.03574
G1 X164.456 Y171.373 E1.10911
G1 X164.137 Y172.154 E1.21612
G1 X163.838 Y172.651 E1.28969
