; generated by PrusaSlicer 2.8.0 on 2024-08-25 at 09:12:24 UTC

; 

; external perimeters extrusion width = 0.90mm
; perimeters extrusion width = 0.90mm
; infill extrusion width = 0.90mm
; solid infill extrusion width = 0.90mm
; top infill extrusion width = 0.80mm

M190 S60 ; set bed temperature and wait for it to be reached
;TYPE:Custom
; Start GCODE (begins)

G28 ; home all axes
G1 Z5 F5000 ; lift nozzle

M109 S200 ; Do this now so we can purge

; Extrude a small amount of waste material
G92 E0
G1 E20 F200
G92 E0

; Start GCODE (ends)
G21 ; set units to millimeters
G90 ; use absolute coordinates
M82 ; use absolute distances for extrusion
G92 E0
; Filament gcode
M107
;LAYER_CHANGE
;Z:0.35
;HEIGHT:0.35
G1 E-.3 F2400
G1 Z.35 F9000
G1 X140.901 Y150.249
G1 E.1 F2400
G92 E0
;TYPE:Skirt/Brim
;WIDTH:0.9
G1 F1200
G1 X142.609 Y148.794 E.28278
G1 X147.409 Y145.654 E1.00569
G1 X148.344 Y145.148 E1.13968
G1 X150.432 Y144.327 E1.42245
G1 X155.992 Y142.915 E2.14544
G1 X157.04 Y142.74 E2.27935
G1 X159.281 Y142.641 E2.56207
G1 X164.998 Y143.112 E3.28505
G1 X166.047 Y143.286 E3.41907
G1 X168.199 Y143.921 E3.70186
G1 X173.453 Y146.222 E4.42476
G1 X174.388 Y146.727 E4.55869
G1 X176.238 Y148.04 E4.84461
G1 X180.443 Y151.911 E5.56495
G1 X181.16 Y152.69 E5.69839
G1 X182.468 Y154.513 E5.98117
G1 X185.202 Y159.556 E6.70415
G1 X186.015 Y161.655 E6.98785
G1 X186.275 Y162.678 E7.12088
G1 X187.222 Y168.335 E7.84377
G1 X187.31 Y169.394 E7.9777
G1 X187.223 Y171.661 E8.26363
G1 X186.282 Y177.299 E8.98404
G1 X186.022 Y178.325 E9.11744
G1 X185.204 Y180.441 E9.40336
G1 X182.483 Y185.467 E10.12368
G1 X181.904 Y186.354 E10.25718
G1 X180.443 Y188.089 E10.54305
G1 X176.238 Y191.96 E11.26339
G1 X175.402 Y192.61 E11.39685
G1 X173.478 Y193.764 E11.67961
G1 X168.226 Y196.071 E12.40258
G1 X167.221 Y196.417 E12.53654
G1 X165.027 Y196.883 E12.81923
G1 X159.31 Y197.36 E13.54227
G1 X157.04 Y197.26 E13.82864
G1 X155.996 Y197.086 E13.96203
G1 X150.455 Y195.683 E14.68242
G1 X148.344 Y194.852 E14.96835
G1 X147.413 Y194.348 E15.10178
G1 X142.628 Y191.222 E15.82214
G1 X141.792 Y190.572 E15.9556
G1 X140.202 Y188.99 E16.23829
G1 X136.676 Y184.465 E16.96129
G1 X136.094 Y183.575 E17.09531
G1 X135.104 Y181.563 E17.37793
G1 X133.238 Y176.138 E18.10098
G1 X132.976 Y175.108 E18.23493
G1 X132.693 Y172.883 E18.51761
G1 X132.69 Y167.146 E19.24067
G1 X132.777 Y166.087 E19.37459
G1 X133.232 Y163.89 E19.65736
G1 X135.091 Y158.463 E20.38036
G1 X136.084 Y156.443 E20.66405
G1 X136.661 Y155.56 E20.79699
G1 X140.181 Y151.031 E21.51993
G1 X140.82 Y150.337 E21.63883
G1 E21.33883 F2400
G92 E0
G1 X140.82 Y150.337 F9000
G92 E0
G1 X159.462 Y158.771
G1 E.4 F2400
;TYPE:Perimeter
;WIDTH:0.9
G1 F1200
G1 X159.791 Y158.753 E.44153
G1 X160.793 Y158.787 E.56789
G1 X161.771 Y158.907 E.69208
G1 X163.187 Y159.243 E.8755
G1 X164.129 Y159.574 E1.00134
G1 X165.046 Y159.995 E1.12851
G1 X166.1 Y160.622 E1.28308
G1 X166.694 Y161.039 E1.37455
G1 X167.206 Y161.441 E1.45659
G1 X167.8 Y161.986 E1.55819
G1 X168.746 Y163.048 E1.73744
G1 X169.261 Y163.76 E1.84819
G1 X169.842 Y164.727 E1.99037
G1 X170.264 Y165.613 E2.11406
G1 X170.551 Y166.379 E2.21716
G1 X170.769 Y167.108 E2.31306
G1 X170.911 Y167.672 E2.38636
G1 X171.098 Y168.886 E2.54117
G1 X171.155 Y169.91 E2.67043
G1 X171.122 Y170.833 E2.78683
G1 X170.999 Y171.865 E2.91782
G1 X170.795 Y172.824 E3.04139
G1 X170.348 Y174.179 E3.22122
G1 X170.244 Y174.428 E3.25523
G1 X169.713 Y175.506 E3.40668
G1 X169.223 Y176.298 E3.52406
G1 X168.771 Y176.914 E3.62036
G1 X168.432 Y177.334 E3.68839
G1 X167.582 Y178.219 E3.84304
G1 X166.824 Y178.87 E3.96897
G1 X166.026 Y179.438 E4.09242
G1 X165.358 Y179.833 E4.19023
G1 X164.294 Y180.357 E4.33971
G1 X163.381 Y180.698 E4.46254
G1 X162.293 Y180.993 E4.60462
G1 X161.019 Y181.191 E4.76711
G1 X159.997 Y181.248 E4.89612
G1 X158.4 Y181.148 E5.09779
G1 X157.559 Y181 E5.20541
G1 X156.61 Y180.754 E5.32897
G1 X155.58 Y180.384 E5.46691
G1 X154.205 Y179.696 E5.66069
G1 X153.529 Y179.265 E5.76173
G1 X152.868 Y178.768 E5.86596
G1 X151.915 Y177.917 E6.02699
G1 X151.067 Y176.952 E6.1889
G1 X150.469 Y176.119 E6.31814
G1 X149.993 Y175.312 E6.43622
G1 X149.466 Y174.179 E6.59371
G1 X149.079 Y173.04 E6.74532
G1 X148.85 Y172.067 E6.8713
G1 X148.721 Y171.155 E6.98739
G1 X148.659 Y170.09 E7.12184
G1 X148.694 Y169.109 E7.24556
G1 X148.819 Y168.107 E7.37282
G1 X149.142 Y166.745 E7.54924
G1 X149.481 Y165.779 E7.67827
G1 X150.052 Y164.593 E7.84417
G1 X150.42 Y163.97 E7.93536
G1 X150.745 Y163.475 E8.00999
G1 X151.233 Y162.839 E8.11102
G1 X152.21 Y161.8 E8.29077
G1 X152.769 Y161.315 E8.38404
G1 X153.787 Y160.562 E8.54363
G1 X154.633 Y160.065 E8.66729
G1 X155.425 Y159.686 E8.77795
G1 X156.61 Y159.246 E8.93726
G1 X157.384 Y159.038 E9.03827
G1 X158.793 Y158.809 E9.21818
G1 X159.342 Y158.778 E9.28748
G1 X159.342 Y158.778 F9000
G1 X159.48 Y159.595
G1 F1200
G1 X159.827 Y159.577 E9.33127
G1 X160.759 Y159.611 E9.44881
G1 X161.664 Y159.725 E9.56377
G1 X162.989 Y160.044 E9.73554
G1 X163.847 Y160.349 E9.85031
G1 X164.696 Y160.742 E9.96822
G1 X165.671 Y161.327 E10.11152
G1 X166.192 Y161.694 E10.19184
G1 X166.648 Y162.05 E10.26475
G1 X167.241 Y162.593 E10.36609
G1 X168.126 Y163.591 E10.5342
G1 X168.585 Y164.234 E10.63377
G1 X169.128 Y165.139 E10.76679
G1 X169.516 Y165.961 E10.88135
G1 X169.776 Y166.661 E10.97546
G1 X170.097 Y167.808 E11.12558
G1 X170.282 Y169.011 E11.27898
G1 X170.33 Y169.946 E11.39698
G1 X170.298 Y170.797 E11.50431
G1 X170.181 Y171.757 E11.6262
G1 X169.989 Y172.646 E11.74083
G1 X169.566 Y173.914 E11.9093
G1 X168.973 Y175.141 E12.08106
G1 X168.527 Y175.854 E12.18705
G1 X168.116 Y176.412 E12.27439
G1 X167.709 Y176.897 E12.35419
G1 X166.987 Y177.647 E12.4854
G1 X166.294 Y178.237 E12.60011
G1 X165.553 Y178.762 E12.71457
G1 X164.946 Y179.118 E12.80326
G1 X163.946 Y179.61 E12.94372
G1 X163.099 Y179.923 E13.05753
G1 X162.124 Y180.186 E13.1848
G1 X160.894 Y180.376 E13.34166
G1 X159.961 Y180.424 E13.45941
G1 X158.467 Y180.324 E13.64813
G1 X157.702 Y180.188 E13.74606
G1 X156.824 Y179.958 E13.86045
G1 X155.968 Y179.651 E13.97506
G1 X154.648 Y179 E14.16056
G1 X153.972 Y178.57 E14.26153
G1 X153.37 Y178.113 E14.35679
G1 X152.48 Y177.312 E14.5077
G1 X151.687 Y176.409 E14.65916
G1 X151.144 Y175.646 E14.77719
G1 X150.708 Y174.899 E14.8862
G1 X150.247 Y173.914 E15.02327
G1 X149.86 Y172.775 E15.17488
G1 X149.656 Y171.888 E15.28959
G1 X149.538 Y171.046 E15.39675
G1 X149.483 Y170.054 E15.52197
G1 X149.518 Y169.145 E15.63662
G1 X149.637 Y168.217 E15.75454
G1 X149.943 Y166.942 E15.9198
G1 X150.256 Y166.061 E16.03764
G1 X150.791 Y164.958 E16.19214
G1 X151.399 Y163.977 E16.3376
G1 X151.892 Y163.334 E16.43972
G1 X152.806 Y162.37 E16.60715
G1 X153.299 Y161.947 E16.68902
G1 X154.26 Y161.238 E16.83953
G1 X155.046 Y160.779 E16.95425
G1 X155.774 Y160.434 E17.05578
G1 X156.417 Y160.186 E17.14264
G1 X157.598 Y159.835 E17.29792
G1 X158.918 Y159.624 E17.4664
G1 X159.36 Y159.601 E17.52218
G1 X159.36 Y159.601 F9000
G1 X159.498 Y160.418
;TYPE:External perimeter
G1 F1200
G1 X159.864 Y160.401 E17.56836
G1 X160.725 Y160.435 E17.67696
G1 X161.556 Y160.543 E17.78257
G1 X162.792 Y160.845 E17.94293
G1 X163.564 Y161.124 E18.04639
G1 X164.346 Y161.489 E18.15516
G1 X165.242 Y162.031 E18.28714
G1 X166.091 Y162.658 E18.42016
G1 X166.683 Y163.2 E18.52132
G1 X167.506 Y164.135 E18.67831
G1 X167.909 Y164.707 E18.7665
G1 X168.413 Y165.551 E18.8904
G1 X168.769 Y166.31 E18.99606
G1 X169.001 Y166.943 E19.08103
G1 X169.284 Y167.949 E19.21274
G1 X169.467 Y169.137 E19.36423
G1 X169.506 Y169.982 E19.47084
G1 X169.474 Y170.761 E19.5691
G1 X169.364 Y171.649 E19.68187
G1 X169.184 Y172.467 E19.78743
G1 X168.785 Y173.649 E19.94466
G1 X168.233 Y174.777 E20.10294
G1 X167.832 Y175.411 E20.19749
G1 X167.462 Y175.91 E20.27578
G1 X167.114 Y176.325 E20.34404
G1 X166.392 Y177.076 E20.47534
G1 X165.765 Y177.605 E20.57873
G1 X165.08 Y178.087 E20.68429
G1 X164.533 Y178.404 E20.76397
G1 X163.597 Y178.862 E20.8953
G1 X162.817 Y179.148 E21.00001
G1 X161.956 Y179.378 E21.11233
G1 X160.769 Y179.56 E21.26368
G1 X159.925 Y179.6 E21.37017
G1 X158.515 Y179.494 E21.54838
G1 X157.846 Y179.376 E21.634
G1 X157.037 Y179.161 E21.7395
G1 X156.25 Y178.876 E21.84499
G1 X155.091 Y178.304 E22.00788
G1 X154.411 Y177.871 E22.10948
G1 X153.872 Y177.459 E22.19498
G1 X153.405 Y177.051 E22.27314
G1 X153.012 Y176.669 E22.34221
G1 X152.307 Y175.865 E22.47698
G1 X151.82 Y175.173 E22.58363
G1 X151.422 Y174.487 E22.68359
G1 X151.028 Y173.648 E22.80041
G1 X150.642 Y172.51 E22.95186
G1 X150.461 Y171.709 E23.05536
G1 X150.356 Y170.937 E23.15355
G1 X150.307 Y170.018 E23.26954
G1 X150.342 Y169.181 E23.37512
G1 X150.455 Y168.326 E23.48382
G1 X150.744 Y167.138 E23.63791
G1 X151.031 Y166.343 E23.74444
G1 X151.531 Y165.323 E23.88761
G1 X151.811 Y164.856 E23.95624
G1 X152.541 Y163.843 E24.11361
G1 X153.402 Y162.941 E24.27077
G1 X153.829 Y162.579 E24.34132
G1 X154.734 Y161.913 E24.48294
G1 X155.458 Y161.493 E24.58843
G1 X156.123 Y161.182 E24.68096
G1 X156.699 Y160.961 E24.75872
G1 X157.811 Y160.632 E24.90487
G1 X159.044 Y160.44 E25.06214
G1 X159.378 Y160.424 E25.10428
G1 X160.178 Y160.419 F9000
G1 E24.80428 F2400
G92 E0
G1 X160.196 Y159.619 F9000
G1 X159.479 Y154.69
G1 X159.41 Y155.493
G1 E.4 F2400
;TYPE:Perimeter
G1 F1200
G1 X159.879 Y155.591 E.46039
G1 X161.308 Y155.709 E.64111
G1 X162.421 Y155.798 E.78183
G1 X163.051 Y155.717 E.86188
G1 X163.442 Y155.558 E.91508
G1 X163.594 Y155.437 E.93957
G1 X163.671 Y155.616 E.96413
G1 X163.939 Y155.942 E1.01732
G1 X164.127 Y156.106 E1.04876
G1 X164.559 Y156.363 E1.11211
G1 X166.789 Y157.34 E1.41896
G1 X167.271 Y157.485 E1.4824
G1 X167.52 Y157.512 E1.51397
G1 X167.941 Y157.489 E1.56711
G1 X168.123 Y157.424 E1.59147
G1 X168.137 Y157.616 E1.61573
G1 X168.285 Y158.012 E1.66901
G1 X168.409 Y158.228 E1.7004
G1 X168.735 Y158.612 E1.76389
G1 X170.527 Y160.261 E2.07081
G1 X170.863 Y160.512 E2.12367
G1 X171.164 Y160.661 E2.166
G1 X171.57 Y160.776 E2.21918
G1 X171.761 Y160.773 E2.24326
G1 X171.712 Y160.958 E2.26738
G1 X171.723 Y161.38 E2.32058
G1 X171.771 Y161.626 E2.35217
G1 X171.955 Y162.096 E2.41578
G1 X172.707 Y163.486 E2.61496
G1 X173.19 Y164.367 E2.74159
G1 X173.585 Y164.822 E2.81753
G1 X173.933 Y165.062 E2.87081
G1 X174.115 Y165.122 E2.89496
G1 X174.008 Y165.282 E2.91922
G1 X173.882 Y165.685 E2.97244
G1 X173.847 Y165.932 E3.00388
G1 X173.868 Y166.436 E3.06746
G1 X174.26 Y168.78 E3.36699
G1 X174.378 Y169.238 E3.4266
G1 X174.526 Y169.544 E3.46944
G1 X174.777 Y169.885 E3.5228
G1 X174.928 Y170 E3.54672
G1 X174.777 Y170.115 E3.57064
G1 X174.526 Y170.456 E3.624
G1 X174.413 Y170.678 E3.6554
G1 X174.269 Y171.163 E3.71916
G1 X174.023 Y172.635 E3.90725
G1 X173.849 Y173.708 E4.04425
G1 X173.881 Y174.313 E4.12061
G1 X174.007 Y174.716 E4.17383
G1 X174.115 Y174.878 E4.19837
G1 X173.931 Y174.939 E4.2228
G1 X173.584 Y175.18 E4.27605
G1 X173.405 Y175.353 E4.30742
G1 X173.113 Y175.763 E4.37086
G1 X171.855 Y178.115 E4.70703
G1 X171.723 Y178.619 E4.77269
G1 X171.712 Y179.041 E4.82589
G1 X171.761 Y179.227 E4.85013
G1 X171.569 Y179.225 E4.87433
G1 X171.163 Y179.339 E4.92748
G1 X170.936 Y179.445 E4.95906
G1 X170.527 Y179.739 E5.02254
G1 X168.902 Y181.235 E5.30092
G1 X168.413 Y181.765 E5.39181
G1 X168.284 Y181.989 E5.42439
G1 X168.136 Y182.385 E5.47767
G1 X168.123 Y182.576 E5.5018
G1 X167.943 Y182.512 E5.52588
G1 X167.521 Y182.488 E5.57915
G1 X167.272 Y182.515 E5.61072
G1 X166.789 Y182.66 E5.67428
G1 X165.287 Y183.318 E5.88095
G1 X164.391 Y183.721 E6.00477
G1 X163.938 Y184.059 E6.076
G1 X163.67 Y184.385 E6.12919
G1 X163.594 Y184.562 E6.15347
G1 X163.444 Y184.443 E6.1776
G1 X163.053 Y184.284 E6.2308
G1 X162.809 Y184.228 E6.26235
G1 X162.305 Y184.208 E6.32592
G1 X159.879 Y184.409 E6.63273
G1 X159.387 Y184.512 E6.69608
G1 X159.156 Y184.606 E6.72751
G1 X158.796 Y184.827 E6.78075
G1 X158.666 Y184.971 E6.8052
G1 X158.562 Y184.807 E6.82968
G1 X158.243 Y184.53 E6.88293
G1 X158.031 Y184.399 E6.91434
G1 X157.562 Y184.217 E6.97774
G1 X155.516 Y183.699 E7.24374
G1 X154.938 Y183.571 E7.31835
G1 X154.452 Y183.571 E7.3796
G1 X154.04 Y183.664 E7.43283
G1 X153.872 Y183.757 E7.45703
G1 X153.827 Y183.57 E7.48127
G1 X153.616 Y183.204 E7.53451
G1 X153.458 Y183.011 E7.56595
G1 X153.073 Y182.686 E7.62945
G1 X151.577 Y181.708 E7.85471
G1 X150.802 Y181.223 E7.96994
G1 X150.342 Y181.065 E8.03124
G1 X149.922 Y181.018 E8.0845
G1 X149.733 Y181.052 E8.1087
G1 X149.751 Y180.861 E8.13288
G1 X149.67 Y180.446 E8.18617
G1 X149.583 Y180.212 E8.21763
G1 X149.324 Y179.779 E8.28122
G1 X147.829 Y177.858 E8.58801
G1 X147.472 Y177.501 E8.65164
G1 X147.267 Y177.359 E8.68307
G1 X146.884 Y177.179 E8.73641
G1 X146.695 Y177.15 E8.76051
G1 X146.774 Y176.975 E8.78471
G1 X146.832 Y176.557 E8.8379
G1 X146.826 Y176.307 E8.86942
G1 X146.722 Y175.813 E8.93305
G1 X145.989 Y173.679 E9.21743
G1 X145.797 Y173.203 E9.28212
G1 X145.562 Y172.856 E9.33494
G1 X145.259 Y172.562 E9.38815
G1 X145.09 Y172.473 E9.41222
G1 X145.221 Y172.333 E9.43638
G1 X145.412 Y171.957 E9.48953
G1 X145.487 Y171.718 E9.5211
G1 X145.549 Y171.217 E9.58472
G1 X145.549 Y169.041 E9.85897
G1 X145.489 Y168.289 E9.95405
G1 X145.412 Y168.043 E9.98654
G1 X145.221 Y167.667 E10.03969
G1 X145.09 Y167.527 E10.06385
G1 X145.259 Y167.438 E10.08792
G1 X145.562 Y167.144 E10.14113
G1 X145.711 Y166.943 E10.17266
G1 X145.932 Y166.489 E10.2363
G1 X146.722 Y164.187 E10.54304
G1 X146.826 Y163.694 E10.60654
G1 X146.833 Y163.444 E10.63806
G1 X146.774 Y163.026 E10.69126
G1 X146.695 Y162.85 E10.71557
G1 X146.885 Y162.821 E10.73979
G1 X147.267 Y162.641 E10.79301
G1 X147.473 Y162.499 E10.82454
G1 X147.829 Y162.142 E10.88808
G1 X149.011 Y160.623 E11.13066
G1 X149.532 Y159.894 E11.24359
G1 X149.67 Y159.553 E11.28995
G1 X149.751 Y159.138 E11.34324
G1 X149.733 Y158.948 E11.36729
G1 X149.92 Y158.982 E11.39124
G1 X150.34 Y158.936 E11.44449
G1 X150.581 Y158.868 E11.47605
G1 X151.035 Y158.646 E11.53974
G1 X152.309 Y157.813 E11.73158
G1 X153.169 Y157.247 E11.86134
G1 X153.616 Y156.796 E11.94137
G1 X153.827 Y156.43 E11.99461
G1 X153.872 Y156.243 E12.01885
G1 X154.04 Y156.336 E12.04305
G1 X154.452 Y156.429 E12.09628
G1 X154.702 Y156.443 E12.12784
G1 X155.202 Y156.38 E12.19136
G1 X156.983 Y155.929 E12.42291
G1 X157.882 Y155.673 E12.54072
G1 X158.245 Y155.468 E12.59326
G1 X158.564 Y155.19 E12.64659
G1 X158.666 Y155.03 E12.6705
G1 X158.794 Y155.171 E12.6945
G1 X159.154 Y155.393 E12.74781
G1 X159.298 Y155.452 E12.76742
G1 E12.46742 F2400
G92 E0
G1 X164.277 Y154.951 F9000
G1 E.4 F2400
G1 F1200
G1 X164.358 Y155.159 E.42813
G1 X164.519 Y155.355 E.4601
G1 X164.891 Y155.607 E.51673
G1 X166.671 Y156.388 E.76171
G1 X167.41 Y156.672 E.86149
G1 X167.812 Y156.674 E.91216
G1 X168.23 Y156.509 E.9688
;WIDTH:0.869177
G1 X168.369 Y156.338 E.99554
;WIDTH:0.83239
G1 X168.509 Y156.167 E1.02111
;WIDTH:0.795603
G1 X168.649 Y155.996 E1.04544
;WIDTH:0.797343
G1 X168.858 Y155.642 E1.0908
;WIDTH:0.83587
G1 X169.066 Y155.288 E1.13852
;WIDTH:0.87433
G1 X169.322 Y154.854 E1.20005
G1 X169.628 Y154.497 E1.25747
;WIDTH:0.859251
G1 X170.039 Y154.109 E1.32519
G1 X170.515 Y153.762 E1.39576
G1 X170.379 Y154.376 E1.4711
G1 X170.192 Y154.92 E1.54002
;WIDTH:0.874397
G1 X169.941 Y155.369 E1.60284
G1 X169.7 Y155.702 E1.65304
;WIDTH:0.83587
G1 X169.46 Y156.035 E1.70075
;WIDTH:0.797343
G1 X169.219 Y156.368 E1.74611
;WIDTH:0.758817
G1 X169.215 Y156.374 E1.74686
;WIDTH:0.795023
G1 X169.116 Y156.569 E1.77091
;WIDTH:0.8321
G1 X169.017 Y156.764 E1.7962
;WIDTH:0.869177
G1 X168.918 Y156.959 E1.82273
;WIDTH:0.9
G1 X168.935 Y157.408 E1.87936
G1 X169.098 Y157.775 E1.92997
G1 X169.294 Y158.005 E1.96806
G1 X170.754 Y159.349 E2.21816
G1 X171.287 Y159.805 E2.30657
G1 X171.711 Y159.963 E2.3636
G1 X172.16 Y159.942 E2.42025
;WIDTH:0.868908
G1 X172.348 Y159.826 E2.44704
;WIDTH:0.832211
G1 X172.535 Y159.71 E2.4725
;WIDTH:0.795514
G1 X172.723 Y159.594 E2.49682
;WIDTH:0.797379
G1 X173.035 Y159.326 E2.54221
;WIDTH:0.835941
G1 X173.347 Y159.059 E2.58995
;WIDTH:0.874503
G1 X173.687 Y158.765 E2.64485
G1 X174.13 Y158.477 E2.70939
;WIDTH:0.852386
G1 X174.616 Y158.267 E2.77226
G1 X175.206 Y158.087 E2.84552
G1 X174.865 Y158.658 E2.9245
G1 X174.556 Y159.057 E2.98443
;WIDTH:0.874503
G1 X174.148 Y159.419 E3.05105
