; generated by PrusaSlicer 2.8.0 on 2024-08-25 at 09:12:40 UTC

; 

; external perimeters extrusion width = 0.90mm
; perimeters extrusion width = 0.90mm
; infill extrusion width = 0.90mm
; solid infill extrusion width = 0.90mm
; top infill extrusion width = 0.80mm

M190 S60 ; set bed temperature and wait for it to be reached
;TYPE:Custom
; Start GCODE (begins)

G28 ; home all axes
G1 Z5 F5000 ; lift nozzle

M109 S200 ; Do this now so we can purge

; Extrude a small amount of waste material
G92 E0
G1 E20 F200
G92 E0

; Start GCODE (ends)
G21 ; set units to millimeters
G90 ; use absolute coordinates
M82 ; use absolute distances for extrusion
G92 E0
; Filament gcode
M107
;LAYER_CHANGE
;Z:0.35
;HEIGHT:0.35
G1 E-.3 F2400
G1 Z.35 F9000
G1 X90.645 Y107.321
G1 E.1 F2400
G92 E0
;TYPE:Skirt/Brim
;WIDTH:0.9
G1 F1200
G1 X92.043 Y106.272 E.22028
G1 X93.577 Y105.408 E.44217
G1 X95.198 Y104.756 E.66238
G1 X96.904 Y104.318 E.88437
G1 X98.647 Y104.108 E1.10564
G1 X220.762 Y104.089 E16.49626
G1 X222.496 Y104.22 E16.71543
G1 X223.958 Y104.509 E16.90326
G1 X225.618 Y105.053 E17.12342
G1 X227.199 Y105.812 E17.34445
G1 X228.428 Y106.594 E17.52804
G1 X229.785 Y107.707 E17.74924
G1 X230.985 Y108.986 E17.97028
G1 X232.008 Y110.412 E18.19147
G1 X232.835 Y111.959 E18.41256
G1 X233.454 Y113.6 E18.63361
G1 X233.851 Y115.295 E18.85302
G1 X234.026 Y117.054 E19.07581
G1 X233.994 Y118.529 E19.26175
G1 X233.745 Y120.266 E19.48291
G1 X233.272 Y121.955 E19.70397
G1 X232.582 Y123.568 E19.92508
G1 X171.616 Y229.206 E35.2972
G1 X170.905 Y230.306 E35.46228
G1 X170.193 Y231.216 E35.6079
G1 X169.384 Y232.081 E35.75717
G1 X168.513 Y232.863 E35.9047
G1 X167.578 Y233.565 E36.05206
G1 X166.584 Y234.184 E36.19964
G1 X165.541 Y234.713 E36.34703
G1 X164.455 Y235.15 E36.49457
G1 X163.046 Y235.561 E36.67955
G1 X161.889 Y235.778 E36.82791
G1 X160.732 Y235.891 E36.97442
G1 X159.555 Y235.904 E37.12277
G1 X158.388 Y235.814 E37.27029
G1 X157.234 Y235.623 E37.41771
G1 X156.107 Y235.334 E37.56435
G1 X155.003 Y234.946 E37.71183
G1 X153.932 Y234.46 E37.86006
G1 X152.193 Y233.405 E38.11641
G1 X150.837 Y232.293 E38.33743
G1 X149.45 Y230.78 E38.59612
G1 X148.459 Y229.332 E38.81726
G1 X87.547 Y123.816 E54.17266
G1 X86.829 Y122.231 E54.39196
G1 X86.388 Y120.835 E54.57647
G1 X86.066 Y119.126 E54.79565
G1 X85.967 Y117.64 E54.98335
G1 X86.063 Y115.895 E55.20361
G1 X86.312 Y114.475 E55.38531
G1 X86.726 Y113.051 E55.57221
G1 X87.418 Y111.431 E55.79423
G1 X88.309 Y109.928 E56.01444
G1 X89.391 Y108.548 E56.23545
G1 X90.559 Y107.405 E56.44142
G1 E56.14142 F2400
G92 E0
G1 X90.559 Y107.405 F9000
G92 E0
G1 X155.692 Y149.322
G1 E.4 F2400
;TYPE:Perimeter
;WIDTH:0.762459
G1 F1200
G1 X155.509 Y149.638 E.43835
;WIDTH:0.732637
G1 X155.325 Y149.954 E.47509
;WIDTH:0.720171
G1 X155.216 Y150.15 E.49719
G1 E.19719 F2400
G92 E0
G1 X155.216 Y150.15 F9000
G1 X155.49 Y150.301
G1 X155.555 Y150.183
G1 X155.663 Y149.993
G1 X155.772 Y149.806
G1 X155.888 Y149.618
G1 X156.003 Y149.433
G1 X156.125 Y149.245
G1 X156.25 Y149.06
G1 X156.38 Y148.876
G1 X156.515 Y148.693
G1 X156.655 Y148.51
G1 X156.8 Y148.33
G1 X156.956 Y148.148
G1 X157.117 Y147.97
G1 X157.306 Y147.834
G1 X157.512 Y147.721
G1 X157.725 Y147.616
G1 X157.94 Y147.521
G1 X158.16 Y147.436
G1 X158.382 Y147.361
G1 X158.608 Y147.295
G1 X158.836 Y147.239
G1 X159.067 Y147.193
G1 X159.299 Y147.158
G1 X159.532 Y147.132
G1 X159.767 Y147.117
G1 X159.999 Y147.112
G1 X160.237 Y147.117
G1 X160.472 Y147.133
G1 X160.705 Y147.158
G1 X160.937 Y147.194
G1 X161.168 Y147.24
G1 X161.396 Y147.296
G1 X161.621 Y147.361
G1 X161.845 Y147.438
G1 X162.062 Y147.522
G1 X162.279 Y147.618
G1 X162.49 Y147.722
G1 X162.524 Y147.74
G1 X162.935 Y146.991
G1 E.4 F2400
;WIDTH:0.9
G1 F1200
G1 X162.949 Y146.368 E.47854
G1 X163.076 Y145.506 E.58835
G1 X163.449 Y144.266 E.75155
G1 X163.857 Y143.416 E.87038
G1 X164.156 Y142.883 E.9474
G1 X164.745 Y142.057 E1.07526
G1 X165.204 Y141.531 E1.16325
G1 X165.782 Y140.972 E1.26459
G1 X166.878 Y140.155 E1.43688
G1 X167.246 Y139.938 E1.49072
G1 X168.173 Y139.463 E1.622
G1 X168.926 Y139.169 E1.72388
G1 X169.833 Y138.938 E1.84184
G1 X170.367 Y138.818 E1.91082
G1 X171.231 Y138.738 E2.02018
G1 X171.795 Y138.707 E2.09137
G1 X172.459 Y138.736 E2.17514
G1 X173.334 Y138.86 E2.28652
G1 X173.898 Y138.999 E2.35973
G1 X174.897 Y139.349 E2.49314
G1 X175.715 Y139.776 E2.60944
G1 X176.152 Y140.072 E2.67596
G1 X176.654 Y140.46 E2.75592
G1 X177.045 Y140.831 E2.82385
G1 X177.549 Y141.413 E2.92088
G1 X178.005 Y142.098 E3.02459
G1 X178.336 Y142.763 E3.11821
G1 X178.66 Y143.692 E3.24221
G1 X178.845 Y144.816 E3.38578
G1 X178.877 Y145.231 E3.43824
G1 X178.863 Y145.876 E3.51955
G1 X178.747 Y146.763 E3.63229
G1 X178.535 Y147.603 E3.74148
G1 X178.241 Y148.388 E3.84713
G1 X177.866 Y149.139 E3.95293
G1 X177.094 Y150.277 E4.12624
G1 X176.716 Y150.714 E4.19906
G1 X176.316 Y151.146 E4.27326
G1 X175.717 Y151.683 E4.37465
G1 X175.122 Y152.13 E4.46844
G1 X173.992 Y152.792 E4.6335
G1 X173.343 Y153.083 E4.72314
G1 X172.658 Y153.327 E4.81479
G1 X172.121 Y153.472 E4.88489
G1 X170.843 Y153.683 E5.04814
G1 X170.089 Y153.719 E5.14328
G1 X169.233 Y153.667 E5.25136
G1 X168.546 Y153.576 E5.3387
G1 X167.993 Y153.451 E5.41016
G1 X167.159 Y153.174 E5.52092
G1 X166.234 Y152.711 E5.65129
G1 X166.203 Y153.223 E5.71594
G1 X166.076 Y153.942 E5.80796
G1 X165.745 Y154.901 E5.93582
G1 X165.544 Y155.385 E6.00187
G1 X165.067 Y156.149 E6.11539
G1 X164.512 Y156.82 E6.22514
G1 X163.902 Y157.35 E6.32699
G1 X163.319 Y157.791 E6.41912
G1 X163.941 Y158.193 E6.51246
G1 X164.992 Y159.122 E6.68925
G1 X165.642 Y159.931 E6.82004
G1 X165.928 Y160.343 E6.88325
G1 X166.398 Y161.196 E7.006
G1 X166.867 Y162.393 E7.16803
G1 X167.063 Y163.126 E7.26366
G1 X167.173 Y163.747 E7.34315
G1 X167.259 Y164.7 E7.46375
G1 X167.256 Y165.383 E7.54983
G1 X167.2 Y166.151 E7.64688
G1 X167.082 Y166.895 E7.74182
G1 X166.869 Y167.727 E7.85006
G1 X166.623 Y168.422 E7.94298
G1 X166.332 Y169.079 E8.03354
G1 X165.978 Y169.729 E8.12682
G1 X165.603 Y170.284 E8.21124
G1 X164.913 Y171.12 E8.34786
G1 X164.362 Y171.643 E8.44361
G1 X163.801 Y172.076 E8.53293
G1 X163.142 Y172.483 E8.63055
G1 X162.684 Y172.702 E8.69453
G1 X162.11 Y172.939 E8.7728
G1 X161.631 Y173.084 E8.83588
G1 X160.84 Y173.238 E8.93744
G1 X159.958 Y173.274 E9.04869
G1 X159.362 Y173.265 E9.12381
G1 X158.747 Y173.171 E9.20222
G1 X158.016 Y172.981 E9.29741
G1 X157.268 Y172.689 E9.39861
G1 X156.563 Y172.313 E9.49931
G1 X155.92 Y171.871 E9.59765
G1 X155.318 Y171.322 E9.70034
G1 X154.957 Y170.975 E9.76345
G1 X154.433 Y170.344 E9.86682
G1 X154 Y169.691 E9.96557
G1 X153.704 Y169.141 E10.04429
G1 X153.299 Y168.221 E10.17098
G1 X153.085 Y167.574 E10.25687
G1 X152.903 Y166.82 E10.35463
G1 X152.786 Y166.053 E10.45242
G1 X152.735 Y165.292 E10.54855
G1 X152.75 Y164.46 E10.65343
G1 X152.825 Y163.747 E10.74379
G1 X152.954 Y163.048 E10.83338
G1 X153.304 Y161.894 E10.98537
G1 X153.516 Y161.384 E11.05498
G1 X154.122 Y160.268 E11.21503
G1 X154.327 Y159.961 E11.26156
G1 X154.941 Y159.196 E11.38519
G1 X155.538 Y158.607 E11.49089
G1 X156.25 Y158.06 E11.60405
G1 X156.689 Y157.79 E11.66901
G1 X156.261 Y157.48 E11.73562
G1 X155.747 Y157.068 E11.81864
G1 X155.301 Y156.591 E11.90094
G1 X154.86 Y156.04 E11.98989
G1 X154.639 Y155.702 E12.04079
G1 X154.302 Y155.054 E12.13284
G1 X154.079 Y154.472 E12.21139
G1 X153.924 Y153.942 E12.28099
G1 X153.797 Y153.223 E12.37301
G1 X153.766 Y152.709 E12.43791
G1 X153.315 Y152.969 E12.50352
G1 X152.656 Y153.233 E12.59299
G1 X152.145 Y153.416 E12.6614
G1 X151.635 Y153.543 E12.72764
G1 X150.753 Y153.671 E12.83997
G1 X149.817 Y153.718 E12.95809
G1 X149.133 Y153.683 E13.04441
G1 X147.991 Y153.499 E13.1902
G1 X147.266 Y153.303 E13.28485
G1 X146.212 Y152.89 E13.42752
G1 X145.618 Y152.583 E13.51179
G1 X144.916 Y152.147 E13.61594
G1 X144.335 Y151.717 E13.70704
G1 X143.618 Y151.079 E13.828
G1 X143.025 Y150.43 E13.9388
G1 X142.485 Y149.708 E14.05243
G1 X142.09 Y149.062 E14.14786
G1 X141.797 Y148.46 E14.23224
G1 X141.417 Y147.445 E14.36884
G1 X141.241 Y146.705 E14.46471
G1 X141.141 Y145.915 E14.56507
G1 X141.133 Y144.997 E14.68077
G1 X141.245 Y144.106 E14.79395
G1 X141.453 Y143.308 E14.89789
G1 X141.667 Y142.761 E14.97192
G1 X141.883 Y142.3 E15.03608
G1 X142.172 Y141.809 E15.10789
G1 X142.711 Y141.096 E15.22054
G1 X143.299 Y140.501 E15.32597
G1 X143.874 Y140.05 E15.41807
G1 X144.671 Y139.557 E15.53618
G1 X145.474 Y139.199 E15.64699
G1 X146.046 Y139.016 E15.72268
G1 X146.524 Y138.889 E15.78501
G1 X147.129 Y138.782 E15.86244
G1 X147.973 Y138.711 E15.96919
G1 X148.679 Y138.718 E16.05817
G1 X149.348 Y138.779 E16.14284
G1 X150.64 Y139.04 E16.30896
G1 X151.435 Y139.296 E16.41422
G1 X152.119 Y139.589 E16.508
G1 X153.223 Y140.215 E16.66795
G1 X153.847 Y140.662 E16.76469
G1 X154.387 Y141.123 E16.85418
G1 X155.213 Y142.003 E17.00629
G1 X155.55 Y142.444 E17.07624
G1 X156.209 Y143.524 E17.2357
G1 X156.548 Y144.298 E17.3422
G1 X156.731 Y144.774 E17.40647
G1 X156.915 Y145.526 E17.50404
G1 X157.037 Y146.175 E17.58727
G1 X157.067 Y146.999 E17.69119
G1 X157.645 Y146.711 E17.77258
G1 X158.476 Y146.444 E17.88259
G1 X159.268 Y146.317 E17.98368
G1 X159.775 Y146.262 E18.04795
G1 X160.407 Y146.278 E18.12763
G1 X160.909 Y146.322 E18.19114
G1 X161.636 Y146.475 E18.28477
G1 X162.332 Y146.718 E18.37768
G1 X162.826 Y146.941 E18.44599
G1 E18.14599 F2400
G92 E0
G1 X162.826 Y146.941 F9000
G1 X164.926 Y150.392
G1 E.4 F2400
;WIDTH:0.768721
G1 F1200
G1 X164.733 Y150.057 E.44097
;WIDTH:0.735849
G1 X164.541 Y149.722 E.47995
;WIDTH:0.728107
G1 X164.39 Y149.473 E.509
G1 X164.39 Y149.473 F9000
G1 X163.999 Y148.873
;WIDTH:0.9
G1 F1200
G1 X164.054 Y148.928 E.5188
;WIDTH:0.867205
G1 X164.192 Y149.093 E.54483
;WIDTH:0.86025
G1 X164.069 Y148.8 E.58295
;WIDTH:0.9
G1 X163.945 Y148.506 E.62316
G1 X163.797 Y147.775 E.71716
G1 X163.763 Y147.082 E.80461
G1 X163.765 Y146.489 E.87935
G1 X163.892 Y145.627 E.98916
G1 X164.077 Y145 E1.07155
G1 X164.233 Y144.522 E1.13492
G1 X164.59 Y143.794 E1.23711
G1 X164.827 Y143.361 E1.29932
G1 X165.416 Y142.536 E1.42708
G1 X165.814 Y142.087 E1.5027
G1 X166.346 Y141.575 E1.59576
G1 X167.364 Y140.821 E1.75542
G1 X168.549 Y140.197 E1.92421
G1 X169.212 Y139.942 E2.01374
G1 X170.023 Y139.741 E2.11905
G1 X170.595 Y139.62 E2.19274
G1 X171.6 Y139.535 E2.31986
G1 X172.422 Y139.561 E2.42351
G1 X173.207 Y139.675 E2.52348
G1 X173.776 Y139.821 E2.59752
G1 X174.597 Y140.118 E2.70756
G1 X175.321 Y140.5 E2.81073
G1 X175.967 Y140.959 E2.91061
G1 X176.418 Y141.372 E2.98768
G1 X176.914 Y141.94 E3.08272
G1 X177.31 Y142.542 E3.17354
G1 X177.589 Y143.113 E3.25364
G1 X177.873 Y143.939 E3.36373
G1 X178.028 Y144.929 E3.49002
G1 X178.038 Y145.858 E3.60711
G1 X177.931 Y146.642 E3.70684
G1 X177.739 Y147.387 E3.8038
G1 X177.473 Y148.087 E3.89818
G1 X177.133 Y148.761 E3.99332
G1 X176.418 Y149.805 E4.1528
G1 X175.711 Y150.586 E4.28557
G1 X175.175 Y151.062 E4.37592
G1 X174.633 Y151.466 E4.46112
G1 X173.654 Y152.039 E4.60409
G1 X173.005 Y152.33 E4.69373
G1 X172.391 Y152.547 E4.77581
G1 X171.801 Y152.703 E4.85273
G1 X170.726 Y152.866 E4.98976
G1 X170.063 Y152.895 E5.0734
G1 X169.294 Y152.845 E5.17052
G1 X168.703 Y152.766 E5.24567
G1 X168.163 Y152.639 E5.31559
G1 X167.419 Y152.391 E5.41443
G1 X166.759 Y152.057 E5.50766
G1 X166.283 Y151.786 E5.57669
G1 X165.844 Y151.457 E5.64583
G1 X165.473 Y151.099 E5.71081
G1 X165.294 Y150.89 E5.74549
;WIDTH:0.863157
G1 X165.114 Y150.681 E5.7787
;WIDTH:0.826315
G1 X164.999 Y150.541 E5.79949
;WIDTH:0.830692
G1 X165.089 Y150.768 E5.82768
;WIDTH:0.865346
G1 X165.179 Y150.995 E5.85716
;WIDTH:0.9
G1 X165.269 Y151.222 E5.88794
G1 X165.364 Y151.745 E5.95493
G1 X165.409 Y152.224 E6.01557
G1 X165.409 Y152.865 E6.09636
G1 X165.287 Y153.662 E6.19798
G1 X165.164 Y154.121 E6.25787
G1 X164.868 Y154.882 E6.36078
G1 X164.371 Y155.706 E6.48206
G1 X163.891 Y156.277 E6.57607
G1 X162.948 Y157.053 E6.72999
G1 X162.327 Y157.386 E6.8188
G1 X161.948 Y157.557 E6.8712
G1 X161.013 Y157.823 E6.99372
G1 X161.671 Y157.963 E7.07851
G1 X162.194 Y158.15 E7.14851
G1 X162.831 Y158.46 E7.2378
G1 X163.488 Y158.882 E7.33621
G1 X164.493 Y159.792 E7.50708
G1 X165.206 Y160.741 E7.65668
G1 X165.675 Y161.594 E7.77937
G1 X166.094 Y162.681 E7.92619
G1 X166.262 Y163.325 E8.01007
G1 X166.359 Y163.883 E8.08145
G1 X166.436 Y164.759 E8.19228
G1 X166.431 Y165.37 E8.26929
G1 X166.378 Y166.088 E8.36003
G1 X166.269 Y166.756 E8.44533
G1 X166.072 Y167.514 E8.54404
G1 X165.849 Y168.139 E8.62767
G1 X165.581 Y168.74 E8.71061
G1 X165.258 Y169.326 E8.79494
G1 X164.926 Y169.812 E8.86912
G1 X164.294 Y170.576 E8.99409
G1 X163.804 Y171.035 E9.07871
G1 X163.306 Y171.417 E9.15781
G1 X162.719 Y171.775 E9.24447
G1 X162.011 Y172.098 E9.34255
G1 X161.406 Y172.291 E9.42259
G1 X160.696 Y172.426 E9.51368
G1 X159.952 Y172.449 E9.60749
G1 X159.45 Y172.445 E9.67076
G1 X158.875 Y172.356 E9.74409
G1 X158.238 Y172.186 E9.82718
G1 X157.582 Y171.926 E9.91612
G1 X156.964 Y171.592 E10.00466
G1 X156.398 Y171.199 E10.0915
G1 X155.529 Y170.381 E10.24191
G1 X155.08 Y169.832 E10.3313
G1 X154.693 Y169.243 E10.42012
G1 X154.437 Y168.762 E10.48879
G1 X154.062 Y167.909 E10.60623
G1 X153.871 Y167.323 E10.68391
G1 X153.707 Y166.633 E10.7733
G1 X153.603 Y165.936 E10.86212
G1 X153.558 Y165.244 E10.94952
G1 X153.575 Y164.483 E11.04546
G1 X153.644 Y163.841 E11.12684
G1 X153.764 Y163.207 E11.20816
G1 X154.091 Y162.141 E11.34869
G1 X154.325 Y161.594 E11.42367
G1 X154.837 Y160.68 E11.55571
G1 X155.503 Y159.814 E11.6934
G1 X155.85 Y159.446 E11.75715
G1 X156.215 Y159.114 E11.81934
G1 X156.742 Y158.721 E11.90219
G1 X157.207 Y158.443 E11.97047
G1 X157.8 Y158.159 E12.05334
G1 X158.16 Y158.021 E12.10193
;WIDTH:0.900505
G1 X158.947 Y157.818 E12.20443
G1 X158.167 Y157.59 E12.30691
;WIDTH:0.9
G1 X157.826 Y157.466 E12.35264
G1 X157.178 Y157.129 E12.44469
G1 X156.264 Y156.425 E12.59009
G1 X155.585 Y155.625 E12.72234
G1 X155.371 Y155.321 E12.7692
G1 X155.033 Y154.673 E12.86131
G1 X154.784 Y153.982 E12.95388
G1 X154.632 Y153.206 E13.05354
G1 X154.591 Y152.865 E13.09683
G1 X154.591 Y152.135 E13.18883
G1 X154.706 Y151.372 E13.28608
G1 X154.802 Y150.967 E13.33854
G1 X154.899 Y150.772 E13.36599
;WIDTH:0.859808
G1 X154.996 Y150.577 E13.3921
;WIDTH:0.819616
G1 X155.092 Y150.383 E13.41672
G1 X154.966 Y150.56 E13.44143
;WIDTH:0.859808
G1 X154.839 Y150.736 E13.46745
;WIDTH:0.9
G1 X154.713 Y150.913 E13.49483
G1 X154.433 Y151.215 E13.54673
G1 X154.009 Y151.575 E13.61683
G1 X153.201 Y152.088 E13.73746
G1 X152.912 Y152.245 E13.77891
G1 X152.102 Y152.566 E13.88872
G1 X151.435 Y152.743 E13.97569
G1 X150.649 Y152.852 E14.0757
G1 X149.805 Y152.894 E14.1822
G1 X149.182 Y152.86 E14.26084
G1 X148.131 Y152.686 E14.3951
G1 X147.494 Y152.51 E14.47839
G1 X147.01 Y152.326 E14.54365
G1 X146.151 Y151.937 E14.6625
G1 X145.351 Y151.446 E14.7808
G1 X144.834 Y151.06 E14.86212
G1 X144.177 Y150.473 E14.97316
G1 X143.641 Y149.88 E15.0739
G1 X143.151 Y149.221 E15.1774
G1 X142.799 Y148.64 E15.26302
G1 X142.544 Y148.109 E15.33726
G1 X142.199 Y147.18 E15.46216
G1 X142.046 Y146.526 E15.54681
G1 X141.961 Y145.824 E15.63593
G1 X141.958 Y145.008 E15.73877
G1 X142.061 Y144.225 E15.8383
G1 X142.246 Y143.532 E15.9287
G1 X142.495 Y142.922 E16.01174
G1 X142.883 Y142.228 E16.11195
G1 X143.358 Y141.608 E16.21039
G1 X143.873 Y141.094 E16.30209
G1 X144.368 Y140.711 E16.38097
G1 X145.082 Y140.272 E16.48661
G1 X145.797 Y139.957 E16.58508
G1 X146.278 Y139.808 E16.64854
G1 X147.273 Y139.594 E16.77681
G1 X148.031 Y139.534 E16.87264
G1 X148.661 Y139.543 E16.95205
G1 X149.265 Y139.599 E17.0285
G1 X150.469 Y139.847 E17.18343
G1 X151.167 Y140.077 E17.27605
G1 X151.788 Y140.344 E17.36124
G1 X152.808 Y140.928 E17.50937
G1 X153.356 Y141.325 E17.59466
G1 X153.845 Y141.745 E17.6759
G1 X154.605 Y142.561 E17.81644
G1 X154.964 Y143.04 E17.89188
G1 X155.495 Y143.936 E18.02315
G1 X155.962 Y145.071 E18.17783
G1 X156.216 Y146.256 E18.33057
G1 X156.248 Y147.231 E18.45352
G1 X156.175 Y147.96 E18.54586
G1 X155.99 Y148.66 E18.63711
;WIDTH:0.889739
G1 X155.892 Y148.906 E18.67007
;WIDTH:0.843172
G1 X155.794 Y149.152 E18.70114
G1 X155.953 Y148.939 E18.73233
;WIDTH:0.889739
G1 X156.112 Y148.726 E18.76541
;WIDTH:0.9
G1 X156.5 Y148.384 E18.8306
G1 X156.976 Y148.003 E18.90744
