; generated by PrusaSlicer 2.8.0 on 2024-08-25 at 04:54:39 UTC

; 

; external perimeters extrusion width = 0.90mm
; perimeters extrusion width = 0.90mm
; infill extrusion width = 0.90mm
; solid infill extrusion width = 0.90mm
; top infill extrusion width = 0.80mm

M190 S60 ; set bed temperature and wait for it to be reached
;TYPE:Custom
; Start GCODE (begins)

G28 ; home all axes
G1 Z5 F5000 ; lift nozzle

M109 S200 ; Do this now so we can purge

; Extrude a small amount of waste material
G92 E0
G1 E20 F200
G92 E0

; Start GCODE (ends)
G21 ; set units to millimeters
G90 ; use absolute coordinates
M82 ; use absolute distances for extrusion
G92 E0
; Filament gcode
M107
;LAYER_CHANGE
;Z:0.35
;HEIGHT:0.35
G1 E-.3 F2400
G1 Z.35 F9000
G1 X129.722 Y123.128
G1 E.1 F2400
G92 E0
;TYPE:Skirt/Brim
;WIDTH:0.9
G1 F1200
G1 X131.009 Y121.827 E.23064
G1 X132.656 Y120.519 E.49571
G1 X134.081 Y119.635 E.70706
G1 X135.983 Y118.738 E.9721
G1 X137.72 Y118.161 E1.20278
G1 X139.779 Y117.742 E1.4676
G1 X142.016 Y117.588 E1.7502
G1 X190.675 Y117.588 E7.88288
G1 X192.896 Y117.984 E8.16722
G1 X194.842 Y119.126 E8.4516
G1 X196.272 Y120.871 E8.73594
G1 X197.087 Y124 E9.14346
G1 X197.087 Y216 E20.73857
G1 X196.691 Y218.221 E21.02291
G1 X195.549 Y220.167 E21.30729
G1 X193.804 Y221.597 E21.59163
G1 X190.675 Y222.412 E21.99915
G1 X141.452 Y222.402 E28.20291
G1 X139.359 Y222.195 E28.46799
G1 X137.72 Y221.839 E28.67938
G1 X135.983 Y221.262 E28.91006
G1 X134.086 Y220.368 E29.17437
G1 X132.883 Y219.635 E29.35192
G1 X131.752 Y218.805 E29.52873
G1 X130.503 Y217.695 E29.73933
G1 X129.542 Y216.665 E29.91687
G1 X128.436 Y215.215 E30.14671
G1 X127.697 Y214.018 E30.32401
G1 X127.065 Y212.767 E30.50066
G1 X126.453 Y211.208 E30.71174
G1 X126.064 Y209.854 E30.88929
G1 X125.813 Y208.613 E31.04887
G1 X122.169 Y186.021 E33.93303
G1 X122.088 Y185 E34.06211
G1 X122.088 Y155 E37.84312
G1 X122.169 Y153.979 E37.9722
G1 X125.914 Y130.831 E40.92757
G1 X126.243 Y129.467 E41.10441
G1 X126.688 Y128.137 E41.28117
G1 X127.696 Y125.984 E41.58079
G1 X128.677 Y124.44 E41.81134
G1 X129.647 Y123.222 E42.00758
G1 E41.70758 F2400
G92 E0
G1 X129.647 Y123.222 F9000
G92 E0
G1 X188.581 Y126.906
G1 E.4 F2400
;TYPE:Perimeter
;WIDTH:0.887902
G1 F1200
G1 X188.175 Y126.907 E.45042
;WIDTH:0.890155
G1 X143.28 Y126.91 E6.04117
;WIDTH:0.907579
G1 X142.871 Y126.934 E6.09328
;WIDTH:0.953156
G1 X142.174 Y127 E6.1872
;WIDTH:0.989668
G1 X141.843 Y127.061 E6.23423
;WIDTH:1.02618
G1 X141.513 Y127.122 E6.283
;WIDTH:1.05604
G1 X141.225 Y127.204 E6.32788
;WIDTH:1.08589
G1 X140.937 Y127.286 E6.37413
;WIDTH:1.11628
G1 X140.677 Y127.382 E6.41822
;WIDTH:1.14666
G1 X140.417 Y127.479 E6.46365
;WIDTH:1.18075
G1 X140.082 Y127.635 E6.52608
;WIDTH:1.21484
G1 X139.748 Y127.792 E6.59035
;WIDTH:1.24912
G1 X139.414 Y127.996 E6.66055
;WIDTH:1.2834
G1 X139.081 Y128.201 E6.73274
G1 X139.022 Y128.268 E6.74922
;WIDTH:1.25261
G1 X138.963 Y128.335 E6.76528
;WIDTH:1.22181
G1 X138.912 Y128.41 E6.78117
;WIDTH:1.17584
G1 X138.861 Y128.485 E6.79642
;WIDTH:1.12987
G1 X138.81 Y128.56 E6.81104
;WIDTH:1.08389
G1 X138.759 Y128.635 E6.82502
;WIDTH:1.03792
G1 X138.709 Y128.71 E6.83828
;WIDTH:0.991946
G1 X138.658 Y128.785 E6.85099
;WIDTH:0.945973
G1 X138.607 Y128.86 E6.86306
;WIDTH:0.9
G1 X137.953 Y129.576 E6.98528
G1 X137.443 Y130.301 E7.097
G1 X137.012 Y131.124 E7.21409
G1 X136.683 Y132.035 E7.33616
G1 X136.558 Y132.601 E7.40921
G1 X136.448 Y133.208 E7.48696
G1 X136.4 Y133.999 E7.58684
G1 X136.4 Y206.001 E16.66152
G1 X136.538 Y207.374 E16.83544
G1 X136.674 Y207.881 E16.9016
G1 X136.897 Y208.594 E16.99575
G1 X137.398 Y209.627 E17.14045
G1 X137.767 Y210.182 E17.22445
G1 X138.177 Y210.694 E17.30712
G1 X138.649 Y211.158 E17.39054
;WIDTH:0.944925
G1 X138.677 Y211.215 E17.39898
;WIDTH:0.989851
G1 X138.705 Y211.271 E17.40773
;WIDTH:1.03478
G1 X138.734 Y211.328 E17.41711
;WIDTH:1.0797
G1 X138.762 Y211.384 E17.42672
;WIDTH:1.12463
G1 X138.79 Y211.44 E17.43676
;WIDTH:1.16956
G1 X138.819 Y211.497 E17.44745
;WIDTH:1.21448
G1 X138.847 Y211.553 E17.45835
;WIDTH:1.25941
G1 X138.875 Y211.61 E17.46984
;WIDTH:1.30433
G1 X138.903 Y211.666 E17.4816
G1 X139.227 Y211.89 E17.55558
;WIDTH:1.26624
G1 X139.582 Y212.097 E17.63037
;WIDTH:1.23314
G1 X139.937 Y212.303 E17.70299
;WIDTH:1.20004
G1 X140.171 Y212.412 E17.74736
;WIDTH:1.17203
G1 X140.405 Y212.52 E17.79055
;WIDTH:1.14401
G1 X140.671 Y212.617 E17.83679
;WIDTH:1.11498
G1 X140.936 Y212.714 E17.88163
;WIDTH:1.08594
G1 X141.236 Y212.799 E17.92979
;WIDTH:1.05468
G1 X141.535 Y212.884 E17.97631
;WIDTH:1.02343
G1 X141.842 Y212.935 E18.0214
;WIDTH:0.994212
G1 X142.149 Y212.985 E18.06508
;WIDTH:0.964998
G1 X142.56 Y213.031 E18.12131
;WIDTH:0.93176
G1 X142.971 Y213.078 E18.17545
;WIDTH:0.898522
G1 X143.499 Y213.094 E18.24191
;WIDTH:0.887778
G1 X188.581 Y213.094 E23.83958
G1 X188.581 Y213.5 E23.88999
G1 X188.581 Y213.906 E23.9404
G1 X143.499 Y213.906 E29.53807
;WIDTH:0.88895
G1 X143.392 Y213.906 E29.55137
;WIDTH:0.916271
G1 X142.628 Y213.892 E29.64958
;WIDTH:0.964998
G1 X142.052 Y213.867 E29.72797
;WIDTH:0.995592
G1 X141.676 Y213.834 E29.78105
;WIDTH:1.02619
G1 X141.299 Y213.8 E29.83606
;WIDTH:1.05775
G1 X140.954 Y213.736 E29.88874
;WIDTH:1.08932
G1 X140.609 Y213.672 E29.94311
;WIDTH:1.11666
G1 X140.315 Y213.594 E29.99152
;WIDTH:1.14401
G1 X140.022 Y213.515 E30.04108
;WIDTH:1.17203
G1 X139.717 Y213.405 E30.09542
;WIDTH:1.20004
G1 X139.412 Y213.294 E30.15121
;WIDTH:1.23314
G1 X139.042 Y213.117 E30.22378
;WIDTH:1.26624
G1 X138.672 Y212.94 E30.29843
;WIDTH:1.30433
G1 X138.175 Y212.648 E30.40669
G1 X138.108 Y212.634 E30.41955
;WIDTH:1.25941
G1 X138.04 Y212.62 E30.43211
;WIDTH:1.21448
G1 X137.972 Y212.606 E30.4442
;WIDTH:1.16956
G1 X137.905 Y212.593 E30.45561
;WIDTH:1.12463
G1 X137.837 Y212.579 E30.46674
;WIDTH:1.0797
G1 X137.77 Y212.565 E30.47725
;WIDTH:1.03478
G1 X137.702 Y212.551 E30.48743
;WIDTH:0.989851
G1 X137.635 Y212.537 E30.497
;WIDTH:0.944925
G1 X137.567 Y212.523 E30.50623
;WIDTH:0.9
G1 X136.769 Y211.9 E30.63383
G1 X136.042 Y211.165 E30.76412
G1 X135.637 Y210.657 E30.846
G1 X135.261 Y210.093 E30.93143
G1 X134.947 Y209.52 E31.01378
G1 X134.54 Y208.545 E31.14694
G1 X134.355 Y207.919 E31.22921
G1 X134.21 Y207.214 E31.31992
G1 X130.6 Y184.832 E34.17726
G1 X130.6 Y155.168 E37.91593
G1 X134.21 Y132.786 E40.77327
G1 X134.355 Y132.081 E40.86398
G1 X134.548 Y131.431 E40.94944
G1 X134.793 Y130.805 E41.03416
G1 X135.092 Y130.2 E41.11921
G1 X135.431 Y129.641 E41.20161
G1 X136.108 Y128.763 E41.34134
G1 X136.667 Y128.197 E41.4416
G1 X137.056 Y127.855 E41.50688
G1 X137.512 Y127.515 E41.57857
;WIDTH:0.944757
G1 X137.614 Y127.476 E41.59308
;WIDTH:0.989515
G1 X137.715 Y127.437 E41.60821
;WIDTH:1.03427
G1 X137.817 Y127.398 E41.62421
;WIDTH:1.07624
G1 X137.913 Y127.365 E41.63974
;WIDTH:1.11821
G1 X138.009 Y127.331 E41.65597
;WIDTH:1.16018
G1 X138.105 Y127.298 E41.6728
;WIDTH:1.20215
G1 X138.201 Y127.265 E41.69028
;WIDTH:1.24412
G1 X138.297 Y127.232 E41.70841
;WIDTH:1.25758
G1 X139.2 Y126.808 E41.88864
;WIDTH:1.22166
G1 X139.56 Y126.649 E41.95758
;WIDTH:1.18575
G1 X140.066 Y126.475 E42.04838
;WIDTH:1.14666
G1 X140.388 Y126.39 E42.1029
;WIDTH:1.11628
G1 X140.709 Y126.306 E42.15568
;WIDTH:1.08589
G1 X141.194 Y126.231 E42.23147
;WIDTH:1.0405
G1 X141.679 Y126.156 E42.30386
;WIDTH:0.995102
G1 X142.014 Y126.138 E42.35102
;WIDTH:0.963384
G1 X142.35 Y126.119 E42.39669
;WIDTH:0.931666
G1 X143.28 Y126.095 E42.51844
;WIDTH:0.890155
G1 X188.175 Y126.094 E48.10919
;WIDTH:0.887902
G1 X188.581 Y126.094 E48.15961
G1 X188.581 Y126.786 E48.24555
G1 X188.581 Y126.786 F9000
G1 X189.4 Y127.725
;WIDTH:0.9
G1 F1200
G1 X143.28 Y127.73 E54.05823
G1 X142.358 Y127.831 E54.17513
G1 X141.798 Y127.962 E54.24761
G1 X141.232 Y128.155 E54.32298
G1 X140.836 Y128.329 E54.37749
G1 X140.294 Y128.608 E54.45432
G1 X139.597 Y129.09 E54.56112
G1 X139.203 Y129.431 E54.62679
G1 X138.618 Y130.064 E54.73542
G1 X138.166 Y130.698 E54.83355
G1 X137.781 Y131.423 E54.93701
G1 X137.488 Y132.217 E55.04368
G1 X137.271 Y133.262 E55.17819
G1 X137.225 Y133.999 E55.27126
G1 X137.225 Y206.001 E64.34594
G1 X137.338 Y207.174 E64.49446
G1 X137.645 Y208.247 E64.63512
G1 X138.094 Y209.184 E64.76607
G1 X138.41 Y209.666 E64.83871
G1 X138.821 Y210.178 E64.92146
G1 X139.206 Y210.55 E64.98893
G1 X139.769 Y211.04 E65.083
G1 X140.651 Y211.59 E65.214
G1 X141.231 Y211.845 E65.29385
G1 X141.981 Y212.084 E65.39306
G1 X142.846 Y212.237 E65.50377
G1 X143.499 Y212.275 E65.58621
G1 X189.4 Y212.275 E71.37129
G1 X189.4 Y213.5 E71.52568
G1 X189.4 Y214.725 E71.68007
G1 X142.044 Y214.725 E77.64852
G1 X141.271 Y214.692 E77.74603
G1 X140.531 Y214.597 E77.84006
G1 X139.803 Y214.439 E77.93395
G1 X139.103 Y214.222 E78.02632
G1 X138.063 Y213.775 E78.16899
G1 X137.101 Y213.206 E78.30986
G1 X136.22 Y212.518 E78.45074
G1 X135.425 Y211.714 E78.59324
G1 X134.97 Y211.144 E78.68516
G1 X134.555 Y210.521 E78.7795
G1 X134.202 Y209.878 E78.87195
G1 X133.762 Y208.822 E79.01613
G1 X133.554 Y208.12 E79.10841
G1 X133.398 Y207.362 E79.20595
G1 X129.775 Y184.898 E82.07376
G1 X129.775 Y155.102 E85.82906
G1 X133.398 Y132.638 E88.69687
G1 X133.554 Y131.88 E88.79441
G1 X133.767 Y131.162 E88.8888
G1 X134.038 Y130.471 E88.98235
G1 X134.369 Y129.803 E89.07631
G1 X134.748 Y129.176 E89.16865
G1 X135.509 Y128.196 E89.32503
G1 X136.119 Y127.581 E89.4342
G1 X136.563 Y127.194 E89.50843
G1 X137.346 Y126.64 E89.62932
G1 X137.983 Y126.273 E89.72197
G1 X138.462 Y126.036 E89.78933
G1 X139.314 Y125.712 E89.90421
G1 X140.071 Y125.503 E90.00319
G1 X140.592 Y125.396 E90.07022
G1 X141.635 Y125.284 E90.20243
G1 X189.4 Y125.275 E96.22243
G1 X189.4 Y127.605 E96.51609
G1 X189.4 Y127.605 F9000
G1 X190.225 Y128.55
;TYPE:External perimeter
G1 F1200
G1 X143.28 Y128.555 E102.43274
G1 X142.551 Y128.633 E102.52514
G1 X142.063 Y128.744 E102.58822
G1 X141.201 Y129.069 E102.70433
G1 X140.752 Y129.294 E102.76763
G1 X140.181 Y129.677 E102.85428
G1 X139.798 Y130.001 E102.91751
G1 X139.284 Y130.552 E103.01248
G1 X138.89 Y131.095 E103.09703
G1 X138.55 Y131.722 E103.18692
G1 X138.293 Y132.395 E103.27771
G1 X138.094 Y133.316 E103.39647
G1 X138.05 Y133.999 E103.48273
G1 X138.05 Y206.001 E112.55741
G1 X138.141 Y206.982 E112.68158
G1 X138.393 Y207.898 E112.80132
G1 X138.78 Y208.724 E112.91628
G1 X139.053 Y209.15 E112.98005
G1 X139.403 Y209.586 E113.05052
G1 X139.763 Y209.942 E113.11433
G1 X140.212 Y210.344 E113.19029
G1 X141 Y210.842 E113.30778
G1 X141.496 Y211.064 E113.37627
G1 X142.124 Y211.272 E113.45965
G1 X142.989 Y211.425 E113.57036
G1 X143.499 Y211.45 E113.63471
G1 X190.225 Y211.45 E119.52376
G1 X190.225 Y213.5 E119.78213
G1 X190.225 Y215.55 E120.0405
G1 X142.026 Y215.55 E126.1152
G1 X141.201 Y215.515 E126.21927
G1 X140.391 Y215.41 E126.32221
G1 X139.594 Y215.237 E126.425
G1 X138.817 Y214.998 E126.52746
G1 X137.689 Y214.512 E126.68226
G1 X136.636 Y213.889 E126.83646
G1 X135.671 Y213.136 E126.99073
G1 X134.807 Y212.263 E127.14553
G1 X134.303 Y211.63 E127.24751
G1 X133.849 Y210.949 E127.35066
G1 X133.458 Y210.236 E127.45315
G1 X132.984 Y209.099 E127.6084
G1 X132.753 Y208.32 E127.71081
G1 X132.587 Y207.511 E127.8149
G1 X128.95 Y184.964 E130.69332
G1 X128.95 Y155.036 E134.46526
G1 X132.587 Y132.489 E137.34368
G1 X132.753 Y131.679 E137.44789
G1 X132.986 Y130.894 E137.55109
G1 X133.283 Y130.137 E137.65358
G1 X133.645 Y129.405 E137.7565
G1 X134.066 Y128.711 E137.8588
G1 X134.813 Y127.731 E138.0141
G1 X135.371 Y127.141 E138.11645
G1 X135.981 Y126.599 E138.21929
G1 X136.468 Y126.236 E138.29584
G1 X136.911 Y125.939 E138.36306
G1 X137.61 Y125.537 E138.46469
G1 X138.057 Y125.31 E138.52788
G1 X138.813 Y125.004 E138.63067
G1 X139.593 Y124.763 E138.73356
G1 X140.391 Y124.59 E138.83647
G1 X141.08 Y124.501 E138.92403
G1 X141.605 Y124.459 E138.99041
G1 X190.225 Y124.45 E145.11817
G1 X190.225 Y128.43 E145.61978
G1 X189.434 Y128.549 F9000
G1 E145.31978 F2400
G92 E0
G1 X189.434 Y127.763 F9000
G1 X143.487 Y127.763
G1 X143.228 Y127.768
G1 X142.958 Y127.786
G1 X142.688 Y127.815
G1 X142.419 Y127.857
G1 X142.152 Y127.91
G1 X141.888 Y127.974
G1 X141.627 Y128.05
G1 X141.367 Y128.138
G1 X141.115 Y128.236
G1 X140.866 Y128.346
G1 X140.622 Y128.466
G1 X140.383 Y128.597
G1 X140.149 Y128.739
G1 X139.924 Y128.889
G1 X139.705 Y129.05
G1 X139.492 Y129.22
G1 X139.288 Y129.399
G1 X139.199 Y129.485
G1 X138.434 Y128.685
G1 E.4 F2400
;TYPE:Solid infill
;WIDTH:0.900117
G1 F1200
G1 X137.812 Y128.063 E.51088
G1 X137.416 Y128.359 E.5732
G1 X137.165 Y128.582 E.61552
G1 X137.607 Y129.024 E.69431
G1 X137.104 Y129.688 E.79931
G1 X136.58 Y129.164 E.89272
G1 X136.543 Y129.203 E.8995
G1 X136.071 Y129.822 E.99762
G1 X136.671 Y130.423 E1.10467
G1 X136.446 Y130.874 E1.1682
G1 X136.309 Y131.227 E1.21593
G1 X135.617 Y130.535 E1.33929
G1 X135.359 Y131.056 E1.41257
G1 X135.25 Y131.335 E1.45033
G1 X136.031 Y132.116 E1.58955
G1 X135.878 Y132.809 E1.67901
G1 X135.84 Y133.092 E1.715
G1 X134.961 Y132.213 E1.87169
G1 X134.818 Y132.898 E1.9599
G1 X134.771 Y133.19 E1.99718
G1 X135.782 Y134.2 E2.17732
G1 X135.782 Y135.367 E2.32442
G1 X134.609 Y134.194 E2.53352
G1 X134.447 Y135.199 E2.66184
G1 X135.782 Y136.533 E2.89973
G1 X135.782 Y137.7 E3.04683
G1 X134.285 Y136.204 E3.3136
G1 X134.123 Y137.208 E3.44179
G1 X135.782 Y138.867 E3.73753
G1 X135.782 Y140.034 E3.88463
G1 X133.961 Y138.213 E4.20925
G1 X133.799 Y139.218 E4.33757
G1 X135.782 Y141.2 E4.69098
G1 X135.782 Y142.367 E4.83808
G1 X133.637 Y140.223 E5.22037
G1 X133.475 Y141.227 E5.34856
G1 X135.782 Y143.534 E5.75981
G1 X135.782 Y144.7 E5.90679
G1 X133.313 Y142.232 E6.34683
G1 X133.151 Y143.237 E6.47515
G1 X135.782 Y145.867 E6.94407
G1 X135.782 Y147.034 E7.09117
G1 X132.989 Y144.241 E7.58906
G1 X132.827 Y145.246 E7.71738
G1 X135.782 Y148.201 E8.24415
G1 X135.782 Y149.367 E8.39113
G1 X132.665 Y146.251 E8.94669
G1 X132.503 Y147.255 E9.07488
G1 X135.782 Y150.534 E9.65941
G1 X135.782 Y151.701 E9.80651
G1 X132.341 Y148.26 E10.41992
G1 X132.179 Y149.265 E10.54824
G1 X135.782 Y152.868 E11.19052
G1 X135.782 Y154.034 E11.3375
G1 X132.017 Y150.269 E12.00866
G1 X131.855 Y151.274 E12.13698
G1 X135.782 Y155.201 E12.83702
G1 X135.782 Y156.368 E12.98412
G1 X131.692 Y152.279 E13.71313
G1 X131.53 Y153.283 E13.84132
G1 X135.782 Y157.535 E14.5993
G1 X135.782 Y158.701 E14.74628
G1 X131.368 Y154.288 E15.53305
G1 X131.218 Y155.218 E15.65179
G1 X131.218 Y155.305 E15.66276
G1 X135.782 Y159.868 E16.47627
G1 X135.782 Y161.035 E16.62337
G1 X131.218 Y156.472 E17.43688
G1 X131.218 Y157.638 E17.58386
G1 X135.782 Y162.202 E18.39746
G1 X135.782 Y163.368 E18.54444
G1 X131.218 Y158.805 E19.35795
G1 X131.218 Y159.972 E19.50505
G1 X135.782 Y164.535 E20.31856
G1 X135.782 Y165.702 E20.46566
G1 X131.218 Y161.139 E21.27917
G1 X131.218 Y162.305 E21.42615
G1 X135.782 Y166.868 E22.23966
G1 X135.782 Y168.035 E22.38676
G1 X131.218 Y163.472 E23.20027
G1 X131.218 Y164.639 E23.34737
G1 X135.782 Y169.202 E24.16088
G1 X135.782 Y170.369 E24.30798
G1 X131.218 Y165.806 E25.12149
G1 X131.218 Y166.972 E25.26847
G1 X135.782 Y171.535 E26.08198
G1 X135.782 Y172.702 E26.22908
G1 X131.218 Y168.139 E27.04259
G1 X131.218 Y169.306 E27.18969
G1 X135.782 Y173.869 E28.0032
G1 X135.782 Y175.036 E28.1503
G1 X131.218 Y170.472 E28.9639
G1 X131.218 Y171.639 E29.111
G1 X135.782 Y176.202 E29.92451
G1 X135.782 Y177.369 E30.07161
G1 X131.218 Y172.806 E30.88512
G1 X131.218 Y173.973 E31.03222
G1 X135.782 Y178.536 E31.84573
G1 X135.782 Y179.703 E31.99283
G1 X131.218 Y175.139 E32.80643
G1 X131.218 Y176.306 E32.95353
G1 X135.782 Y180.869 E33.76704
G1 X135.782 Y182.036 E33.91414
G1 X131.218 Y177.473 E34.72765
G1 X131.218 Y178.64 E34.87475
G1 X135.782 Y183.203 E35.68826
G1 X135.782 Y184.369 E35.83524
G1 X131.218 Y179.806 E36.64875
G1 X131.218 Y180.973 E36.79585
G1 X135.782 Y185.536 E37.60936
G1 X135.782 Y186.703 E37.75646
G1 X131.218 Y182.14 E38.56997
G1 X131.218 Y183.307 E38.71707
G1 X135.782 Y187.87 E39.53058
G1 X135.782 Y189.036 E39.67756
G1 X131.218 Y184.473 E40.49107
G1 X131.218 Y184.782 E40.53002
G1 X131.383 Y185.805 E40.66064
G1 X135.782 Y190.203 E41.44473
G1 X135.782 Y191.37 E41.59183
G1 X131.608 Y187.196 E42.3359
G1 X131.832 Y188.587 E42.5135
G1 X135.782 Y192.537 E43.21764
G1 X135.782 Y193.703 E43.36462
G1 X132.057 Y189.978 E44.02865
