; generated by PrusaSlicer 2.8.0 on 2024-08-25 at 09:12:24 UTC

; 

; external perimeters extrusion width = 0.90mm
; perimeters extrusion width = 0.90mm
; infill extrusion width = 0.90mm
; solid infill extrusion width = 0.90mm
; top infill extrusion width = 0.80mm

M190 S60 ; set bed temperature and wait for it to be reached
;TYPE:Custom
; Start GCODE (begins)

G28 ; home all axes
G1 Z5 F5000 ; lift nozzle

M109 S200 ; Do this now so we can purge

; Extrude a small amount of waste material
G92 E0
G1 E20 F200
G92 E0

; Start GCODE (ends)
G21 ; set units to millimeters
G90 ; use absolute coordinates
M82 ; use absolute distances for extrusion
G92 E0
; Filament gcode
M107
;LAYER_CHANGE
;Z:0.35
;HEIGHT:0.35
G1 E-.3 F2400
G1 Z.35 F9000
G1 X127.385 Y136.981
G1 E.1 F2400
G92 E0
;TYPE:Skirt/Brim
;WIDTH:0.9
G1 F1200
G1 X130.654 Y134.045 E.55378
G1 X132.817 Y132.382 E.89765
G1 X135.06 Y130.862 E1.23914
G1 X136.671 Y129.878 E1.47706
G1 X139.069 Y128.577 E1.8209
G1 X143.081 Y126.783 E2.3748
G1 X147.244 Y125.376 E2.92864
G1 X151.522 Y124.369 E3.48255
G1 X155.876 Y123.772 E4.03644
G1 X158.58 Y123.612 E4.37783
G1 X160.469 Y123.591 E4.61592
G1 X164.856 Y123.843 E5.16974
G1 X169.2 Y124.509 E5.72363
G1 X171.857 Y125.128 E6.06747
G1 X174.454 Y125.899 E6.4089
G1 X176.237 Y126.521 E6.6469
G1 X178.764 Y127.55 E6.99078
G1 X182.694 Y129.515 E7.54456
G1 X186.422 Y131.842 E8.09843
G1 X189.912 Y134.512 E8.65225
G1 X191.168 Y135.61 E8.86251
G1 X193.276 Y137.645 E9.23179
G1 X196.187 Y140.937 E9.78564
G1 X197.832 Y143.114 E10.12954
G1 X199.453 Y145.555 E10.49885
G1 X201.588 Y149.396 E11.0527
G1 X203.351 Y153.421 E11.60651
G1 X204.724 Y157.596 E12.16042
G1 X205.697 Y161.881 E12.71422
G1 X206.26 Y166.239 E13.26804
G1 X206.366 Y167.904 E13.47831
G1 X206.405 Y170.834 E13.84762
G1 X206.118 Y175.219 E14.40146
G1 X205.418 Y179.557 E14.95527
G1 X204.311 Y183.81 E15.50915
G1 X202.806 Y187.939 E16.06303
G1 X200.917 Y191.907 E16.61691
G1 X198.662 Y195.679 E17.17079
G1 X197.086 Y197.906 E17.51464
G1 X195.252 Y200.19 E17.88382
G1 X192.238 Y203.389 E18.43776
G1 X188.936 Y206.288 E18.99155
G1 X187.613 Y207.304 E19.20179
G1 X185.204 Y208.973 E19.57115
G1 X181.405 Y211.182 E20.12501
G1 X177.414 Y213.021 E20.67884
G1 X173.267 Y214.475 E21.2327
G1 X169.001 Y215.531 E21.78659
G1 X164.655 Y216.178 E22.34037
G1 X161.731 Y216.379 E22.70976
G1 X159.003 Y216.401 E23.05359
G1 X154.619 Y216.099 E23.60743
G1 X150.283 Y215.383 E24.16131
G1 X146.035 Y214.26 E24.71509
G1 X144.453 Y213.73 E24.92537
G1 X141.725 Y212.662 E25.2946
G1 X137.772 Y210.742 E25.84847
G1 X134.018 Y208.457 E26.40236
G1 X130.497 Y205.827 E26.95625
G1 X128.443 Y204.032 E27.30005
G1 X126.359 Y201.972 E27.66937
G1 X123.486 Y198.647 E28.2232
G1 X121.751 Y196.286 E28.59247
G1 X120.831 Y194.895 E28.80266
G1 X118.652 Y191.078 E29.3566
G1 X116.844 Y187.073 E29.91042
G1 X115.422 Y182.915 E30.46427
G1 X114.401 Y178.64 E31.01822
G1 X113.788 Y174.289 E31.57201
G1 X113.616 Y171.566 E31.91588
G1 X113.606 Y168.857 E32.25731
G1 X113.688 Y166.97 E32.49536
G1 X113.946 Y164.254 E32.83921
G1 X114.696 Y159.924 E33.39306
G1 X115.852 Y155.685 E33.94683
G1 X117.404 Y151.573 E34.50077
G1 X119.338 Y147.627 E35.05462
G1 X120.168 Y146.18 E35.26486
G1 X121.751 Y143.714 E35.63419
G1 X124.408 Y140.214 E36.18802
G1 X127.303 Y137.07 E36.72667
G1 E36.42667 F2400
G92 E0
G1 X127.303 Y137.07 F9000
G92 E0
G1 X156.17 Y174.918
G1 E.4 F2400
;TYPE:Perimeter
;WIDTH:0.9
G1 F1200
G1 X155.916 Y174.723 E.44036
G1 X155.621 Y174.447 E.49128
G1 X155.02 Y173.761 E.60623
G1 X154.748 Y173.369 E.66636
G1 X154.417 Y172.796 E.74976
G1 X154.253 Y172.432 E.80008
G1 X153.943 Y171.516 E.92196
G1 X153.807 Y170.713 E1.02461
G1 X153.756 Y170.215 E1.0877
G1 X153.819 Y169.137 E1.2238
G1 X153.927 Y168.583 E1.29494
G1 X154.074 Y168.034 E1.36657
G1 X154.217 Y167.655 E1.41762
G1 X154.62 Y166.838 E1.53244
G1 X154.833 Y166.495 E1.58333
G1 X155.278 Y165.915 E1.67547
G1 X155.554 Y165.62 E1.72639
G1 X156.248 Y165.012 E1.84268
G1 X156.568 Y164.784 E1.8922
G1 X157.201 Y164.419 E1.98429
G1 X157.745 Y164.192 E2.05858
G1 X158.432 Y163.959 E2.15001
G1 X158.837 Y163.866 E2.20238
G1 X159.601 Y163.769 E2.29944
G1 X160.002 Y163.758 E2.35
G1 X160.872 Y163.819 E2.45992
G1 X161.586 Y163.971 E2.55192
G1 X162.078 Y164.106 E2.61622
G1 X162.592 Y164.322 E2.68649
G1 X163.042 Y164.546 E2.74984
G1 X163.658 Y164.938 E2.84186
G1 X164.021 Y165.229 E2.9005
G1 X164.519 Y165.69 E2.98603
G1 X165.044 Y166.313 E3.08871
G1 X165.429 Y166.934 E3.1808
G1 X165.683 Y167.398 E3.24747
G1 X165.984 Y168.211 E3.35673
G1 X166.084 Y168.603 E3.40772
G1 X166.223 Y169.504 E3.52262
G1 X166.239 Y170.008 E3.58617
G1 X166.183 Y170.862 E3.69403
G1 X166.117 Y171.261 E3.745
G1 X165.928 Y171.966 E3.83699
G1 X165.745 Y172.432 E3.90009
G1 X165.496 Y172.966 E3.97435
G1 X165.244 Y173.378 E4.03522
G1 X164.752 Y174.049 E4.14009
G1 X164.473 Y174.357 E4.19247
G1 X163.903 Y174.874 E4.28946
G1 X163.581 Y175.113 E4.34
G1 X162.833 Y175.563 E4.45002
G1 X162.433 Y175.748 E4.50556
G1 X161.57 Y176.041 E4.62042
G1 X160.887 Y176.171 E4.70805
G1 X160.362 Y176.238 E4.77475
G1 X159.82 Y176.226 E4.84308
G1 X159.137 Y176.182 E4.92934
G1 X158.74 Y176.116 E4.98006
G1 X158.035 Y175.927 E5.07205
G1 X157.656 Y175.784 E5.1231
G1 X156.839 Y175.381 E5.23792
G1 X156.496 Y175.168 E5.28881
G1 X156.265 Y174.991 E5.32549
G1 X156.265 Y174.991 F9000
G1 X156.687 Y174.274
G1 F1200
G1 X156.292 Y173.957 E5.38932
G1 X155.584 Y173.148 E5.52481
G1 X155.134 Y172.388 E5.63613
G1 X154.731 Y171.272 E5.78567
G1 X154.625 Y170.606 E5.87066
G1 X154.583 Y170.101 E5.93453
G1 X154.643 Y169.191 E6.04947
G1 X154.871 Y168.247 E6.17187
G1 X155.327 Y167.269 E6.30787
G1 X155.488 Y166.997 E6.34771
G1 X155.932 Y166.417 E6.43977
G1 X156.861 Y165.577 E6.59762
G1 X157.351 Y165.285 E6.66951
G1 X157.801 Y165.045 E6.73379
G1 X158.67 Y164.749 E6.84949
G1 X159.476 Y164.617 E6.95243
G1 X159.945 Y164.581 E7.01171
G1 X160.814 Y164.642 E7.1215
G1 X161.373 Y164.768 E7.19372
G1 X161.866 Y164.906 E7.25824
G1 X162.433 Y165.153 E7.33619
G1 X163.075 Y165.545 E7.43099
G1 X163.461 Y165.834 E7.49176
G1 X163.957 Y166.295 E7.5771
G1 X164.399 Y166.827 E7.66427
G1 X164.715 Y167.346 E7.74085
G1 X164.959 Y167.807 E7.80659
G1 X165.209 Y168.495 E7.89885
G1 X165.374 Y169.409 E8.01591
G1 X165.416 Y169.954 E8.0848
G1 X165.36 Y170.808 E8.19266
G1 X165.188 Y171.54 E8.28743
G1 X164.998 Y172.084 E8.36005
G1 X164.746 Y172.624 E8.43515
G1 X164.166 Y173.452 E8.56256
G1 X163.919 Y173.746 E8.61096
G1 X163.349 Y174.263 E8.70795
G1 X162.408 Y174.856 E8.84813
G1 X161.662 Y175.139 E8.94869
G1 X161.169 Y175.298 E9.01398
G1 X160.345 Y175.41 E9.11879
G1 X159.193 Y175.359 E9.26412
G1 X158.293 Y175.142 E9.3808
G1 X158.021 Y175.045 E9.4172
G1 X157.204 Y174.641 E9.53207
G1 X156.784 Y174.344 E9.5969
G1 X156.784 Y174.344 F9000
G1 X157.203 Y173.631
;TYPE:External perimeter
G1 F1200
G1 X156.918 Y173.412 E9.6422
G1 X156.535 Y172.987 E9.71431
G1 X156.177 Y172.544 E9.7861
G1 X155.848 Y171.975 E9.86894
G1 X155.519 Y171.028 E9.99529
G1 X155.406 Y170.155 E10.10624
G1 X155.466 Y169.246 E10.22105
G1 X155.668 Y168.461 E10.32321
G1 X156.067 Y167.634 E10.43894
G1 X156.642 Y166.86 E10.56046
G1 X157.329 Y166.258 E10.67558
G1 X158.099 Y165.814 E10.7876
G1 X158.962 Y165.521 E10.90246
G1 X159.887 Y165.404 E11.01997
G1 X160.757 Y165.465 E11.12989
G1 X161.541 Y165.667 E11.23193
G1 X162.1 Y165.908 E11.30865
G1 X162.632 Y166.241 E11.38775
G1 X162.9 Y166.439 E11.42975
G1 X163.396 Y166.899 E11.51501
G1 X163.754 Y167.341 E11.5867
G1 X164.154 Y168.024 E11.68646
G1 X164.434 Y168.775 E11.78748
G1 X164.558 Y169.534 E11.88441
G1 X164.593 Y169.9 E11.93075
G1 X164.537 Y170.754 E12.03861
G1 X164.391 Y171.326 E12.11301
G1 X164.25 Y171.735 E12.16754
G1 X164 Y172.271 E12.24208
G1 X163.365 Y173.135 E12.37722
G1 X162.795 Y173.652 E12.47421
G1 X161.983 Y174.149 E12.5942
G1 X160.961 Y174.497 E12.73027
G1 X160.232 Y174.593 E12.82294
G1 X159.247 Y174.536 E12.94729
G1 X158.507 Y174.345 E13.04361
G1 X157.5 Y173.859 E13.18453
G1 X157.298 Y173.704 E13.21662
G1 X156.709 Y173.163 F9000
G1 E12.91662 F2400
G92 E0
G1 X156.116 Y173.731 F9000
G1 X156.191 Y173.81
G1 X156.361 Y173.972
G1 X156.538 Y174.127
G1 X156.721 Y174.274
G1 X156.911 Y174.413
G1 X157.106 Y174.544
G1 X157.307 Y174.666
G1 X157.513 Y174.779
G1 X157.724 Y174.883
G1 X157.939 Y174.978
G1 X158.158 Y175.063
G1 X158.381 Y175.138
G1 X158.607 Y175.204
G1 X158.835 Y175.26
G1 X159.066 Y175.306
G1 X159.298 Y175.342
G1 X159.532 Y175.367
G1 X159.766 Y175.383
G1 X160.001 Y175.388
G1 X160.236 Y175.383
G1 X160.471 Y175.367
G1 X160.704 Y175.342
G1 X160.937 Y175.306
G1 X161.167 Y175.26
G1 X161.396 Y175.204
G1 X161.621 Y175.138
G1 X161.844 Y175.063
G1 X162.063 Y174.978
G1 X162.278 Y174.883
G1 X162.489 Y174.779
G1 X162.695 Y174.666
G1 X162.896 Y174.544
G1 X163.091 Y174.413
G1 X163.281 Y174.274
G1 X163.464 Y174.127
G1 X163.641 Y173.972
G1 X163.811 Y173.81
G1 X163.973 Y173.64
G1 X164.128 Y173.463
G1 X164.275 Y173.28
G1 X164.414 Y173.09
G1 X164.545 Y172.895
G1 X164.667 Y172.694
G1 X164.78 Y172.488
G1 X164.884 Y172.277
G1 X164.979 Y172.062
G1 X165.064 Y171.843
G1 X165.139 Y171.62
G1 X165.205 Y171.394
G1 X165.261 Y171.166
G1 X165.307 Y170.936
G1 X165.343 Y170.703
G1 X165.368 Y170.47
G1 X165.384 Y170.235
G1 X165.389 Y170
G1 X165.384 Y169.765
G1 X165.368 Y169.53
G1 X165.343 Y169.297
G1 X165.325 Y169.179
G1 X195.801 Y155.139
G1 X195 Y155.458
G1 E.4 F2400
;TYPE:Perimeter
G1 F1200
G1 X195.43 Y156.539 E.54663
G1 X195.837 Y157.664 E.69741
G1 X196.209 Y158.802 E.8483
G1 X196.544 Y159.95 E.99902
G1 X196.843 Y161.109 E1.14988
G1 X197.106 Y162.276 E1.30065
G1 X197.331 Y163.451 E1.45143
G1 X197.519 Y164.633 E1.60227
G1 X197.67 Y165.82 E1.75308
G1 X197.783 Y167.011 E1.90386
G1 X197.859 Y168.206 E2.05477
G1 X197.896 Y169.652 E2.23707
G1 X197.896 Y170.598 E2.3563
G1 X197.859 Y171.794 E2.50711
G1 X197.783 Y172.988 E2.6579
G1 X197.67 Y174.18 E2.80881
G1 X197.519 Y175.367 E2.95962
G1 X197.331 Y176.549 E3.11046
G1 X197.106 Y177.724 E3.26124
G1 X196.843 Y178.891 E3.41201
G1 X196.544 Y180.05 E3.56287
G1 X196.209 Y181.198 E3.71359
G1 X195.837 Y182.336 E3.86448
G1 X195.43 Y183.461 E4.01526
G1 X194.987 Y184.573 E4.16612
G1 X194.51 Y185.67 E4.31688
G1 X193.998 Y186.752 E4.46775
G1 X193.452 Y187.816 E4.61848
G1 X192.873 Y188.864 E4.76938
G1 X192.261 Y189.892 E4.92016
G1 X191.617 Y190.9 E5.07092
G1 X190.942 Y191.888 E5.22173
G1 X190.235 Y192.854 E5.3726
G1 X189.499 Y193.797 E5.52336
G1 X188.871 Y194.55 E5.64694
G1 X187.935 Y195.615 E5.82564
G1 X187.116 Y196.48 E5.97577
G1 X186.266 Y197.323 E6.12665
G1 X185.391 Y198.138 E6.27736
G1 X184.49 Y198.926 E6.42822
G1 X183.564 Y199.685 E6.57912
G1 X182.616 Y200.414 E6.72984
G1 X181.644 Y201.112 E6.88066
G1 X180.651 Y201.78 E7.03149
G1 X179.638 Y202.416 E7.18224
G1 X178.605 Y203.02 E7.33305
G1 X177.553 Y203.591 E7.48391
G1 X176.484 Y204.128 E7.63468
G1 X175.398 Y204.631 E7.78552
G1 X174.297 Y205.1 E7.93635
G1 X173.182 Y205.534 E8.08715
G1 X172.054 Y205.932 E8.23791
G1 X170.913 Y206.295 E8.38882
G1 X169.762 Y206.621 E8.53959
G1 X168.601 Y206.911 E8.69041
G1 X167.432 Y207.164 E8.84115
G1 X166.255 Y207.38 E8.99197
G1 X165.072 Y207.559 E9.14277
G1 X163.883 Y207.701 E9.29369
G1 X162.691 Y207.804 E9.44448
G1 X161.497 Y207.87 E9.59519
G1 X160.3 Y207.899 E9.7461
G1 X159.104 Y207.889 E9.89684
G1 X157.908 Y207.842 E10.04769
G1 X156.714 Y207.757 E10.19856
G1 X155.524 Y207.635 E10.34933
G1 X154.338 Y207.475 E10.50016
G1 X153.158 Y207.277 E10.65096
G1 X151.985 Y207.042 E10.80174
G1 X150.819 Y206.771 E10.95261
G1 X149.663 Y206.463 E11.10339
G1 X148.517 Y206.118 E11.25423
G1 X147.383 Y205.738 E11.40496
G1 X146.261 Y205.322 E11.55578
G1 X145.153 Y204.87 E11.7066
G1 X144.059 Y204.384 E11.85747
G1 X142.982 Y203.864 E12.0082
G1 X141.921 Y203.31 E12.15905
G1 X140.879 Y202.722 E12.30984
G1 X139.855 Y202.102 E12.46071
G1 X138.852 Y201.45 E12.61148
G1 X137.87 Y200.767 E12.76224
G1 X136.909 Y200.053 E12.91313
G1 X136.141 Y199.443 E13.03674
G1 X135.055 Y198.532 E13.21539
G1 X134.17 Y197.734 E13.36558
G1 X133.308 Y196.905 E13.51631
G1 X132.475 Y196.052 E13.66658
G1 X131.522 Y195.003 E13.8452
G1 X130.883 Y194.26 E13.96871
G1 X130.131 Y193.328 E14.11964
G1 X129.41 Y192.374 E14.27035
G1 X128.844 Y191.573 E14.39396
G1 X128.056 Y190.394 E14.57269
G1 X127.431 Y189.38 E14.72281
G1 X126.835 Y188.342 E14.87366
G1 X126.273 Y187.286 E15.02443
G1 X125.744 Y186.213 E15.17521
G1 X125.249 Y185.123 E15.32609
G1 X124.789 Y184.019 E15.47683
G1 X124.441 Y183.102 E15.60045
G1 X123.973 Y181.764 E15.7791
G1 X123.621 Y180.625 E15.92935
G1 X123.304 Y179.472 E16.08006
G1 X123.023 Y178.308 E16.23098
G1 X122.779 Y177.137 E16.38174
G1 X122.572 Y175.958 E16.53261
G1 X122.403 Y174.774 E16.68335
G1 X122.295 Y173.799 E16.80698
G1 X122.176 Y172.387 E16.98557
G1 X122.12 Y171.196 E17.13584
G1 X122.101 Y170 E17.2866
G1 X122.12 Y168.804 E17.43736
G1 X122.177 Y167.608 E17.58827
G1 X122.254 Y166.631 E17.71179
G1 X122.404 Y165.221 E17.8905
G1 X122.572 Y164.042 E18.04059
G1 X122.742 Y163.076 E18.16421
G1 X123.024 Y161.687 E18.34284
G1 X123.304 Y160.528 E18.49312
G1 X123.621 Y159.375 E18.64383
G1 X123.975 Y158.231 E18.79476
G1 X124.364 Y157.1 E18.9455
G1 X124.789 Y155.981 E19.09636
G1 X125.249 Y154.877 E19.2471
G1 X125.655 Y153.984 E19.37073
G1 X126.275 Y152.709 E19.54941
G1 X126.835 Y151.658 E19.6995
G1 X127.431 Y150.62 E19.85035
G1 X128.059 Y149.601 E20.00121
G1 X128.719 Y148.603 E20.15201
G1 X129.41 Y147.626 E20.30283
G1 X130.131 Y146.672 E20.45354
G1 X130.883 Y145.74 E20.60447
G1 X131.663 Y144.833 E20.75524
G1 X132.472 Y143.951 E20.90608
G1 X133.157 Y143.25 E21.02961
G1 X134.174 Y142.263 E21.20823
G1 X135.059 Y141.464 E21.3585
G1 X135.807 Y140.831 E21.482
G1 X136.913 Y139.944 E21.66068
G1 X137.87 Y139.233 E21.81094
G1 X138.852 Y138.55 E21.9617
G1 X139.851 Y137.901 E22.11184
G1 X141.067 Y137.172 E22.29053
G1 X141.921 Y136.69 E22.41412
G1 X142.982 Y136.136 E22.56497
G1 X144.059 Y135.616 E22.7157
G1 X145.153 Y135.13 E22.86657
G1 X146.261 Y134.678 E23.01739
G1 X147.383 Y134.262 E23.16821
G1 X148.517 Y133.882 E23.31894
G1 X149.663 Y133.537 E23.46978
G1 X150.819 Y133.229 E23.62056
G1 X151.985 Y132.957 E23.77146
G1 X153.158 Y132.723 E23.92221
G1 X154.338 Y132.525 E24.07301
G1 X155.524 Y132.365 E24.22384
G1 X156.714 Y132.243 E24.37461
G1 X157.908 Y132.158 E24.52548
G1 X159.104 Y132.111 E24.67633
G1 X160.3 Y132.101 E24.82707
G1 X161.28 Y132.124 E24.95062
G1 X162.696 Y132.196 E25.12931
G1 X163.883 Y132.299 E25.27947
G1 X165.072 Y132.441 E25.43039
G1 X166.255 Y132.62 E25.58119
G1 X167.432 Y132.836 E25.73201
G1 X168.601 Y133.089 E25.88275
G1 X169.762 Y133.379 E26.03357
G1 X170.913 Y133.705 E26.18434
G1 X172.054 Y134.068 E26.33525
G1 X173.182 Y134.466 E26.48601
G1 X174.297 Y134.9 E26.63681
G1 X175.398 Y135.369 E26.78764
G1 X176.484 Y135.872 E26.93848
G1 X177.553 Y136.409 E27.08925
G1 X178.605 Y136.98 E27.24011
G1 X179.638 Y137.584 E27.39092
G1 X180.651 Y138.22 E27.54167
G1 X181.644 Y138.888 E27.6925
G1 X182.616 Y139.586 E27.84332
G1 X183.393 Y140.184 E27.96689
G1 X184.494 Y141.077 E28.14556
G1 X185.391 Y141.862 E28.29579
G1 X186.266 Y142.677 E28.4465
G1 X187.116 Y143.52 E28.59738
G1 X187.938 Y144.389 E28.74814
G1 X188.589 Y145.122 E28.8717
G1 X189.502 Y146.207 E29.05042
G1 X190.235 Y147.146 E29.20055
G1 X190.814 Y147.938 E29.3242
G1 X191.62 Y149.104 E29.50285
G1 X192.261 Y150.108 E29.65298
G1 X192.873 Y151.136 E29.80376
G1 X193.452 Y152.184 E29.95466
G1 X193.998 Y153.248 E30.10539
G1 X194.418 Y154.135 E30.22908
G1 X194.952 Y155.348 E30.39612
G1 X194.952 Y155.348 F9000
G1 X195.756 Y155.129
G1 F1200
G1 X196.201 Y156.246 E30.54766
G1 X196.617 Y157.396 E30.70179
G1 X196.997 Y158.558 E30.85587
G1 X197.34 Y159.731 E31.0099
G1 X197.645 Y160.915 E31.164
G1 X197.913 Y162.108 E31.31811
G1 X198.144 Y163.309 E31.47225
G1 X198.336 Y164.516 E31.62629
G1 X198.49 Y165.729 E31.7804
G1 X198.605 Y166.946 E31.93447
G1 X198.683 Y168.167 E32.08867
G1 X198.721 Y169.652 E32.27589
G1 X198.721 Y170.611 E32.39676
G1 X198.683 Y171.833 E32.55085
G1 X198.605 Y173.054 E32.70505
G1 X198.49 Y174.271 E32.85912
G1 X198.336 Y175.484 E33.01323
G1 X198.144 Y176.691 E33.16727
G1 X197.913 Y177.892 E33.32141
