; generated by PrusaSlicer 2.8.0 on 2024-08-25 at 04:54:41 UTC

; 

; external perimeters extrusion width = 0.90mm
; perimeters extrusion width = 0.90mm
; infill extrusion width = 0.90mm
; solid infill extrusion width = 0.90mm
; top infill extrusion width = 0.80mm

M190 S60 ; set bed temperature and wait for it to be reached
;TYPE:Custom
; Start GCODE (begins)

G28 ; home all axes
G1 Z5 F5000 ; lift nozzle

M109 S200 ; Do this now so we can purge

; Extrude a small amount of waste material
G92 E0
G1 E20 F200
G92 E0

; Start GCODE (ends)
G21 ; set units to millimeters
G90 ; use absolute coordinates
M82 ; use absolute distances for extrusion
G92 E0
; Filament gcode
M107
;LAYER_CHANGE
;Z:0.35
;HEIGHT:0.35
G1 E-.3 F2400
G1 Z.35 F9000
G1 X133.381 Y140.984
G1 E.1 F2400
G92 E0
;TYPE:Skirt/Brim
;WIDTH:0.9
G1 F1200
G1 X138.113 Y137.279 E.75745
G1 X139.748 Y136.221 E1.0029
G1 X145.147 Y133.534 E1.76297
G1 X146.963 Y132.826 E2.00863
G1 X152.792 Y131.28 E2.76868
G1 X154.714 Y130.952 E3.01442
G1 X160.735 Y130.611 E3.77449
G1 X162.684 Y130.677 E4.02027
G1 X169.289 Y131.687 E4.8624
G1 X171.163 Y132.205 E5.10744
G1 X176.812 Y134.33 E5.86811
G1 X178.543 Y135.216 E6.11319
G1 X183.65 Y138.435 E6.87404
G1 X185.167 Y139.65 E7.119
G1 X189.521 Y143.831 E7.87979
G1 X190.762 Y145.327 E8.12477
G1 X194.185 Y150.299 E8.88556
G1 X195.1 Y152.014 E9.13055
G1 X197.452 Y157.573 E9.8913
G1 X198.01 Y159.462 E10.13955
G1 X199.188 Y165.356 E10.89708
G1 X199.352 Y167.293 E11.14208
G1 X199.322 Y173.33 E11.90296
G1 X199.09 Y175.286 E12.15121
G1 X197.848 Y181.167 E12.90876
G1 X197.235 Y183.011 E13.15367
G1 X194.826 Y188.546 E13.91447
G1 X193.854 Y190.23 E14.15953
G1 X190.381 Y195.167 E14.9203
G1 X189.09 Y196.62 E15.16527
G1 X184.694 Y200.757 E15.92608
G1 X183.116 Y201.937 E16.17442
G1 X177.998 Y205.088 E16.93191
G1 X176.215 Y205.926 E17.18021
G1 X170.568 Y207.982 E17.93763
G1 X168.653 Y208.444 E18.18591
G1 X162.707 Y209.322 E18.94343
G1 X160.738 Y209.389 E19.19173
G1 X155.383 Y209.117 E19.86751
G1 X152.795 Y208.721 E20.19748
G1 X146.985 Y207.182 E20.95499
G1 X145.149 Y206.467 E21.20332
G1 X139.767 Y203.791 E21.96085
G1 X138.113 Y202.721 E22.20913
G1 X133.381 Y199.016 E22.96658
G1 X131.976 Y197.635 E23.21488
G1 X128.483 Y193.567 E23.89066
G1 X126.987 Y191.418 E24.22067
G1 X124.385 Y186.73 E24.89642
G1 X123.353 Y184.324 E25.22637
G1 X121.748 Y179.208 E25.90214
G1 X121.324 Y177.308 E26.14749
G1 X120.679 Y171.312 E26.90755
G1 X120.678 Y168.691 E27.23788
G1 X121.221 Y163.357 E27.91362
G1 X121.585 Y161.421 E28.1619
G1 X123.353 Y155.676 E28.91948
G1 X124.09 Y153.874 E29.16485
G1 X126.986 Y148.584 E29.92494
G1 X128.086 Y146.947 E30.17351
G1 X131.976 Y142.365 E30.93104
G1 X133.295 Y141.068 E31.16418
G1 E30.86418 F2400
G92 E0
G92 E0
G1 X163.438 Y164.78 F9000
G1 E.4 F2400
;TYPE:Perimeter
;WIDTH:0.9
G1 F1200
G1 X163.642 Y164.914 E.43076
G1 X164.101 Y165.251 E.50253
G1 X164.749 Y165.882 E.61652
G1 X165.367 Y166.723 E.74806
G1 X165.855 Y167.697 E.88536
G1 X166.1 Y168.447 E.9848
G1 X166.227 Y169.15 E1.07484
G1 X166.291 Y169.658 E1.13937
G1 X166.285 Y170.41 E1.23415
G1 X166.127 Y171.442 E1.36573
G1 X165.983 Y171.929 E1.42974
G1 X165.781 Y172.483 E1.50406
G1 X165.43 Y173.136 E1.5975
G1 X165.136 Y173.62 E1.66887
G1 X164.892 Y173.944 E1.71999
G1 X164.394 Y174.487 E1.81285
G1 X163.743 Y175.039 E1.92042
G1 X162.852 Y175.581 E2.05186
G1 X162.483 Y175.748 E2.10291
G1 X161.62 Y176.041 E2.21777
G1 X161.227 Y176.133 E2.26864
G1 X160.503 Y176.228 E2.36067
G1 X160.098 Y176.241 E2.41174
G1 X159.189 Y176.182 E2.52655
G1 X158.79 Y176.116 E2.57752
G1 X158.085 Y175.927 E2.66951
G1 X157.706 Y175.784 E2.72056
G1 X156.889 Y175.381 E2.83538
G1 X156.546 Y175.168 E2.88627
G1 X155.96 Y174.718 E2.97939
G1 X155.671 Y174.447 E3.02932
G1 X155.07 Y173.762 E3.14417
G1 X154.835 Y173.433 E3.19513
G1 X154.47 Y172.8 E3.28722
G1 X154.303 Y172.432 E3.33815
G1 X154.01 Y171.569 E3.45301
G1 X153.918 Y171.175 E3.504
G1 X153.823 Y170.451 E3.59603
G1 X153.81 Y170.047 E3.64697
G1 X153.869 Y169.138 E3.76178
G1 X153.935 Y168.739 E3.81275
G1 X154.124 Y168.034 E3.90474
G1 X154.321 Y167.546 E3.97107
G1 X154.67 Y166.838 E4.07055
G1 X154.966 Y166.387 E4.13854
G1 X155.328 Y165.915 E4.21351
G1 X156.01 Y165.248 E4.33374
G1 X156.433 Y164.914 E4.40167
G1 X157.212 Y164.441 E4.51653
G1 X157.625 Y164.25 E4.57388
G1 X158.482 Y163.959 E4.68795
G1 X158.885 Y163.866 E4.74008
G1 X159.608 Y163.771 E4.83199
G1 X160.21 Y163.772 E4.90786
G1 X160.915 Y163.818 E4.9969
G1 X161.531 Y163.943 E5.07612
G1 X162.022 Y164.074 E5.14017
G1 X162.488 Y164.258 E5.20331
G1 X163.024 Y164.509 E5.2779
G1 X163.338 Y164.714 E5.32516
G1 X163.338 Y164.714 F9000
G1 X162.98 Y165.465
G1 F1200
G1 X163.154 Y165.579 E5.35138
G1 X163.613 Y165.916 E5.42315
G1 X164.153 Y166.452 E5.51904
G1 X164.691 Y167.196 E5.63476
G1 X165.108 Y168.045 E5.75397
G1 X165.308 Y168.679 E5.83776
G1 X165.409 Y169.258 E5.91184
G1 X165.472 Y169.783 E5.97848
G1 X165.46 Y170.392 E6.05525
G1 X165.315 Y171.299 E6.17101
G1 X165.006 Y172.2 E6.29106
G1 X164.431 Y173.192 E6.43557
G1 X164.046 Y173.647 E6.51069
G1 X163.649 Y174.057 E6.58262
G1 X163.227 Y174.396 E6.65084
G1 X162.439 Y174.867 E6.76654
G1 X161.355 Y175.26 E6.91186
G1 X160.395 Y175.41 E7.03432
G1 X159.243 Y175.359 E7.17965
G1 X159.004 Y175.319 E7.21019
G1 X158.298 Y175.13 E7.3023
G1 X157.254 Y174.641 E7.4476
G1 X156.469 Y174.069 E7.57002
G1 X155.691 Y173.218 E7.71534
G1 X155.184 Y172.388 E7.83792
G1 X154.791 Y171.304 E7.98324
G1 X154.641 Y170.344 E8.1057
G1 X154.693 Y169.192 E8.25104
G1 X154.921 Y168.247 E8.37356
G1 X155.41 Y167.203 E8.51886
G1 X155.982 Y166.418 E8.64128
G1 X156.567 Y165.856 E8.74352
G1 X156.861 Y165.62 E8.79104
G1 X157.64 Y165.147 E8.9059
G1 X158.391 Y164.861 E9.00718
G1 X158.932 Y164.693 E9.07858
G1 X159.518 Y164.615 E9.15309
G1 X159.957 Y164.582 E9.20857
G1 X160.86 Y164.641 E9.32262
G1 X161.804 Y164.87 E9.44505
G1 X162.619 Y165.23 E9.55734
G1 X162.88 Y165.4 E9.5966
G1 X162.88 Y165.4 F9000
G1 X162.52 Y166.154
;TYPE:External perimeter
G1 F1200
G1 X163.093 Y166.557 E9.68489
G1 X163.557 Y167.023 E9.76777
G1 X164.016 Y167.67 E9.86775
G1 X164.36 Y168.394 E9.96877
G1 X164.516 Y168.91 E10.03671
G1 X164.644 Y169.764 E10.14555
G1 X164.635 Y170.374 E10.22244
G1 X164.502 Y171.155 E10.32229
G1 X164.231 Y171.918 E10.42434
G1 X163.726 Y172.763 E10.54841
G1 X163.179 Y173.371 E10.65149
G1 X162.711 Y173.752 E10.72755
G1 X162.027 Y174.153 E10.82748
G1 X161.09 Y174.479 E10.95252
G1 X160.287 Y174.593 E11.05474
G1 X159.217 Y174.522 E11.18989
G1 X158.512 Y174.333 E11.28188
G1 X157.619 Y173.902 E11.40685
G1 X156.971 Y173.414 E11.50909
G1 X156.311 Y172.674 E11.63406
G1 X155.899 Y171.976 E11.73621
G1 X155.572 Y171.039 E11.86129
G1 X155.459 Y170.236 E11.96349
G1 X155.516 Y169.246 E12.08847
G1 X155.718 Y168.461 E12.19063
G1 X156.15 Y167.568 E12.31566
G1 X156.637 Y166.92 E12.41782
G1 X157.124 Y166.465 E12.50182
G1 X157.51 Y166.191 E12.56148
G1 X158.068 Y165.852 E12.64377
G1 X159.099 Y165.502 E12.78099
G1 X159.822 Y165.407 E12.8729
G1 X160.629 Y165.453 E12.97477
G1 X161.104 Y165.536 E13.03554
G1 X161.591 Y165.667 E13.0991
G1 X162.27 Y165.977 E13.19317
G1 X162.422 Y166.085 E13.21667
G1 X163.067 Y166.557 F9000
G1 E12.91667 F2400
G92 E0
G1 X163.601 Y165.949 F9000
G1 X163.691 Y166.028
G1 X163.861 Y166.19
G1 X164.024 Y166.36
G1 X164.179 Y166.537
G1 X164.326 Y166.72
G1 X164.465 Y166.91
G1 X164.595 Y167.105
G1 X164.717 Y167.306
G1 X164.83 Y167.512
G1 X164.934 Y167.723
G1 X165.029 Y167.938
G1 X165.114 Y168.157
G1 X165.19 Y168.38
G1 X165.255 Y168.606
G1 X165.311 Y168.834
G1 X165.357 Y169.064
G1 X165.393 Y169.297
G1 X165.418 Y169.53
G1 X165.434 Y169.765
G1 X165.439 Y170
G1 X165.434 Y170.235
G1 X165.418 Y170.47
G1 X165.393 Y170.703
G1 X165.387 Y170.743
G1 X177.168 Y191.315
G1 X176.775 Y191.295
G1 E.4 F2400
;TYPE:Perimeter
G1 F1200
G1 X176.77 Y191.331 E.40458
G1 X176.813 Y191.654 E.44565
G1 X176.51 Y191.532 E.48682
G1 X176.082 Y191.48 E.54116
G1 X175.798 Y191.495 E.577
G1 X175.373 Y191.594 E.632
G1 X174.959 Y191.792 E.68984
G1 X172.896 Y193.088 E.9969
G1 X172.529 Y193.447 E1.0616
G1 X172.276 Y193.853 E1.12189
G1 X172.134 Y194.26 E1.17622
G1 X172.111 Y194.585 E1.21728
G1 X171.839 Y194.405 E1.25839
G1 X171.43 Y194.268 E1.31275
G1 X171.149 Y194.225 E1.34858
G1 X170.713 Y194.236 E1.40355
G1 X170.267 Y194.347 E1.46148
G1 X167.985 Y195.201 E1.76857
G1 X167.554 Y195.478 E1.83314
G1 X167.225 Y195.825 E1.89341
G1 X167.004 Y196.195 E1.94773
G1 X166.915 Y196.509 E1.98886
G1 X166.685 Y196.278 E2.02994
G1 X166.312 Y196.061 E2.08433
G1 X166.045 Y195.963 E2.12018
G1 X165.616 Y195.886 E2.17511
G1 X165.157 Y195.905 E2.23301
G1 X162.75 Y196.282 E2.54007
G1 X162.271 Y196.467 E2.60479
G1 X161.879 Y196.741 E2.66507
G1 X161.588 Y197.059 E2.7194
G1 X161.438 Y197.348 E2.76044
G1 X161.26 Y197.075 E2.80151
G1 X160.938 Y196.788 E2.85587
G1 X160.696 Y196.639 E2.89169
G1 X160.291 Y196.477 E2.94667
G1 X159.838 Y196.403 E3.00452
G1 X157.404 Y196.288 E3.31163
G1 X156.898 Y196.372 E3.37628
G1 X156.459 Y196.561 E3.43652
G1 X156.11 Y196.814 E3.49085
G1 X155.905 Y197.067 E3.53189
G1 X155.785 Y196.764 E3.57296
G1 X155.527 Y196.418 E3.62736
G1 X155.321 Y196.223 E3.66311
G1 X154.956 Y195.983 E3.71817
G1 X154.527 Y195.819 E3.77605
G1 X152.167 Y195.217 E4.08301
G1 X151.654 Y195.198 E4.14771
G1 X151.186 Y195.294 E4.20792
G1 X150.793 Y195.472 E4.26229
G1 X150.541 Y195.678 E4.30331
G1 X150.485 Y195.358 E4.34425
G1 X150.302 Y194.967 E4.39866
G1 X150.139 Y194.734 E4.4345
G1 X149.83 Y194.426 E4.48949
G1 X149.443 Y194.179 E4.54735
G1 X147.993 Y193.467 E4.75094
G1 X147.252 Y193.113 E4.85444
G1 X146.753 Y192.991 E4.91918
G1 X146.275 Y192.992 E4.97942
G1 X145.855 Y193.087 E5.03369
G1 X145.567 Y193.238 E5.07467
G1 X145.576 Y192.913 E5.11565
G1 X145.476 Y192.493 E5.17006
G1 X145.363 Y192.233 E5.20579
G1 X145.123 Y191.868 E5.26085
G1 X144.793 Y191.548 E5.31878
G1 X142.861 Y190.064 E5.62582
G1 X142.397 Y189.844 E5.69054
G1 X141.929 Y189.748 E5.75075
G1 X141.498 Y189.756 E5.80508
G1 X141.185 Y189.847 E5.84616
G1 X141.26 Y189.53 E5.88722
G1 X141.246 Y189.099 E5.94157
G1 X141.188 Y188.821 E5.97736
G1 X141.026 Y188.415 E6.03245
G1 X140.768 Y188.036 E6.09023
G1 X139.767 Y186.87 E6.28391
G1 X139.174 Y186.193 E6.39734
G1 X138.764 Y185.884 E6.46205
G1 X138.325 Y185.696 E6.52224
G1 X137.901 Y185.617 E6.5766
G1 X137.576 Y185.643 E6.61769
G1 X137.713 Y185.348 E6.65868
G1 X137.787 Y184.923 E6.71305
G1 X137.786 Y184.638 E6.74897
G1 X137.709 Y184.209 E6.8039
G1 X137.532 Y183.785 E6.86181
G1 X136.342 Y181.659 E7.16888
G1 X136.003 Y181.274 E7.23353
G1 X135.61 Y181.001 E7.29384
G1 X135.211 Y180.839 E7.34811
G1 X134.887 Y180.799 E7.38925
G1 X135.081 Y180.537 E7.43034
G1 X135.238 Y180.135 E7.48473
G1 X135.295 Y179.857 E7.5205
G1 X135.306 Y179.42 E7.57559
G1 X135.218 Y178.97 E7.63338
G1 X134.774 Y177.554 E7.82041
G1 X134.481 Y176.648 E7.94042
G1 X134.225 Y176.202 E8.00523
G1 X133.896 Y175.856 E8.0654
G1 X133.537 Y175.617 E8.11976
G1 X133.229 Y175.512 E8.16077
G1 X133.471 Y175.295 E8.20174
G1 X133.706 Y174.933 E8.25613
G1 X133.818 Y174.672 E8.29193
G1 X133.916 Y174.246 E8.34702
G1 X133.921 Y173.787 E8.40487
G1 X133.666 Y171.364 E8.71194
G1 X133.506 Y170.877 E8.77655
G1 X133.253 Y170.471 E8.83684
G1 X132.95 Y170.164 E8.8912
G1 X132.668 Y170 E8.93231
G1 X132.95 Y169.836 E8.97342
G1 X133.253 Y169.529 E9.02778
G1 X133.414 Y169.295 E9.06358
G1 X133.596 Y168.898 E9.11862
G1 X133.693 Y168.45 E9.17639
G1 X133.931 Y166.025 E9.48349
G1 X133.873 Y165.515 E9.54818
G1 X133.706 Y165.067 E9.60844
G1 X133.471 Y164.705 E9.66283
G1 X133.229 Y164.488 E9.7038
G1 X133.537 Y164.383 E9.74481
G1 X133.896 Y164.144 E9.79917
G1 X134.101 Y163.948 E9.83492
G1 X134.36 Y163.596 E9.89
G1 X134.545 Y163.176 E9.94784
G1 X135.266 Y160.848 E10.255
G1 X135.311 Y160.337 E10.31965
G1 X135.239 Y159.865 E10.37983
G1 X135.081 Y159.464 E10.43415
G1 X134.887 Y159.201 E10.47534
G1 X135.211 Y159.161 E10.51648
G1 X135.61 Y158.999 E10.57075
G1 X135.851 Y158.848 E10.60659
G1 X136.175 Y158.555 E10.66165
G1 X136.441 Y158.181 E10.71949
G1 X137.616 Y156.047 E11.02652
G1 X137.763 Y155.555 E11.09124
G1 X137.787 Y155.078 E11.15143
G1 X137.713 Y154.653 E11.2058
G1 X137.576 Y154.357 E11.24691
G1 X137.901 Y154.383 E11.288
G1 X138.325 Y154.304 E11.34236
G1 X138.591 Y154.205 E11.37813
G1 X138.967 Y153.983 E11.43316
G1 X139.303 Y153.67 E11.49103
G1 X140.884 Y151.816 E11.79812
G1 X141.127 Y151.364 E11.8628
G1 X141.246 Y150.902 E11.92293
G1 X141.26 Y150.471 E11.97728
G1 X141.185 Y150.153 E12.01846
G1 X141.499 Y150.244 E12.05966
G1 X141.93 Y150.252 E12.11399
G1 X142.21 Y150.208 E12.14971
G1 X142.623 Y150.067 E12.20471
G1 X143.015 Y149.828 E12.26257
G1 X144.236 Y148.883 E12.45716
G1 X144.936 Y148.33 E12.56959
G1 X145.265 Y147.936 E12.63428
G1 X145.475 Y147.508 E12.69437
G1 X145.576 Y147.088 E12.74881
G1 X145.567 Y146.762 E12.78991
G1 X145.856 Y146.914 E12.83106
G1 X146.276 Y147.008 E12.8853
G1 X146.56 Y147.022 E12.92114
G1 X146.993 Y146.966 E12.97617
G1 X147.425 Y146.811 E13.03402
G1 X149.608 Y145.731 E13.34098
G1 X150.009 Y145.412 E13.40556
G1 X150.302 Y145.034 E13.46584
G1 X150.484 Y144.643 E13.5202
G1 X150.541 Y144.322 E13.56129
G1 X150.793 Y144.529 E13.60239
G1 X151.186 Y144.706 E13.65671
G1 X151.462 Y144.776 E13.6926
G1 X151.897 Y144.809 E13.74758
G1 X152.351 Y144.744 E13.80538
G1 X154.707 Y144.126 E14.11236
G1 X155.165 Y143.893 E14.17712
G1 X155.527 Y143.582 E14.23727
G1 X155.785 Y143.236 E14.29167
G1 X155.905 Y142.933 E14.33274
G1 X156.11 Y143.186 E14.37378
G1 X156.459 Y143.439 E14.42811
G1 X156.715 Y143.564 E14.46402
G1 X157.134 Y143.683 E14.51892
G1 X157.592 Y143.711 E14.57675
G1 X160.025 Y143.579 E14.88384
G1 X160.52 Y143.444 E14.94851
G1 X160.937 Y143.212 E15.00865
G1 X161.259 Y142.925 E15.06301
G1 X161.438 Y142.652 E15.10415
G1 X161.589 Y142.942 E15.14536
G1 X161.88 Y143.26 E15.19969
G1 X162.105 Y143.433 E15.23546
G1 X162.492 Y143.635 E15.29048
G1 X162.935 Y143.755 E15.34833
G1 X165.344 Y144.115 E15.65532
G1 X165.856 Y144.082 E15.71998
G1 X166.312 Y143.939 E15.78021
G1 X166.685 Y143.723 E15.83453
G1 X166.915 Y143.491 E15.8757
G1 X167.004 Y143.805 E15.91683
G1 X167.225 Y144.175 E15.97115
G1 X167.411 Y144.39 E16.00698
G1 X167.664 Y144.607 E16.04899
G1 X168.154 Y144.871 E16.11914
G1 X170.446 Y145.71 E16.42675
G1 X170.954 Y145.781 E16.4914
G1 X171.43 Y145.733 E16.5517
G1 X171.839 Y145.596 E16.60606
G1 X172.111 Y145.415 E16.64724
G1 X172.134 Y145.741 E16.68843
G1 X172.277 Y146.148 E16.7428
G1 X172.415 Y146.396 E16.77857
G1 X172.691 Y146.734 E16.83357
G1 X173.051 Y147.019 E16.89144
G1 X174.674 Y148.03 E17.13243
G1 X175.123 Y148.3 E17.19846
G1 X175.606 Y148.472 E17.26308
G1 X176.082 Y148.52 E17.32338
G1 X176.51 Y148.468 E17.37772
G1 X176.813 Y148.346 E17.41889
G1 X176.77 Y148.67 E17.46008
G1 X176.828 Y149.097 E17.51439
G1 X176.914 Y149.368 E17.55022
G1 X177.116 Y149.755 E17.60524
G1 X177.411 Y150.106 E17.66303
G1 X179.183 Y151.778 E17.97009
G1 X179.622 Y152.044 E18.03478
G1 X180.078 Y152.187 E18.09501
G1 X180.508 Y152.222 E18.14938
G1 X180.828 Y152.164 E18.19037
G1 X180.722 Y152.471 E18.2313
G1 X180.692 Y152.901 E18.28563
G1 X180.721 Y153.184 E18.32148
G1 X180.842 Y153.604 E18.37657
G1 X181.06 Y154.008 E18.43443
G1 X181.904 Y155.22 E18.62057
G1 X182.459 Y156.002 E18.74143
G1 X182.836 Y156.351 E18.80618
G1 X183.254 Y156.583 E18.86643
G1 X183.668 Y156.704 E18.92079
G1 X183.993 Y156.711 E18.96176
G1 X183.827 Y156.991 E19.00279
G1 X183.711 Y157.406 E19.0571
G1 X183.683 Y157.689 E19.09294
G1 X183.717 Y158.125 E19.14806
G1 X183.85 Y158.564 E19.20587
G1 X184.818 Y160.8 E19.51296
G1 X185.117 Y161.217 E19.57763
G1 X185.48 Y161.528 E19.63787
G1 X185.861 Y161.73 E19.69222
G1 X186.178 Y161.803 E19.73322
G1 X185.959 Y162.044 E19.77426
G1 X185.762 Y162.427 E19.82854
G1 X185.678 Y162.699 E19.86442
G1 X185.623 Y163.132 E19.91943
G1 X185.664 Y163.589 E19.97726
G1 X186.049 Y165.461 E20.21813
G1 X186.163 Y165.973 E20.28424
G1 X186.372 Y166.442 E20.34895
G1 X186.665 Y166.82 E20.40923
G1 X186.997 Y167.094 E20.46348
G1 X187.294 Y167.23 E20.50465
G1 X187.03 Y167.422 E20.54579
G1 X186.76 Y167.758 E20.60012
G1 X186.623 Y168.007 E20.63594
G1 X186.482 Y168.42 E20.69094
