; generated by PrusaSlicer 2.8.0 on 2024-08-25 at 09:12:28 UTC

; 

; external perimeters extrusion width = 0.90mm
; perimeters extrusion width = 0.90mm
; infill extrusion width = 0.90mm
; solid infill extrusion width = 0.90mm
; top infill extrusion width = 0.80mm

M190 S60 ; set bed temperature and wait for it to be reached
;TYPE:Custom
; Start GCODE (begins)

G28 ; home all axes
G1 Z5 F5000 ; lift nozzle

M109 S200 ; Do this now so we can purge

; Extrude a small amount of waste material
G92 E0
G1 E20 F200
G92 E0

; Start GCODE (ends)
G21 ; set units to millimeters
G90 ; use absolute coordinates
M82 ; use absolute distances for extrusion
G92 E0
; Filament gcode
M107
;LAYER_CHANGE
;Z:0.35
;HEIGHT:0.35
G1 E-.3 F2400
G1 Z.35 F9000
G1 X127.385 Y136.981
G1 E.1 F2400
G92 E0
;TYPE:Skirt/Brim
;WIDTH:0.9
G1 F1200
G1 X130.654 Y134.045 E.55378
G1 X132.817 Y132.383 E.89757
G1 X134.371 Y131.31 E1.13558
G1 X136.671 Y129.878 E1.47705
G1 X139.069 Y128.577 E1.82089
G1 X143.081 Y126.783 E2.37479
G1 X147.244 Y125.376 E2.92863
G1 X151.522 Y124.369 E3.48254
G1 X155.876 Y123.772 E4.03643
G1 X158.801 Y123.604 E4.40569
G1 X160.469 Y123.591 E4.61592
G1 X164.856 Y123.843 E5.16974
G1 X167.559 Y124.208 E5.5135
G1 X169.416 Y124.556 E5.75162
G1 X172.052 Y125.18 E6.09303
G1 X174.665 Y125.966 E6.43693
G1 X178.764 Y127.55 E6.99077
G1 X182.694 Y129.515 E7.54455
G1 X186.422 Y131.842 E8.09842
G1 X189.912 Y134.512 E8.65224
G1 X192.092 Y136.471 E9.02163
G1 X193.276 Y137.645 E9.23178
G1 X196.187 Y140.937 E9.78563
G1 X197.832 Y143.114 E10.12953
G1 X199.453 Y145.555 E10.49884
G1 X201.588 Y149.396 E11.05269
G1 X203.351 Y153.421 E11.6065
G1 X204.724 Y157.596 E12.16041
G1 X205.141 Y159.21 E12.37051
G1 X205.732 Y162.08 E12.73982
G1 X206.276 Y166.441 E13.29371
G1 X206.405 Y170.834 E13.84762
G1 X206.118 Y175.219 E14.40146
G1 X205.418 Y179.557 E14.95527
G1 X204.311 Y183.81 E15.50915
G1 X202.806 Y187.939 E16.06303
G1 X200.917 Y191.907 E16.61691
G1 X198.662 Y195.679 E17.17079
G1 X196.06 Y199.22 E17.72461
G1 X194.281 Y201.288 E18.06842
G1 X192.238 Y203.389 E18.43777
G1 X188.936 Y206.288 E18.99156
G1 X185.374 Y208.862 E19.54544
G1 X181.585 Y211.088 E20.0993
G1 X180.094 Y211.837 E20.30959
G1 X177.414 Y213.021 E20.67886
G1 X173.267 Y214.475 E21.23272
G1 X169.001 Y215.531 E21.78661
G1 X164.655 Y216.178 E22.34039
G1 X161.731 Y216.38 E22.70979
G1 X159.003 Y216.401 E23.05362
G1 X154.619 Y216.099 E23.60746
G1 X150.283 Y215.383 E24.16134
G1 X146.035 Y214.26 E24.71512
G1 X144.453 Y213.73 E24.9254
G1 X141.725 Y212.662 E25.29463
G1 X137.772 Y210.742 E25.8485
G1 X135.417 Y209.366 E26.19226
G1 X133.837 Y208.331 E26.43031
G1 X131.643 Y206.741 E26.77181
G1 X129.533 Y205.011 E27.1157
G1 X126.359 Y201.972 E27.66953
G1 X123.486 Y198.647 E28.22336
G1 X121.751 Y196.286 E28.59263
G1 X120.831 Y194.895 E28.80282
G1 X118.652 Y191.078 E29.35676
G1 X116.844 Y187.073 E29.91058
G1 X115.422 Y182.915 E30.46443
G1 X114.401 Y178.64 E31.01838
G1 X113.788 Y174.289 E31.57217
G1 X113.616 Y171.566 E31.91604
G1 X113.593 Y169.678 E32.15401
G1 X113.688 Y166.97 E32.49552
G1 X113.946 Y164.254 E32.83937
G1 X114.696 Y159.924 E33.39322
G1 X115.852 Y155.685 E33.94699
G1 X117.404 Y151.573 E34.50093
G1 X119.338 Y147.627 E35.05478
G1 X121.636 Y143.881 E35.60866
G1 X124.278 Y140.37 E36.16245
G1 X125.515 Y138.943 E36.40047
G1 X127.302 Y137.068 E36.72692
G1 E36.42692 F2400
G92 E0
G1 X127.302 Y137.068 F9000
G92 E0
G1 X166.173 Y171.128
G1 E.4 F2400
;TYPE:Perimeter
;WIDTH:0.9
G1 F1200
G1 X166.056 Y171.721 E.47618
G1 X165.79 Y172.445 E.57339
G1 X165.578 Y172.931 E.64022
G1 X165.295 Y173.403 E.70958
G1 X165.055 Y173.752 E.76296
G1 X164.578 Y174.321 E.85654
G1 X164.288 Y174.605 E.9077
G1 X163.569 Y175.182 E1.02389
G1 X163.23 Y175.403 E1.07489
G1 X162.575 Y175.744 E1.16796
G1 X161.937 Y175.972 E1.25335
G1 X161.309 Y176.155 E1.33579
G1 X160.887 Y176.23 E1.38981
G1 X160.18 Y176.292 E1.47926
G1 X159.314 Y176.259 E1.58848
G1 X158.259 Y176.05 E1.72403
G1 X157.395 Y175.722 E1.84051
G1 X156.915 Y175.484 E1.90803
G1 X156.047 Y174.901 E2.03981
G1 X155.235 Y174.117 E2.18207
G1 X154.918 Y173.686 E2.2495
G1 X154.528 Y173.102 E2.33801
G1 X154.337 Y172.746 E2.38893
G1 X154.01 Y171.945 E2.49797
G1 X153.841 Y171.247 E2.58848
G1 X153.745 Y170.73 E2.65475
G1 X153.718 Y169.67 E2.78839
G1 X153.758 Y169.223 E2.84495
G1 X153.937 Y168.323 E2.9606
G1 X154.075 Y167.886 E3.01836
G1 X154.34 Y167.248 E3.10543
G1 X154.53 Y166.893 E3.15618
G1 X155.041 Y166.13 E3.27192
G1 X155.297 Y165.818 E3.32279
G1 X155.819 Y165.295 E3.41592
G1 X156.132 Y165.039 E3.46688
G1 X156.899 Y164.526 E3.58318
G1 X157.395 Y164.278 E3.65307
G1 X157.938 Y164.053 E3.72715
G1 X158.749 Y163.841 E3.8328
G1 X159.291 Y163.742 E3.90224
G1 X159.82 Y163.707 E3.96906
G1 X160.896 Y163.771 E4.10491
G1 X161.761 Y163.954 E4.21634
G1 X162.766 Y164.344 E4.35221
G1 X163.255 Y164.616 E4.42273
G1 X163.684 Y164.891 E4.48695
G1 X164.496 Y165.586 E4.62166
G1 X164.91 Y166.057 E4.70069
G1 X165.48 Y166.906 E4.82957
G1 X165.79 Y167.555 E4.92022
G1 X165.982 Y168.024 E4.98409
G1 X166.128 Y168.573 E5.05569
G1 X166.227 Y169.068 E5.11931
G1 X166.277 Y169.636 E5.19117
G1 X166.297 Y170.135 E5.25411
G1 X166.26 Y170.69 E5.32421
G1 X166.197 Y171.011 E5.36544
G1 X166.197 Y171.011 F9000
G1 X165.368 Y170.969
G1 F1200
G1 X165.251 Y171.542 E5.43915
G1 X165.028 Y172.129 E5.51829
G1 X164.823 Y172.59 E5.58188
G1 X164.533 Y173.068 E5.65234
G1 X164.002 Y173.724 E5.75871
G1 X163.772 Y173.962 E5.80042
G1 X163.052 Y174.539 E5.91671
G1 X162.552 Y174.826 E5.98937
G1 X162.088 Y175.062 E6.05498
G1 X161.083 Y175.361 E6.18713
G1 X160.12 Y175.469 E6.30926
G1 X159.367 Y175.436 E6.40425
G1 X158.459 Y175.25 E6.52106
G1 X157.711 Y174.96 E6.62217
G1 X157.357 Y174.787 E6.67183
G1 X156.59 Y174.275 E6.78806
G1 X155.843 Y173.56 E6.91838
G1 X155.216 Y172.648 E7.05787
G1 X154.79 Y171.677 E7.19151
G1 X154.647 Y171.069 E7.27023
G1 X154.563 Y170.579 E7.33289
G1 X154.543 Y169.652 E7.44975
G1 X154.616 Y169.135 E7.51556
G1 X154.746 Y168.484 E7.59923
G1 X155.102 Y167.565 E7.72344
G1 X155.599 Y166.779 E7.84064
G1 X155.88 Y166.401 E7.9
G1 X156.403 Y165.879 E7.99313
G1 X157.364 Y165.208 E8.14085
G1 X158.253 Y164.815 E8.26335
G1 X158.928 Y164.647 E8.35102
G1 X159.367 Y164.564 E8.40733
G1 X159.915 Y164.528 E8.47655
G1 X160.824 Y164.592 E8.5914
G1 X161.565 Y164.755 E8.68702
G1 X162.431 Y165.098 E8.80441
G1 X163.07 Y165.468 E8.89747
G1 X163.592 Y165.887 E8.98183
G1 X163.928 Y166.188 E9.03868
G1 X164.29 Y166.601 E9.1079
G1 X164.785 Y167.349 E9.22095
G1 X165.028 Y167.87 E9.2934
G1 X165.219 Y168.342 E9.35757
G1 X165.376 Y168.97 E9.43916
G1 X165.455 Y169.708 E9.5327
G1 X165.473 Y170.081 E9.57977
G1 X165.437 Y170.635 E9.64974
G1 X165.393 Y170.851 E9.67752
G1 X165.393 Y170.851 F9000
G1 X164.565 Y170.81
;TYPE:External perimeter
G1 F1200
G1 X164.445 Y171.364 E9.74896
G1 X164.141 Y172.115 E9.85107
G1 X163.884 Y172.547 E9.91442
G1 X163.37 Y173.194 E10.01856
G1 X162.804 Y173.68 E10.11258
G1 X162.468 Y173.94 E10.16613
G1 X161.813 Y174.281 E10.2592
G1 X160.852 Y174.569 E10.38564
G1 X160.048 Y174.647 E10.48745
G1 X159.421 Y174.613 E10.56659
G1 X158.638 Y174.444 E10.66755
G1 X157.815 Y174.102 E10.77988
G1 X157.048 Y173.589 E10.89618
G1 X156.463 Y173.015 E10.99947
G1 X155.902 Y172.19 E11.12521
G1 X155.57 Y171.409 E11.23217
G1 X155.387 Y170.561 E11.34151
G1 X155.368 Y169.635 E11.45824
G1 X155.555 Y168.645 E11.58522
G1 X155.863 Y167.881 E11.68904
G1 X156.463 Y166.985 E11.82495
G1 X156.986 Y166.462 E11.91817
G1 X157.815 Y165.898 E12.04454
G1 X158.569 Y165.578 E12.14777
G1 X159.421 Y165.387 E12.25782
G1 X159.97 Y165.351 E12.32716
G1 X160.753 Y165.414 E12.42616
G1 X161.369 Y165.557 E12.50586
G1 X162.116 Y165.86 E12.60746
G1 X162.642 Y166.174 E12.68467
G1 X163.062 Y166.519 E12.75317
G1 X163.515 Y166.968 E12.83356
G1 X163.714 Y167.205 E12.87256
G1 X164.108 Y167.822 E12.96483
G1 X164.424 Y168.568 E13.06694
G1 X164.575 Y169.166 E13.14467
G1 X164.633 Y169.78 E13.2224
G1 X164.614 Y170.58 E13.32326
G1 X164.59 Y170.693 E13.33782
G1 X164.387 Y171.466 F9000
G1 E13.03782 F2400
G92 E0
G1 X165.156 Y171.727 F9000
G1 X165.187 Y171.635
G1 X165.254 Y171.407
G1 X165.31 Y171.177
G1 X165.356 Y170.944
G1 X165.392 Y170.71
G1 X165.418 Y170.474
G1 X165.434 Y170.237
G1 X165.439 Y170
G1 X165.434 Y169.763
G1 X165.418 Y169.526
G1 X165.392 Y169.29
G1 X165.356 Y169.056
G1 X165.31 Y168.823
G1 X165.254 Y168.593
G1 X165.187 Y168.365
G1 X165.117 Y168.157
G1 X165.105 Y168.124
G1 X165.025 Y167.919
G1 X164.929 Y167.702
G1 X164.824 Y167.489
G1 X164.71 Y167.281
G1 X164.587 Y167.078
G1 X164.455 Y166.881
G1 X164.315 Y166.69
G1 X164.167 Y166.505
G1 X164.01 Y166.326
G1 X163.846 Y166.155
G1 X163.675 Y165.991
G1 X163.496 Y165.834
G1 X163.311 Y165.686
G1 X163.12 Y165.546
G1 X162.923 Y165.414
G1 X162.72 Y165.291
G1 X162.512 Y165.177
G1 X162.299 Y165.072
G1 X162.082 Y164.976
G1 X161.861 Y164.89
G1 X161.653 Y164.82
G1 X161.619 Y164.809
G1 X161.409 Y164.748
G1 X161.178 Y164.691
G1 X160.945 Y164.645
G1 X160.711 Y164.609
G1 X160.475 Y164.583
G1 X160.238 Y164.567
G1 X159.997 Y164.562
G1 X159.764 Y164.567
G1 X159.545 Y164.582
G1 X159.51 Y164.585
G1 X159.291 Y164.609
G1 X159.057 Y164.645
G1 X158.824 Y164.691
G1 X158.598 Y164.746
G1 X158.383 Y164.809
G1 X158.349 Y164.82
G1 X158.141 Y164.89
G1 X157.92 Y164.976
G1 X157.703 Y165.072
G1 X157.506 Y165.169
G1 X157.475 Y165.185
G1 X157.282 Y165.291
G1 X157.094 Y165.405
G1 X157.065 Y165.424
G1 X156.882 Y165.546
G1 X156.691 Y165.686
G1 X156.506 Y165.834
G1 X156.327 Y165.991
G1 X156.169 Y166.143
G1 X156.144 Y166.168
G1 X155.992 Y166.326
G1 X155.836 Y166.505
G1 X155.69 Y166.686
G1 X155.593 Y166.819
G1 X126.104 Y151.2
G1 X126.852 Y151.629
G1 E.4 F2400
;TYPE:Perimeter
G1 F1200
G1 X127.431 Y150.62 E.54662
G1 X128.059 Y149.601 E.69748
G1 X128.719 Y148.603 E.84828
G1 X129.407 Y147.63 E.99847
G1 X130.267 Y146.504 E1.17704
G1 X130.883 Y145.74 E1.30073
G1 X131.66 Y144.837 E1.45087
G1 X132.623 Y143.797 E1.62951
G1 X133.308 Y143.095 E1.75313
G1 X134.167 Y142.269 E1.90332
G1 X135.224 Y141.325 E2.08193
G1 X135.972 Y140.691 E2.20551
G1 X136.909 Y139.947 E2.3563
G1 X137.869 Y139.233 E2.50709
G1 X138.852 Y138.55 E2.65795
G1 X139.851 Y137.901 E2.80809
G1 X141.067 Y137.172 E2.98678
G1 X141.921 Y136.69 E3.11037
G1 X142.982 Y136.136 E3.26122
G1 X144.059 Y135.616 E3.41195
G1 X145.153 Y135.13 E3.56282
G1 X146.261 Y134.678 E3.71364
G1 X147.383 Y134.262 E3.86446
G1 X148.517 Y133.882 E4.01519
G1 X149.658 Y133.539 E4.16535
G1 X151.03 Y133.18 E4.34409
G1 X151.985 Y132.958 E4.46766
G1 X153.158 Y132.723 E4.61844
G1 X154.338 Y132.526 E4.76922
G1 X155.524 Y132.365 E4.92007
G1 X156.714 Y132.243 E5.07084
G1 X157.908 Y132.158 E5.22171
G1 X159.099 Y132.111 E5.37193
G1 X160.516 Y132.106 E5.55052
G1 X161.497 Y132.13 E5.6742
G1 X162.691 Y132.196 E5.82491
G1 X163.883 Y132.299 E5.9757
G1 X165.072 Y132.441 E6.12662
G1 X166.255 Y132.62 E6.27742
G1 X167.219 Y132.797 E6.40095
G1 X168.601 Y133.089 E6.57897
G1 X169.97 Y133.438 E6.75703
G1 X170.913 Y133.705 E6.88055
G1 X172.054 Y134.068 E7.03146
G1 X173.182 Y134.466 E7.18222
G1 X174.297 Y134.9 E7.33302
G1 X175.398 Y135.369 E7.48385
G1 X176.484 Y135.872 E7.63469
G1 X177.553 Y136.409 E7.78546
G1 X178.605 Y136.98 E7.93632
G1 X179.638 Y137.584 E8.08713
G1 X180.651 Y138.22 E8.23788
G1 X181.644 Y138.888 E8.38871
G1 X182.616 Y139.586 E8.53953
G1 X183.564 Y140.315 E8.69025
G1 X184.49 Y141.074 E8.84115
G1 X185.391 Y141.862 E8.99201
G1 X186.266 Y142.677 E9.14272
G1 X187.116 Y143.52 E9.2936
G1 X187.938 Y144.389 E9.44436
G1 X188.589 Y145.122 E9.56792
G1 X189.499 Y146.203 E9.74601
G1 X190.363 Y147.321 E9.92409
G1 X190.942 Y148.112 E10.04764
G1 X191.617 Y149.1 E10.19845
G1 X192.261 Y150.108 E10.34921
G1 X192.873 Y151.136 E10.49999
G1 X193.452 Y152.184 E10.65089
G1 X193.998 Y153.248 E10.80162
G1 X194.51 Y154.33 E10.95249
G1 X194.987 Y155.427 E11.10325
G1 X195.43 Y156.539 E11.25411
G1 X195.837 Y157.664 E11.40489
G1 X196.209 Y158.802 E11.55578
G1 X196.544 Y159.95 E11.7065
G1 X196.843 Y161.109 E11.85736
G1 X197.106 Y162.276 E12.00813
G1 X197.331 Y163.451 E12.15891
G1 X197.519 Y164.633 E12.30975
G1 X197.67 Y165.82 E12.46056
G1 X197.783 Y167.012 E12.61147
G1 X197.859 Y168.206 E12.76226
G1 X197.896 Y169.651 E12.94444
G1 X197.896 Y170.598 E13.06379
G1 X197.859 Y171.794 E13.2146
G1 X197.783 Y172.989 E13.36551
G1 X197.67 Y174.18 E13.51629
G1 X197.519 Y175.367 E13.6671
G1 X197.331 Y176.549 E13.81794
G1 X197.106 Y177.724 E13.96872
G1 X196.843 Y178.891 E14.11949
G1 X196.544 Y180.05 E14.27035
G1 X196.209 Y181.198 E14.42107
G1 X195.837 Y182.336 E14.57196
G1 X195.43 Y183.461 E14.72274
G1 X194.987 Y184.573 E14.8736
G1 X194.51 Y185.67 E15.02436
G1 X193.998 Y186.752 E15.17523
G1 X193.452 Y187.816 E15.32596
G1 X192.873 Y188.864 E15.47686
G1 X192.261 Y189.892 E15.62764
G1 X191.617 Y190.9 E15.7784
G1 X190.942 Y191.888 E15.92921
G1 X190.235 Y192.854 E16.08008
G1 X189.499 Y193.797 E16.23084
G1 X188.733 Y194.716 E16.38162
G1 X187.938 Y195.611 E16.5325
G1 X187.116 Y196.48 E16.68326
G1 X186.266 Y197.323 E16.83414
G1 X185.391 Y198.138 E16.98485
G1 X184.49 Y198.926 E17.13571
G1 X183.564 Y199.685 E17.28661
G1 X182.616 Y200.414 E17.43733
G1 X181.644 Y201.112 E17.58815
G1 X180.651 Y201.78 E17.73898
G1 X179.638 Y202.416 E17.88973
G1 X178.605 Y203.02 E18.04054
G1 X177.553 Y203.591 E18.1914
G1 X176.484 Y204.128 E18.34217
G1 X175.398 Y204.631 E18.49301
G1 X174.297 Y205.1 E18.64384
G1 X173.182 Y205.534 E18.79464
G1 X172.054 Y205.932 E18.9454
G1 X170.913 Y206.295 E19.09631
G1 X169.762 Y206.621 E19.24708
G1 X168.601 Y206.911 E19.3979
G1 X167.432 Y207.164 E19.54864
G1 X166.255 Y207.38 E19.69946
G1 X165.072 Y207.559 E19.85026
G1 X163.883 Y207.701 E20.00118
G1 X162.691 Y207.804 E20.15197
G1 X161.497 Y207.87 E20.30268
G1 X160.3 Y207.899 E20.45359
G1 X159.104 Y207.889 E20.60433
G1 X157.908 Y207.842 E20.75518
G1 X156.714 Y207.757 E20.90605
G1 X155.524 Y207.635 E21.05682
G1 X154.338 Y207.475 E21.20765
G1 X153.158 Y207.277 E21.35845
G1 X151.985 Y207.043 E21.5092
G1 X150.819 Y206.771 E21.6601
G1 X149.663 Y206.463 E21.81088
G1 X148.517 Y206.118 E21.96172
G1 X147.383 Y205.738 E22.11245
G1 X146.261 Y205.322 E22.26327
G1 X145.153 Y204.87 E22.41409
G1 X144.059 Y204.384 E22.56496
G1 X142.982 Y203.864 E22.71569
G1 X141.921 Y203.31 E22.86654
G1 X140.879 Y202.722 E23.01733
G1 X139.855 Y202.102 E23.1682
G1 X138.852 Y201.45 E23.31897
G1 X137.869 Y200.767 E23.46983
G1 X136.909 Y200.053 E23.62062
G1 X135.972 Y199.309 E23.77141
G1 X135.063 Y198.539 E23.92155
G1 X134.015 Y197.584 E24.10025
G1 X133.308 Y196.905 E24.22379
G1 X132.472 Y196.049 E24.37459
G1 X131.663 Y195.167 E24.52543
G1 X131.024 Y194.423 E24.64904
G1 X130.128 Y193.324 E24.82775
G1 X129.41 Y192.374 E24.97783
G1 X128.719 Y191.397 E25.12865
G1 X128.059 Y190.399 E25.27945
G1 X127.431 Y189.38 E25.43031
G1 X126.835 Y188.342 E25.58116
G1 X126.273 Y187.286 E25.73193
G1 X125.744 Y186.213 E25.88271
G1 X125.249 Y185.123 E26.03359
G1 X124.789 Y184.019 E26.18433
G1 X124.364 Y182.9 E26.33519
G1 X123.975 Y181.769 E26.48593
G1 X123.621 Y180.626 E26.63674
G1 X123.305 Y179.476 E26.78705
G1 X122.979 Y178.097 E26.96564
G1 X122.779 Y177.137 E27.08923
G1 X122.572 Y175.958 E27.2401
G1 X122.403 Y174.774 E27.39084
G1 X122.271 Y173.585 E27.54161
G1 X122.177 Y172.392 E27.69243
G1 X122.12 Y171.196 E27.84334
G1 X122.101 Y170 E27.9941
G1 X122.12 Y168.804 E28.14486
G1 X122.177 Y167.608 E28.29577
G1 X122.271 Y166.415 E28.44659
G1 X122.403 Y165.226 E28.59736
G1 X122.572 Y164.042 E28.7481
G1 X122.778 Y162.868 E28.89832
G1 X123.074 Y161.481 E29.07707
G1 X123.304 Y160.528 E29.20063
G1 X123.621 Y159.375 E29.35134
G1 X123.975 Y158.231 E29.50227
G1 X124.364 Y157.1 E29.65301
G1 X124.789 Y155.981 E29.80387
G1 X125.249 Y154.877 E29.95461
G1 X125.744 Y153.787 E30.10549
G1 X126.273 Y152.714 E30.25627
G1 X126.795 Y151.734 E30.39621
G1 X126.795 Y151.734 F9000
G1 X126.123 Y151.241
G1 F1200
G1 X126.722 Y150.198 E30.5478
G1 X127.364 Y149.157 E30.70195
G1 X128.038 Y148.137 E30.85604
G1 X128.742 Y147.142 E31.00966
G1 X129.618 Y145.994 E31.19166
G1 X130.249 Y145.212 E31.3183
G1 X131.044 Y144.288 E31.47193
G1 X132.025 Y143.228 E31.65396
G1 X132.727 Y142.51 E31.78052
G1 X133.606 Y141.664 E31.93428
G1 X134.682 Y140.702 E32.11619
