; generated by PrusaSlicer 2.8.0 on 2024-08-25 at 09:12:22 UTC

; 

; external perimeters extrusion width = 0.90mm
; perimeters extrusion width = 0.90mm
; infill extrusion width = 0.90mm
; solid infill extrusion width = 0.90mm
; top infill extrusion width = 0.80mm

M190 S60 ; set bed temperature and wait for it to be reached
;TYPE:Custom
; Start GCODE (begins)

G28 ; home all axes
G1 Z5 F5000 ; lift nozzle

M109 S200 ; Do this now so we can purge

; Extrude a small amount of waste material
G92 E0
G1 E20 F200
G92 E0

; Start GCODE (ends)
G21 ; set units to millimeters
G90 ; use absolute coordinates
M82 ; use absolute distances for extrusion
G92 E0
; Filament gcode
M107
;LAYER_CHANGE
;Z:0.35
;HEIGHT:0.35
G1 E-.3 F2400
G1 Z.35 F9000
G1 X130.007 Y122.815
G1 E.1 F2400
G92 E0
;TYPE:Skirt/Brim
;WIDTH:0.9
G1 F1200
G1 X131.214 Y121.645 E.21186
G1 X132.878 Y120.368 E.47622
G1 X134.458 Y119.433 E.70761
G1 X135.983 Y118.738 E.91883
G1 X137.985 Y118.091 E1.184
G1 X139.781 Y117.741 E1.41461
G1 X142.016 Y117.588 E1.69695
G1 X190.675 Y117.588 E7.82963
G1 X192.896 Y117.984 E8.11397
G1 X194.842 Y119.126 E8.39835
G1 X196.272 Y120.871 E8.68269
G1 X197.087 Y124 E9.09021
G1 X197.087 Y216 E20.68532
G1 X196.691 Y218.221 E20.96966
G1 X195.549 Y220.167 E21.25404
G1 X193.804 Y221.597 E21.53838
G1 X190.675 Y222.412 E21.9459
G1 X141.452 Y222.402 E28.14966
G1 X139.359 Y222.195 E28.41474
G1 X137.72 Y221.839 E28.62613
G1 X135.983 Y221.262 E28.85681
G1 X134.086 Y220.368 E29.12112
G1 X132.888 Y219.639 E29.29787
G1 X131.752 Y218.805 E29.47549
G1 X130.503 Y217.695 E29.68609
G1 X129.542 Y216.665 E29.86363
G1 X128.677 Y215.56 E30.04049
G1 X127.697 Y214.018 E30.27076
G1 X127.064 Y212.766 E30.44758
G1 X126.453 Y211.208 E30.6585
G1 X126.065 Y209.86 E30.83529
G1 X125.813 Y208.613 E30.99563
G1 X122.169 Y186.021 E33.87979
G1 X122.088 Y185 E34.00887
G1 X122.088 Y155 E37.78988
G1 X122.169 Y153.979 E37.91896
G1 X125.914 Y130.831 E40.87433
G1 X126.243 Y129.467 E41.05117
G1 X126.688 Y128.137 E41.22793
G1 X127.696 Y125.984 E41.52755
G1 X128.677 Y124.44 E41.7581
G1 X129.931 Y122.907 E42.00772
G1 E41.70772 F2400
G92 E0
G1 X129.931 Y122.907 F9000
G92 E0
G1 X188.581 Y126.906
G1 E.4 F2400
;TYPE:Perimeter
;WIDTH:0.887902
G1 F1200
G1 X188.175 Y126.907 E.45042
;WIDTH:0.890155
G1 X143.28 Y126.91 E6.04117
;WIDTH:0.907579
G1 X142.871 Y126.934 E6.09328
;WIDTH:0.953156
G1 X142.174 Y127 E6.1872
;WIDTH:0.989668
G1 X141.843 Y127.061 E6.23423
;WIDTH:1.02618
G1 X141.513 Y127.122 E6.283
;WIDTH:1.05604
G1 X141.225 Y127.204 E6.32788
;WIDTH:1.0859
G1 X140.937 Y127.286 E6.37413
;WIDTH:1.11628
G1 X140.677 Y127.382 E6.41822
;WIDTH:1.14666
G1 X140.417 Y127.479 E6.46365
;WIDTH:1.1789
G1 X140.083 Y127.636 E6.52589
;WIDTH:1.21115
G1 X139.749 Y127.793 E6.58995
;WIDTH:1.24134
G1 X139.467 Y127.964 E6.64872
;WIDTH:1.27154
G1 X139.185 Y128.134 E6.70891
G1 X138.994 Y128.287 E6.75365
;WIDTH:1.25629
G1 X138.944 Y128.36 E6.76962
;WIDTH:1.21018
G1 X138.894 Y128.433 E6.78496
;WIDTH:1.16406
G1 X138.845 Y128.505 E6.79945
;WIDTH:1.11794
G1 X138.795 Y128.578 E6.81355
;WIDTH:1.07182
G1 X138.745 Y128.651 E6.82702
;WIDTH:1.0257
G1 X138.696 Y128.724 E6.83979
;WIDTH:0.979586
G1 X138.646 Y128.797 E6.85202
;WIDTH:0.933468
G1 X138.47 Y129.003 E6.88755
;WIDTH:0.9
G1 X138.087 Y129.406 E6.95762
G1 X137.486 Y130.227 E7.08586
G1 X137.224 Y130.701 E7.15412
G1 X136.997 Y131.165 E7.21922
G1 X136.696 Y131.991 E7.33002
G1 X136.555 Y132.575 E7.40574
G1 X136.448 Y133.208 E7.48665
G1 X136.4 Y133.999 E7.58653
G1 X136.4 Y206.001 E16.66121
G1 X136.538 Y207.374 E16.83513
G1 X136.674 Y207.881 E16.90129
G1 X136.897 Y208.594 E16.99544
G1 X137.398 Y209.627 E17.14014
G1 X137.767 Y210.182 E17.22414
G1 X138.177 Y210.694 E17.30681
G1 X138.649 Y211.158 E17.39023
;WIDTH:0.944925
G1 X138.677 Y211.215 E17.39867
;WIDTH:0.989851
G1 X138.705 Y211.271 E17.40742
;WIDTH:1.03478
G1 X138.734 Y211.328 E17.4168
;WIDTH:1.0797
G1 X138.762 Y211.384 E17.42641
;WIDTH:1.12463
G1 X138.79 Y211.44 E17.43645
;WIDTH:1.16956
G1 X138.819 Y211.497 E17.44714
;WIDTH:1.21448
G1 X138.847 Y211.553 E17.45804
;WIDTH:1.25941
G1 X138.875 Y211.61 E17.46953
;WIDTH:1.30433
G1 X138.903 Y211.666 E17.48129
G1 X139.227 Y211.89 E17.55527
;WIDTH:1.26624
G1 X139.582 Y212.097 E17.63006
;WIDTH:1.23314
G1 X139.937 Y212.303 E17.70268
;WIDTH:1.20004
G1 X140.171 Y212.412 E17.74705
;WIDTH:1.17202
G1 X140.405 Y212.52 E17.79024
;WIDTH:1.14401
G1 X140.671 Y212.617 E17.83648
;WIDTH:1.11497
G1 X140.936 Y212.714 E17.88131
;WIDTH:1.08594
G1 X141.236 Y212.799 E17.92947
;WIDTH:1.05468
G1 X141.535 Y212.884 E17.97599
;WIDTH:1.02343
G1 X141.842 Y212.935 E18.02108
;WIDTH:0.994212
G1 X142.149 Y212.985 E18.06476
;WIDTH:0.964998
G1 X142.56 Y213.031 E18.12099
;WIDTH:0.93176
G1 X142.971 Y213.078 E18.17513
;WIDTH:0.898522
G1 X143.499 Y213.094 E18.24159
;WIDTH:0.887778
G1 X188.581 Y213.094 E23.83926
G1 X188.581 Y213.5 E23.88967
G1 X188.581 Y213.906 E23.94008
G1 X143.499 Y213.906 E29.53775
;WIDTH:0.88895
G1 X143.392 Y213.906 E29.55105
;WIDTH:0.916271
G1 X142.628 Y213.892 E29.64926
;WIDTH:0.964998
G1 X142.052 Y213.867 E29.72765
;WIDTH:0.995592
G1 X141.676 Y213.834 E29.78073
;WIDTH:1.02619
G1 X141.299 Y213.8 E29.83574
;WIDTH:1.05775
G1 X140.954 Y213.736 E29.88842
;WIDTH:1.08932
G1 X140.609 Y213.672 E29.94279
;WIDTH:1.11666
G1 X140.315 Y213.594 E29.9912
;WIDTH:1.14401
G1 X140.022 Y213.515 E30.04076
;WIDTH:1.17202
G1 X139.717 Y213.405 E30.0951
;WIDTH:1.20004
G1 X139.412 Y213.294 E30.15089
;WIDTH:1.23314
G1 X139.042 Y213.117 E30.22346
;WIDTH:1.26624
G1 X138.672 Y212.94 E30.29811
;WIDTH:1.30433
G1 X138.175 Y212.648 E30.40637
G1 X138.108 Y212.634 E30.41923
;WIDTH:1.25941
G1 X138.04 Y212.62 E30.43179
;WIDTH:1.21448
G1 X137.972 Y212.606 E30.44388
;WIDTH:1.16956
G1 X137.905 Y212.593 E30.45529
;WIDTH:1.12463
G1 X137.837 Y212.579 E30.46642
;WIDTH:1.0797
G1 X137.77 Y212.565 E30.47693
;WIDTH:1.03478
G1 X137.702 Y212.551 E30.48711
;WIDTH:0.989851
G1 X137.635 Y212.537 E30.49668
;WIDTH:0.944925
G1 X137.567 Y212.523 E30.50591
;WIDTH:0.9
G1 X136.752 Y211.887 E30.6362
G1 X136.301 Y211.45 E30.71535
G1 X135.623 Y210.636 E30.84887
G1 X135.261 Y210.093 E30.93112
G1 X134.947 Y209.52 E31.01347
G1 X134.54 Y208.545 E31.14663
G1 X134.355 Y207.919 E31.2289
G1 X134.21 Y207.214 E31.31961
G1 X130.6 Y184.832 E34.17695
G1 X130.6 Y155.168 E37.91562
G1 X134.215 Y132.763 E40.77593
G1 X134.368 Y132.035 E40.86969
G1 X134.565 Y131.387 E40.95505
G1 X134.814 Y130.763 E41.03973
G1 X135.116 Y130.161 E41.12461
G1 X135.468 Y129.586 E41.20958
G1 X135.866 Y129.047 E41.29402
G1 X136.315 Y128.536 E41.37975
G1 X136.905 Y127.986 E41.48141
G1 X137.486 Y127.538 E41.57388
;WIDTH:0.949949
G1 X137.588 Y127.499 E41.58848
;WIDTH:0.999899
G1 X137.69 Y127.459 E41.60396
;WIDTH:1.04985
G1 X137.792 Y127.42 E41.62022
;WIDTH:1.09114
G1 X137.889 Y127.387 E41.63613
;WIDTH:1.13243
G1 X137.986 Y127.354 E41.65268
;WIDTH:1.17372
G1 X138.083 Y127.32 E41.66993
;WIDTH:1.21501
G1 X138.181 Y127.287 E41.68794
;WIDTH:1.25629
G1 X138.278 Y127.253 E41.70649
;WIDTH:1.27154
G1 X139.088 Y126.868 E41.87043
;WIDTH:1.22864
G1 X139.56 Y126.649 E41.96214
;WIDTH:1.18575
G1 X140.066 Y126.475 E42.05294
;WIDTH:1.14666
G1 X140.388 Y126.39 E42.10746
;WIDTH:1.11628
G1 X140.709 Y126.306 E42.16024
;WIDTH:1.0859
G1 X141.194 Y126.231 E42.23603
;WIDTH:1.0405
G1 X141.679 Y126.156 E42.30842
;WIDTH:0.995102
G1 X142.014 Y126.138 E42.35558
;WIDTH:0.963384
G1 X142.35 Y126.119 E42.40125
;WIDTH:0.931666
G1 X143.28 Y126.095 E42.523
;WIDTH:0.890155
G1 X188.175 Y126.094 E48.11375
;WIDTH:0.887902
G1 X188.581 Y126.094 E48.16417
G1 X188.581 Y126.786 E48.25011
G1 X188.581 Y126.786 F9000
G1 X189.4 Y127.725
;WIDTH:0.9
G1 F1200
G1 X143.28 Y127.73 E54.06279
G1 X142.358 Y127.831 E54.17969
G1 X141.798 Y127.962 E54.25217
G1 X141.232 Y128.155 E54.32754
G1 X140.836 Y128.329 E54.38205
G1 X140.294 Y128.608 E54.45888
G1 X139.638 Y129.055 E54.55893
G1 X139.066 Y129.574 E54.65627
G1 X138.643 Y130.03 E54.73466
G1 X138.166 Y130.698 E54.83811
G1 X137.772 Y131.447 E54.94477
G1 X137.471 Y132.273 E55.05557
G1 X137.364 Y132.736 E55.11546
G1 X137.271 Y133.262 E55.18278
G1 X137.225 Y133.999 E55.27585
G1 X137.225 Y206.001 E64.35053
G1 X137.338 Y207.174 E64.49905
G1 X137.645 Y208.247 E64.63971
G1 X138.094 Y209.184 E64.77066
G1 X138.41 Y209.666 E64.8433
G1 X138.821 Y210.178 E64.92605
G1 X139.206 Y210.55 E64.99352
G1 X139.769 Y211.04 E65.08759
G1 X140.651 Y211.59 E65.21859
G1 X141.231 Y211.845 E65.29844
G1 X141.981 Y212.084 E65.39765
G1 X142.846 Y212.237 E65.50836
G1 X143.499 Y212.275 E65.5908
G1 X189.4 Y212.275 E71.37588
G1 X189.4 Y213.5 E71.53027
G1 X189.4 Y214.725 E71.68466
G1 X142.044 Y214.725 E77.65311
G1 X141.271 Y214.692 E77.75062
G1 X140.531 Y214.597 E77.84465
G1 X139.803 Y214.439 E77.93854
G1 X139.103 Y214.222 E78.03091
G1 X138.063 Y213.775 E78.17358
G1 X137.101 Y213.206 E78.31445
G1 X136.21 Y212.51 E78.45695
G1 X135.695 Y212.012 E78.54724
G1 X134.961 Y211.13 E78.69186
G1 X134.555 Y210.521 E78.78411
G1 X134.202 Y209.878 E78.87656
G1 X133.762 Y208.822 E79.02074
G1 X133.554 Y208.12 E79.11302
G1 X133.398 Y207.362 E79.21056
G1 X129.775 Y184.898 E82.07837
G1 X129.775 Y155.102 E85.83367
G1 X133.398 Y132.638 E88.70148
G1 X133.554 Y131.88 E88.79902
G1 X133.767 Y131.162 E88.89341
G1 X134.038 Y130.471 E88.98696
G1 X134.369 Y129.803 E89.08092
G1 X134.755 Y129.165 E89.1749
G1 X135.071 Y128.732 E89.24246
G1 X135.423 Y128.3 E89.31269
G1 X135.982 Y127.71 E89.41513
G1 X136.384 Y127.347 E89.48339
G1 X137.057 Y126.832 E89.5902
G1 X137.475 Y126.554 E89.65347
G1 X138.052 Y126.229 E89.73693
G1 X138.845 Y125.888 E89.84572
G1 X139.314 Y125.712 E89.90885
G1 X140.071 Y125.503 E90.00783
G1 X140.592 Y125.396 E90.07486
G1 X141.635 Y125.284 E90.20707
G1 X189.4 Y125.275 E96.22707
G1 X189.4 Y127.605 E96.52073
G1 X189.4 Y127.605 F9000
G1 X190.225 Y128.55
;TYPE:External perimeter
G1 F1200
G1 X143.28 Y128.555 E102.43738
G1 X142.551 Y128.633 E102.52978
G1 X142.063 Y128.744 E102.59286
G1 X141.201 Y129.069 E102.70897
G1 X140.752 Y129.294 E102.77227
G1 X140.169 Y129.687 E102.86088
G1 X139.661 Y130.144 E102.947
G1 X139.308 Y130.518 E103.01182
G1 X138.89 Y131.095 E103.10162
G1 X138.547 Y131.73 E103.19258
G1 X138.229 Y132.616 E103.31122
G1 X138.094 Y133.315 E103.40095
G1 X138.05 Y133.999 E103.48734
G1 X138.05 Y206.001 E112.56202
G1 X138.141 Y206.982 E112.68619
G1 X138.393 Y207.898 E112.80593
G1 X138.777 Y208.72 E112.92028
G1 X139.053 Y209.15 E112.98468
G1 X139.384 Y209.561 E113.05119
G1 X139.763 Y209.942 E113.11892
G1 X140.212 Y210.344 E113.19488
G1 X141 Y210.842 E113.31237
G1 X141.496 Y211.064 E113.38086
G1 X142.124 Y211.272 E113.46424
G1 X142.989 Y211.425 E113.57495
G1 X143.499 Y211.45 E113.6393
G1 X190.225 Y211.45 E119.52835
G1 X190.225 Y213.5 E119.78672
G1 X190.225 Y215.55 E120.04509
G1 X142.026 Y215.55 E126.11979
G1 X141.201 Y215.515 E126.22386
G1 X140.391 Y215.41 E126.3268
G1 X139.594 Y215.237 E126.42959
G1 X138.817 Y214.998 E126.53205
G1 X137.689 Y214.512 E126.68685
G1 X136.636 Y213.889 E126.84105
G1 X135.667 Y213.133 E126.99595
G1 X135.09 Y212.574 E127.0972
G1 X134.298 Y211.624 E127.25308
G1 X133.849 Y210.949 E127.35525
G1 X133.458 Y210.236 E127.45774
G1 X132.984 Y209.099 E127.61299
G1 X132.753 Y208.32 E127.7154
G1 X132.587 Y207.511 E127.81949
G1 X128.95 Y184.964 E130.69791
G1 X128.95 Y155.036 E134.46985
G1 X132.587 Y132.489 E137.34827
G1 X132.753 Y131.679 E137.45248
G1 X132.986 Y130.894 E137.55568
G1 X133.283 Y130.137 E137.65817
G1 X133.645 Y129.405 E137.76109
G1 X134.068 Y128.707 E137.86395
G1 X134.547 Y128.05 E137.96642
G1 X135.087 Y127.429 E138.07014
G1 X135.671 Y126.864 E138.17255
G1 X136.219 Y126.417 E138.26168
G1 X137.071 Y125.836 E138.39165
G1 X137.685 Y125.489 E138.48054
G1 X138.818 Y125.002 E138.63597
G1 X139.593 Y124.763 E138.73819
G1 X140.391 Y124.59 E138.8411
G1 X141.08 Y124.501 E138.92866
G1 X141.605 Y124.459 E138.99504
G1 X190.225 Y124.45 E145.1228
G1 X190.225 Y128.43 E145.62441
G1 X189.434 Y128.549 F9000
G1 E145.32441 F2400
G92 E0
G1 X189.434 Y127.763 F9000
G1 X143.487 Y127.763
G1 X143.228 Y127.768
G1 X142.958 Y127.786
G1 X142.688 Y127.815
G1 X142.419 Y127.857
G1 X142.152 Y127.91
G1 X141.888 Y127.974
G1 X141.627 Y128.05
G1 X141.367 Y128.138
G1 X141.115 Y128.236
G1 X140.866 Y128.346
G1 X140.622 Y128.466
G1 X140.383 Y128.597
G1 X140.149 Y128.739
G1 X139.924 Y128.889
G1 X139.705 Y129.05
G1 X139.492 Y129.22
G1 X139.288 Y129.399
G1 X139.189 Y129.494
G1 X138.423 Y128.694
G1 E.4 F2400
;TYPE:Solid infill
;WIDTH:0.900098
G1 F1200
G1 X137.801 Y128.072 E.51088
G1 X137.151 Y128.588 E.61549
G1 X137.595 Y129.033 E.69473
G1 X137.096 Y129.7 E.79973
G1 X136.573 Y129.177 E.89296
G1 X136.322 Y129.465 E.94111
G1 X136.058 Y129.829 E.99779
G1 X136.664 Y130.435 E1.10582
G1 X136.445 Y130.876 E1.16788
G1 X136.309 Y131.247 E1.21769
G1 X135.61 Y130.548 E1.34229
G1 X135.359 Y131.056 E1.41371
G1 X135.244 Y131.349 E1.45339
G1 X136.018 Y132.123 E1.59136
G1 X135.837 Y133.108 E1.7176
G1 X134.957 Y132.228 E1.87447
G1 X134.818 Y132.898 E1.96072
G1 X134.769 Y133.206 E2.00003
G1 X135.782 Y134.219 E2.18061
G1 X135.782 Y135.386 E2.32771
G1 X134.607 Y134.211 E2.53717
G1 X134.445 Y135.216 E2.66548
G1 X135.782 Y136.553 E2.90381
G1 X135.782 Y137.719 E3.05078
G1 X134.283 Y136.22 E3.31799
G1 X134.12 Y137.225 E3.44632
G1 X135.782 Y138.886 E3.7425
G1 X135.782 Y140.053 E3.8896
G1 X133.958 Y138.23 E4.21466
G1 X133.796 Y139.234 E4.34285
G1 X135.782 Y141.22 E4.69687
G1 X135.782 Y142.386 E4.84384
G1 X133.634 Y140.239 E5.22665
G1 X133.472 Y141.244 E5.35496
G1 X135.782 Y143.553 E5.76665
G1 X135.782 Y144.72 E5.91375
G1 X133.31 Y142.248 E6.35441
G1 X133.148 Y143.253 E6.48272
G1 X135.782 Y145.886 E6.95217
G1 X135.782 Y147.053 E7.09927
G1 X132.986 Y144.258 E7.5976
G1 X132.824 Y145.262 E7.72579
G1 X135.782 Y148.22 E8.25308
G1 X135.782 Y149.387 E8.40018
G1 X132.662 Y146.267 E8.95635
G1 X132.5 Y147.272 E9.08466
G1 X135.782 Y150.553 E9.66962
G1 X135.782 Y151.72 E9.81672
G1 X132.338 Y148.276 E10.43065
G1 X132.176 Y149.281 E10.55896
G1 X135.782 Y152.887 E11.20176
G1 X135.782 Y154.053 E11.34873
G1 X132.014 Y150.286 E12.02032
G1 X131.852 Y151.29 E12.14851
G1 X135.782 Y155.22 E12.84907
G1 X135.782 Y156.387 E12.99617
G1 X131.69 Y152.295 E13.72561
G1 X131.528 Y153.3 E13.85392
G1 X135.782 Y157.554 E14.61224
G1 X135.782 Y158.72 E14.75921
G1 X131.366 Y154.304 E15.54641
G1 X131.218 Y155.218 E15.66312
G1 X131.218 Y155.324 E15.67648
G1 X135.782 Y159.887 E16.48997
G1 X135.782 Y161.054 E16.63707
G1 X131.218 Y156.491 E17.45056
G1 X131.218 Y157.657 E17.59753
G1 X135.782 Y162.22 E18.41102
G1 X135.782 Y163.387 E18.55812
G1 X131.218 Y158.824 E19.37161
G1 X131.218 Y159.991 E19.51871
G1 X135.782 Y164.554 E20.3322
G1 X135.782 Y165.72 E20.47917
G1 X131.218 Y161.157 E21.29266
G1 X131.218 Y162.324 E21.43976
G1 X135.782 Y166.887 E22.25325
G1 X135.782 Y168.054 E22.40035
G1 X131.218 Y163.491 E23.21384
G1 X131.218 Y164.657 E23.36081
G1 X135.782 Y169.221 E24.17439
G1 X135.782 Y170.387 E24.32136
G1 X131.218 Y165.824 E25.13485
G1 X131.218 Y166.991 E25.28195
G1 X135.782 Y171.554 E26.09544
G1 X135.782 Y172.721 E26.24254
G1 X131.218 Y168.158 E27.05603
G1 X131.218 Y169.324 E27.203
G1 X135.782 Y173.887 E28.01649
G1 X135.782 Y175.054 E28.16359
G1 X131.218 Y170.491 E28.97708
G1 X131.218 Y171.658 E29.12418
G1 X135.782 Y176.221 E29.93767
G1 X135.782 Y177.388 E30.08477
G1 X131.218 Y172.824 E30.89835
G1 X131.218 Y173.991 E31.04545
G1 X135.782 Y178.554 E31.85894
G1 X135.782 Y179.721 E32.00604
G1 X131.218 Y175.158 E32.81953
G1 X131.218 Y176.325 E32.96663
G1 X135.782 Y180.888 E33.78012
G1 X135.782 Y182.054 E33.92709
G1 X131.218 Y177.491 E34.74058
G1 X131.218 Y178.658 E34.88768
G1 X135.782 Y183.221 E35.70117
G1 X135.782 Y184.388 E35.84827
G1 X131.218 Y179.825 E36.66176
G1 X131.218 Y180.991 E36.80873
G1 X135.782 Y185.555 E37.62231
G1 X135.782 Y186.721 E37.76928
G1 X131.218 Y182.158 E38.58277
G1 X131.218 Y183.325 E38.72987
G1 X135.782 Y187.888 E39.54336
G1 X135.782 Y189.055 E39.69046
G1 X131.218 Y184.492 E40.50395
G1 X131.218 Y184.782 E40.5405
G1 X131.387 Y185.827 E40.67393
G1 X135.782 Y190.221 E41.45729
G1 X135.782 Y191.388 E41.60439
G1 X131.611 Y187.218 E42.34782
G1 X131.836 Y188.609 E42.52543
G1 X135.782 Y192.555 E43.22884
