; generated by PrusaSlicer 2.8.0 on 2024-08-25 at 09:12:33 UTC

; 

; external perimeters extrusion width = 0.90mm
; perimeters extrusion width = 0.90mm
; infill extrusion width = 0.90mm
; solid infill extrusion width = 0.90mm
; top infill extrusion width = 0.80mm

M190 S60 ; set bed temperature and wait for it to be reached
;TYPE:Custom
; Start GCODE (begins)

G28 ; home all axes
G1 Z5 F5000 ; lift nozzle

M109 S200 ; Do this now so we can purge

; Extrude a small amount of waste material
G92 E0
G1 E20 F200
G92 E0

; Start GCODE (ends)
G21 ; set units to millimeters
G90 ; use absolute coordinates
M82 ; use absolute distances for extrusion
G92 E0
; Filament gcode
M107
;LAYER_CHANGE
;Z:0.35
;HEIGHT:0.35
G1 E-.3 F2400
G1 Z.35 F9000
G1 X142.939 Y151.588
G1 E.1 F2400
G92 E0
;TYPE:Skirt/Brim
;WIDTH:0.9
G1 F1200
G1 X144.83 Y150.001 E.31114
G1 X146.631 Y148.755 E.58715
G1 X148.534 Y147.671 E.86317
G1 X151.283 Y146.461 E1.24171
G1 X153.368 Y145.79 E1.51776
G1 X155.779 Y145.256 E1.82899
G1 X158.606 Y144.939 E2.18752
G1 X160.955 Y144.917 E2.48359
G1 X163.138 Y145.095 E2.75963
G1 X165.569 Y145.524 E3.07075
G1 X167.681 Y146.103 E3.34675
G1 X170.481 Y147.192 E3.7254
G1 X172.429 Y148.192 E4.00137
G1 X174.512 Y149.519 E4.31265
G1 X176.735 Y151.294 E4.67118
G1 X178.412 Y152.939 E4.96725
G1 X179.999 Y154.83 E5.27839
G1 X181.245 Y156.631 E5.5544
G1 X182.329 Y158.534 E5.83042
G1 X183.539 Y161.283 E6.20896
G1 X184.21 Y163.368 E6.48501
G1 X184.744 Y165.779 E6.79624
G1 X185.071 Y168.765 E7.17483
G1 X185.083 Y170.955 E7.45085
G1 X184.868 Y173.415 E7.76208
G1 X184.476 Y175.569 E8.03802
G1 X183.897 Y177.681 E8.31402
G1 X182.808 Y180.481 E8.69267
G1 X181.808 Y182.429 E8.96864
G1 X180.481 Y184.512 E9.27992
G1 X178.706 Y186.735 E9.63845
G1 X177.061 Y188.412 E9.93452
G1 X175.17 Y189.999 E10.24566
G1 X173.369 Y191.245 E10.52167
G1 X171.466 Y192.33 E10.79776
G1 X168.717 Y193.539 E11.17625
G1 X166.632 Y194.21 E11.4523
G1 X164.221 Y194.744 E11.76353
G1 X161.394 Y195.061 E12.12206
G1 X159.045 Y195.083 E12.41813
G1 X156.862 Y194.905 E12.69417
G1 X154.431 Y194.476 E13.00529
G1 X152.319 Y193.897 E13.28129
G1 X149.519 Y192.808 E13.65994
G1 X147.571 Y191.808 E13.93591
G1 X145.488 Y190.481 E14.24719
G1 X143.145 Y188.601 E14.6258
G1 X141.588 Y187.061 E14.90181
G1 X140.001 Y185.17 E15.21295
G1 X138.755 Y183.369 E15.48896
G1 X137.671 Y181.466 E15.76498
G1 X136.461 Y178.717 E16.14352
G1 X135.79 Y176.632 E16.41957
G1 X135.256 Y174.221 E16.7308
G1 X134.929 Y171.235 E17.10939
G1 X134.917 Y169.045 E17.38541
G1 X135.132 Y166.585 E17.69664
G1 X135.524 Y164.431 E17.97258
G1 X136.103 Y162.319 E18.24858
G1 X137.192 Y159.519 E18.62723
G1 X138.192 Y157.571 E18.9032
G1 X139.519 Y155.488 E19.21448
G1 X141.399 Y153.145 E19.59309
G1 X142.854 Y151.673 E19.85395
G1 E19.55395 F2400
G92 E0
G1 X142.854 Y151.673 F9000
G92 E0
G1 X157.085 Y175.501
G1 E.4 F2400
;TYPE:Perimeter
;WIDTH:0.9
G1 F1200
G1 X156.606 Y175.238 E.46887
G1 X156.272 Y175.01 E.51984
G1 X155.713 Y174.541 E.61181
G1 X155.301 Y174.091 E.68871
G1 X154.86 Y173.541 E.77756
G1 X154.639 Y173.202 E.82856
G1 X154.302 Y172.554 E.92061
G1 X154.01 Y171.77 E1.02605
G1 X153.861 Y171.082 E1.11477
G1 X153.774 Y170.545 E1.18333
G1 X153.771 Y169.494 E1.31579
G1 X153.869 Y168.807 E1.40325
G1 X154.055 Y168.125 E1.49234
G1 X154.209 Y167.65 E1.55527
G1 X154.662 Y166.788 E1.678
G1 X154.966 Y166.302 E1.75025
G1 X155.459 Y165.713 E1.84706
G1 X156.072 Y165.144 E1.95247
G1 X156.651 Y164.742 E2.04131
G1 X157.114 Y164.456 E2.1099
G1 X158.121 Y164.039 E2.24727
G1 X159.14 Y163.81 E2.3789
G1 X159.817 Y163.758 E2.46448
G1 X160.547 Y163.79 E2.55657
G1 X161.086 Y163.845 E2.62485
G1 X161.98 Y164.093 E2.74178
G1 X162.515 Y164.282 E2.81329
G1 X163.212 Y164.662 E2.91334
G1 X163.698 Y164.966 E2.98559
G1 X164.287 Y165.459 E3.0824
G1 X164.699 Y165.909 E3.1593
G1 X165.14 Y166.459 E3.24815
G1 X165.361 Y166.798 E3.29915
G1 X165.698 Y167.446 E3.3912
G1 X165.907 Y168.019 E3.46807
G1 X166.104 Y168.696 E3.55693
G1 X166.178 Y169.093 E3.60783
G1 X166.242 Y169.82 E3.69981
G1 X166.21 Y170.543 E3.79102
G1 X166.162 Y171.041 E3.85408
G1 X165.907 Y171.98 E3.97671
G1 X165.715 Y172.521 E4.04906
G1 X165.338 Y173.212 E4.14827
G1 X165.034 Y173.698 E4.22052
G1 X164.541 Y174.286 E4.31723
G1 X164.091 Y174.699 E4.39421
G1 X163.541 Y175.14 E4.48306
G1 X162.997 Y175.468 E4.56312
G1 X162.527 Y175.712 E4.62986
G1 X161.77 Y175.99 E4.7315
G1 X161.082 Y176.139 E4.82022
G1 X160.545 Y176.226 E4.88878
G1 X159.455 Y176.226 E5.02616
G1 X158.426 Y176.048 E5.15777
G1 X157.758 Y175.83 E5.24633
G1 X157.193 Y175.555 E5.32553
G1 X157.193 Y175.555 F9000
G1 X157.487 Y174.768
G1 F1200
G1 X157.003 Y174.515 E5.39436
G1 X156.523 Y174.144 E5.47082
G1 X156.145 Y173.816 E5.5339
G1 X155.633 Y173.186 E5.63622
G1 X155.371 Y172.821 E5.69285
G1 X155.033 Y172.173 E5.78496
G1 X154.791 Y171.505 E5.87451
G1 X154.673 Y170.939 E5.94738
G1 X154.591 Y170.388 E6.01759
G1 X154.592 Y169.628 E6.11338
G1 X154.685 Y168.932 E6.20188
G1 X154.841 Y168.374 E6.2749
G1 X154.999 Y167.899 E6.33799
G1 X155.385 Y167.185 E6.44029
G1 X155.622 Y166.803 E6.49695
G1 X156.091 Y166.243 E6.58901
G1 X156.616 Y165.764 E6.67858
G1 X157.495 Y165.188 E6.81103
G1 X158.267 Y164.863 E6.9166
G1 X158.829 Y164.719 E6.98972
G1 X159.319 Y164.618 E7.05277
G1 X159.871 Y164.581 E7.1225
G1 X160.476 Y164.612 E7.19885
G1 X161.026 Y164.675 E7.26862
G1 X161.749 Y164.885 E7.36351
G1 X162.198 Y165.047 E7.42367
G1 X162.997 Y165.485 E7.53851
G1 X163.477 Y165.856 E7.61497
G1 X163.855 Y166.184 E7.67805
G1 X164.367 Y166.814 E7.78037
G1 X164.629 Y167.179 E7.837
G1 X164.967 Y167.827 E7.92911
G1 X165.254 Y168.727 E8.04817
G1 X165.357 Y169.165 E8.10488
G1 X165.42 Y169.892 E8.19685
G1 X165.388 Y170.471 E8.26993
G1 X165.337 Y170.969 E8.33302
G1 X165.115 Y171.749 E8.43523
G1 X164.953 Y172.198 E8.49539
G1 X164.515 Y172.997 E8.61023
G1 X164.144 Y173.477 E8.68669
G1 X163.816 Y173.855 E8.74977
G1 X163.186 Y174.367 E8.85209
G1 X162.821 Y174.629 E8.90872
G1 X162.173 Y174.967 E9.00083
G1 X161.505 Y175.209 E9.09038
G1 X160.939 Y175.327 E9.16325
G1 X160.388 Y175.409 E9.23346
G1 X159.635 Y175.409 E9.32836
G1 X159.061 Y175.327 E9.40144
G1 X158.57 Y175.233 E9.46445
G1 X158.023 Y175.049 E9.53719
G1 X157.593 Y174.824 E9.59836
G1 X157.593 Y174.824 F9000
G1 X157.883 Y174.046
;TYPE:External perimeter
G1 F1200
G1 X157.333 Y173.746 E9.67732
G1 X156.774 Y173.277 E9.76929
G1 X156.102 Y172.44 E9.90457
G1 X155.765 Y171.793 E9.99651
G1 X155.572 Y171.24 E10.07033
G1 X155.422 Y170.437 E10.17329
G1 X155.416 Y169.629 E10.27513
G1 X155.5 Y169.058 E10.34787
G1 X155.738 Y168.273 E10.45125
G1 X156.254 Y167.333 E10.5864
G1 X156.723 Y166.774 E10.67837
G1 X157.16 Y166.384 E10.75219
G1 X157.876 Y165.92 E10.85972
G1 X158.583 Y165.625 E10.95627
G1 X159.365 Y165.445 E11.05741
G1 X159.925 Y165.404 E11.12818
G1 X160.763 Y165.465 E11.23408
G1 X161.801 Y165.77 E11.37043
G1 X162.6 Y166.208 E11.48527
G1 X163.227 Y166.723 E11.58753
G1 X163.898 Y167.56 E11.72273
G1 X164.235 Y168.207 E11.81467
G1 X164.535 Y169.237 E11.94988
G1 X164.598 Y169.964 E12.04185
G1 X164.535 Y170.764 E12.14299
G1 X164.23 Y171.801 E12.27922
G1 X163.792 Y172.6 E12.39406
G1 X163.278 Y173.225 E12.49605
G1 X162.44 Y173.898 E12.63151
G1 X161.793 Y174.235 E12.72345
G1 X161.24 Y174.428 E12.79727
G1 X160.437 Y174.578 E12.90023
G1 X159.635 Y174.584 E13.00131
G1 X158.844 Y174.451 E13.1024
G1 X158.288 Y174.267 E13.17621
G1 X157.989 Y174.104 E13.21913
G1 X157.301 Y173.695 F9000
G1 E12.91913 F2400
G92 E0
G1 X156.822 Y174.349 F9000
G1 X156.72 Y174.274
G1 X156.537 Y174.127
G1 X156.36 Y173.972
G1 X156.19 Y173.81
G1 X156.028 Y173.64
G1 X155.873 Y173.463
G1 X155.726 Y173.28
G1 X155.587 Y173.09
G1 X155.456 Y172.895
G1 X155.334 Y172.694
G1 X155.221 Y172.488
G1 X155.117 Y172.277
G1 X155.03 Y172.079
G1 X155.016 Y172.044
G1 X154.937 Y171.843
G1 X154.862 Y171.62
G1 X154.796 Y171.394
G1 X154.74 Y171.166
G1 X154.694 Y170.936
G1 X154.658 Y170.703
G1 X154.633 Y170.47
G1 X154.619 Y170.254
G1 X154.617 Y170.216
G1 X154.612 Y170
G1 X154.617 Y169.765
G1 X154.632 Y169.549
G1 X154.635 Y169.512
G1 X154.658 Y169.297
G1 X154.694 Y169.064
G1 X154.74 Y168.834
G1 X154.796 Y168.606
G1 X154.862 Y168.38
G1 X154.931 Y168.175
G1 X154.944 Y168.14
G1 X155.022 Y167.938
G1 X155.117 Y167.723
G1 X155.213 Y167.529
G1 X155.23 Y167.496
G1 X155.334 Y167.306
G1 X155.456 Y167.105
G1 X155.587 Y166.91
G1 X155.726 Y166.72
G1 X155.873 Y166.537
G1 X156.015 Y166.374
G1 X156.041 Y166.347
G1 X156.19 Y166.19
G1 X156.36 Y166.028
G1 X156.523 Y165.885
G1 X156.551 Y165.861
G1 X156.72 Y165.726
G1 X156.91 Y165.587
G1 X156.955 Y165.557
G1 X156.286 Y152.949
G1 X156.454 Y153.794
G1 E.4 F2400
;TYPE:Perimeter
G1 F1200
G1 X157.119 Y153.662 E.48545
G1 X157.835 Y153.552 E.57675
G1 X158.554 Y153.473 E.66791
G1 X159.269 Y153.426 E.75822
G1 X160.152 Y153.413 E.86952
G1 X160.724 Y153.426 E.94163
G1 X161.446 Y153.473 E1.03282
G1 X162.165 Y153.552 E1.12398
G1 X162.881 Y153.662 E1.21528
G1 X163.591 Y153.803 E1.30651
G1 X164.294 Y153.975 E1.39773
G1 X164.989 Y154.178 E1.48898
G1 X165.674 Y154.411 E1.58017
G1 X166.349 Y154.673 E1.67143
G1 X167.004 Y154.961 E1.76161
G1 X167.794 Y155.358 E1.87304
G1 X168.295 Y155.633 E1.94507
G1 X168.914 Y156.008 E2.03628
G1 X169.516 Y156.41 E2.12751
G1 X170.099 Y156.838 E2.21866
G1 X170.664 Y157.291 E2.30993
G1 X171.208 Y157.769 E2.4012
G1 X171.731 Y158.269 E2.49239
G1 X172.231 Y158.792 E2.58358
G1 X172.709 Y159.336 E2.67485
G1 X173.162 Y159.901 E2.76612
G1 X173.59 Y160.484 E2.85727
G1 X173.992 Y161.086 E2.9485
G1 X174.367 Y161.705 E3.03971
G1 X174.715 Y162.34 E3.13097
G1 X175.036 Y162.989 E3.22222
G1 X175.327 Y163.651 E3.31336
G1 X175.589 Y164.326 E3.40462
G1 X175.822 Y165.011 E3.49581
G1 X176.025 Y165.706 E3.58706
G1 X176.285 Y166.854 E3.73541
G1 X176.475 Y168.079 E3.89165
G1 X176.534 Y168.667 E3.96613
G1 X176.577 Y169.389 E4.05729
G1 X176.587 Y170.113 E4.14855
G1 X176.574 Y170.724 E4.22557
G1 X176.527 Y171.446 E4.31676
G1 X176.448 Y172.165 E4.40792
G1 X176.338 Y172.881 E4.49922
G1 X176.197 Y173.591 E4.59045
G1 X176.025 Y174.294 E4.68167
G1 X175.822 Y174.989 E4.77292
G1 X175.589 Y175.674 E4.86411
G1 X175.327 Y176.349 E4.95537
G1 X175.036 Y177.011 E5.04651
G1 X174.715 Y177.66 E5.13776
G1 X174.367 Y178.295 E5.22902
G1 X173.992 Y178.914 E5.32023
G1 X173.59 Y179.516 E5.41146
G1 X173.162 Y180.099 E5.50261
G1 X172.709 Y180.664 E5.59388
G1 X172.332 Y181.093 E5.66586
G1 X171.725 Y181.736 E5.77731
G1 X171.208 Y182.231 E5.86752
G1 X170.664 Y182.709 E5.95879
G1 X170.099 Y183.162 E6.05006
G1 X169.516 Y183.59 E6.14121
G1 X168.914 Y183.992 E6.23244
G1 X168.295 Y184.367 E6.32365
G1 X167.794 Y184.642 E6.39568
G1 X167.004 Y185.039 E6.50711
G1 X166.349 Y185.327 E6.59729
G1 X165.674 Y185.589 E6.68855
G1 X164.989 Y185.822 E6.77974
G1 X164.294 Y186.025 E6.87099
G1 X163.591 Y186.197 E6.96221
G1 X162.881 Y186.338 E7.05344
G1 X162.165 Y186.448 E7.14474
G1 X161.446 Y186.527 E7.2359
G1 X160.724 Y186.574 E7.32709
G1 X160 Y186.59 E7.41836
G1 X159.276 Y186.574 E7.50963
G1 X158.554 Y186.527 E7.60082
G1 X157.835 Y186.448 E7.69198
G1 X157.119 Y186.338 E7.78328
G1 X156.409 Y186.197 E7.87451
G1 X155.706 Y186.025 E7.96573
G1 X155.011 Y185.822 E8.05698
G1 X154.326 Y185.589 E8.14817
G1 X153.651 Y185.327 E8.23943
G1 X152.996 Y185.039 E8.32961
G1 X152.206 Y184.642 E8.44104
G1 X151.705 Y184.367 E8.51307
G1 X151.086 Y183.992 E8.60428
G1 X150.484 Y183.59 E8.69551
G1 X149.901 Y183.162 E8.78666
G1 X149.336 Y182.709 E8.87793
G1 X148.792 Y182.231 E8.9692
G1 X148.269 Y181.731 E9.06039
G1 X147.769 Y181.208 E9.15158
G1 X147.291 Y180.664 E9.24285
G1 X146.838 Y180.099 E9.33412
G1 X146.41 Y179.516 E9.42527
G1 X146.008 Y178.914 E9.5165
G1 X145.633 Y178.295 E9.60771
G1 X145.285 Y177.66 E9.69897
G1 X144.964 Y177.011 E9.79022
G1 X144.673 Y176.349 E9.88136
G1 X144.411 Y175.674 E9.97262
G1 X144.178 Y174.989 E10.06381
G1 X143.975 Y174.294 E10.15506
G1 X143.803 Y173.591 E10.24628
G1 X143.662 Y172.881 E10.33751
G1 X143.552 Y172.165 E10.42881
G1 X143.473 Y171.446 E10.51997
G1 X143.426 Y170.724 E10.61116
G1 X143.41 Y170 E10.70243
G1 X143.426 Y169.276 E10.7937
G1 X143.473 Y168.554 E10.88489
G1 X143.552 Y167.835 E10.97605
G1 X143.662 Y167.119 E11.06735
G1 X143.803 Y166.409 E11.15858
G1 X143.975 Y165.706 E11.2498
G1 X144.178 Y165.011 E11.34105
G1 X144.411 Y164.326 E11.43224
G1 X144.673 Y163.651 E11.5235
G1 X144.964 Y162.989 E11.61464
G1 X145.285 Y162.34 E11.70589
G1 X145.633 Y161.705 E11.79715
G1 X146.008 Y161.086 E11.88836
G1 X146.41 Y160.484 E11.97959
G1 X146.838 Y159.901 E12.07074
G1 X147.291 Y159.336 E12.16201
G1 X147.769 Y158.792 E12.25328
G1 X148.269 Y158.269 E12.34447
G1 X148.792 Y157.769 E12.43566
G1 X149.336 Y157.291 E12.52693
G1 X149.901 Y156.838 E12.6182
G1 X150.484 Y156.41 E12.70935
G1 X151.086 Y156.008 E12.80058
G1 X151.705 Y155.633 E12.89179
G1 X152.34 Y155.285 E12.98305
G1 X152.989 Y154.964 E13.0743
G1 X153.651 Y154.673 E13.16544
G1 X154.326 Y154.411 E13.2567
G1 X155.011 Y154.178 E13.34789
G1 X155.706 Y153.975 E13.43914
G1 X156.337 Y153.821 E13.521
G1 X156.337 Y153.821 F9000
G1 X156.258 Y152.992
G1 F1200
G1 X156.976 Y152.85 E13.61324
G1 X157.727 Y152.734 E13.70901
G1 X158.482 Y152.651 E13.80474
G1 X159.236 Y152.602 E13.89997
G1 X160.155 Y152.588 E14.01581
G1 X160.76 Y152.602 E14.09208
G1 X161.518 Y152.651 E14.18781
G1 X162.273 Y152.734 E14.28354
G1 X163.024 Y152.85 E14.37931
G1 X163.769 Y152.998 E14.47504
G1 X164.507 Y153.178 E14.57078
G1 X165.237 Y153.391 E14.66662
G1 X165.956 Y153.635 E14.76231
G1 X166.664 Y153.911 E14.85808
G1 X167.356 Y154.215 E14.95334
G1 X168.178 Y154.628 E15.06928
G1 X168.707 Y154.918 E15.14531
G1 X169.357 Y155.312 E15.24111
G1 X169.989 Y155.735 E15.33696
G1 X170.602 Y156.184 E15.43273
G1 X171.194 Y156.659 E15.52839
G1 X171.765 Y157.16 E15.62413
G1 X172.314 Y157.686 E15.71996
G1 X172.84 Y158.235 E15.81579
G1 X173.341 Y158.806 E15.91153
G1 X173.816 Y159.398 E16.00719
G1 X174.265 Y160.011 E16.10296
G1 X174.688 Y160.643 E16.19881
G1 X175.082 Y161.293 E16.29461
G1 X175.447 Y161.959 E16.39033
G1 X175.783 Y162.64 E16.48604
G1 X176.089 Y163.336 E16.58186
G1 X176.365 Y164.044 E16.67763
G1 X176.609 Y164.763 E16.77332
G1 X176.822 Y165.493 E16.86916
G1 X177.094 Y166.693 E17.02424
G1 X177.295 Y167.989 E17.18953
G1 X177.357 Y168.613 E17.26856
G1 X177.401 Y169.371 E17.36425
G1 X177.412 Y170.131 E17.46005
G1 X177.398 Y170.76 E17.53934
G1 X177.349 Y171.518 E17.63507
G1 X177.266 Y172.273 E17.7308
G1 X177.15 Y173.024 E17.82657
G1 X177.002 Y173.769 E17.9223
G1 X176.822 Y174.507 E18.01804
G1 X176.609 Y175.237 E18.11388
G1 X176.365 Y175.956 E18.20957
G1 X176.089 Y176.664 E18.30534
G1 X175.783 Y177.36 E18.40116
G1 X175.447 Y178.041 E18.49687
G1 X175.082 Y178.707 E18.59259
G1 X174.688 Y179.357 E18.68839
G1 X174.265 Y179.989 E18.78424
G1 X173.816 Y180.602 E18.88001
G1 X173.341 Y181.194 E18.97567
G1 X172.942 Y181.649 E19.05194
G1 X172.311 Y182.317 E19.16775
G1 X171.765 Y182.84 E19.26304
G1 X171.194 Y183.341 E19.35878
G1 X170.602 Y183.816 E19.45444
G1 X169.989 Y184.265 E19.55021
G1 X169.357 Y184.688 E19.64606
G1 X168.707 Y185.082 E19.74186
G1 X168.178 Y185.372 E19.81789
G1 X167.356 Y185.785 E19.93383
G1 X166.664 Y186.089 E20.02909
G1 X165.956 Y186.365 E20.12486
G1 X165.237 Y186.609 E20.22055
G1 X164.507 Y186.822 E20.31639
G1 X163.769 Y187.002 E20.41213
G1 X163.024 Y187.15 E20.50786
G1 X162.273 Y187.266 E20.60363
G1 X161.518 Y187.349 E20.69936
G1 X160.76 Y187.398 E20.79509
G1 X160 Y187.415 E20.8909
G1 X159.24 Y187.398 E20.98671
G1 X158.482 Y187.349 E21.08244
G1 X157.727 Y187.266 E21.17817
G1 X156.976 Y187.15 E21.27394
G1 X156.231 Y187.002 E21.36967
G1 X155.493 Y186.822 E21.46541
G1 X154.763 Y186.609 E21.56125
G1 X154.044 Y186.365 E21.65694
G1 X153.336 Y186.089 E21.75271
G1 X152.644 Y185.785 E21.84797
G1 X151.822 Y185.372 E21.96391
G1 X151.293 Y185.082 E22.03994
G1 X150.643 Y184.688 E22.13574
G1 X150.011 Y184.265 E22.23159
G1 X149.398 Y183.816 E22.32736
G1 X148.806 Y183.341 E22.42302
G1 X148.235 Y182.84 E22.51876
G1 X147.686 Y182.314 E22.61459
G1 X147.16 Y181.765 E22.71042
G1 X146.659 Y181.194 E22.80616
G1 X146.184 Y180.602 E22.90182
G1 X145.735 Y179.989 E22.99759
G1 X145.312 Y179.357 E23.09344
G1 X144.918 Y178.707 E23.18924
