; generated by PrusaSlicer 2.8.0 on 2024-08-25 at 09:12:32 UTC

; 

; external perimeters extrusion width = 0.90mm
; perimeters extrusion width = 0.90mm
; infill extrusion width = 0.90mm
; solid infill extrusion width = 0.90mm
; top infill extrusion width = 0.80mm

M190 S60 ; set bed temperature and wait for it to be reached
;TYPE:Custom
; Start GCODE (begins)

G28 ; home all axes
G1 Z5 F5000 ; lift nozzle

M109 S200 ; Do this now so we can purge

; Extrude a small amount of waste material
G92 E0
G1 E20 F200
G92 E0

; Start GCODE (ends)
G21 ; set units to millimeters
G90 ; use absolute coordinates
M82 ; use absolute distances for extrusion
G92 E0
; Filament gcode
M107
;LAYER_CHANGE
;Z:0.35
;HEIGHT:0.35
G1 E-.3 F2400
G1 Z.35 F9000
G1 X133.035 Y141.38
G1 E.1 F2400
G92 E0
;TYPE:Skirt/Brim
;WIDTH:0.9
G1 F1200
G1 X135.306 Y139.243 E.39302
G1 X136.884 Y138.063 E.64136
G1 X142.002 Y134.912 E1.39885
G1 X143.761 Y134.085 E1.64382
G1 X149.432 Y132.018 E2.40455
G1 X151.322 Y131.562 E2.64959
G1 X157.293 Y130.678 E3.41034
G1 X159.236 Y130.612 E3.65536
G1 X164.614 Y130.883 E4.33403
G1 X167.179 Y131.275 E4.66106
G1 X173.015 Y132.818 E5.42187
G1 X174.827 Y133.523 E5.66692
G1 X180.233 Y136.209 E6.42772
G1 X181.865 Y137.265 E6.67271
G1 X186.619 Y140.984 E7.43343
G1 X188.006 Y142.347 E7.67852
G1 X191.515 Y146.431 E8.35714
G1 X192.998 Y148.561 E8.68425
G1 X195.613 Y153.268 E9.36289
G1 X196.647 Y155.676 E9.69318
G1 X198.252 Y160.792 E10.36895
G1 X198.676 Y162.692 E10.6143
G1 X199.321 Y168.688 E11.37436
G1 X199.322 Y171.309 E11.70469
G1 X198.779 Y176.643 E12.38043
G1 X198.42 Y178.557 E12.62587
G1 X196.648 Y184.321 E13.38588
G1 X195.91 Y186.126 E13.63165
G1 X193.014 Y191.416 E14.39174
G1 X191.914 Y193.053 E14.64031
G1 X188.024 Y197.635 E15.39784
G1 X186.619 Y199.016 E15.64614
G1 X181.887 Y202.721 E16.40359
G1 X180.233 Y203.791 E16.65187
G1 X174.851 Y206.467 E17.4094
G1 X173.015 Y207.182 E17.65773
G1 X167.205 Y208.721 E18.41524
G1 X165.263 Y209.051 E18.66351
G1 X159.262 Y209.389 E19.42104
G1 X157.293 Y209.322 E19.66934
G1 X150.711 Y208.313 E20.50859
G1 X148.837 Y207.795 E20.75363
G1 X143.188 Y205.67 E21.5143
G1 X141.434 Y204.773 E21.76259
G1 X136.35 Y201.565 E22.52024
G1 X134.813 Y200.334 E22.76843
G1 X130.479 Y196.169 E23.52601
G1 X129.221 Y194.653 E23.77429
G1 X125.815 Y189.701 E24.53179
G1 X124.9 Y187.986 E24.77678
G1 X122.548 Y182.427 E25.53753
G1 X121.997 Y180.562 E25.78263
G1 X120.812 Y174.644 E26.5433
G1 X120.648 Y172.707 E26.7883
G1 X120.678 Y166.67 E27.54918
G1 X120.907 Y164.74 E27.79413
G1 X122.152 Y158.833 E28.55497
G1 X122.765 Y156.989 E28.79988
G1 X125.174 Y151.454 E29.56068
G1 X126.146 Y149.77 E29.80574
G1 X129.619 Y144.833 E30.56651
G1 X130.91 Y143.38 E30.81148
G1 X132.948 Y141.462 E31.1642
G1 E30.8642 F2400
G92 E0
G92 E0
G1 X148.195 Y157.244 F9000
G1 E.4 F2400
;TYPE:Perimeter
;WIDTH:1.19256
G1 F1200
G1 X148.019 Y157.436 E.44447
;WIDTH:1.15895
G1 X147.843 Y157.627 E.48748
;WIDTH:1.15296
G1 X147.552 Y157.905 E.55376
;WIDTH:1.18056
G1 X147.261 Y158.183 E.62173
;WIDTH:1.195
G1 X147.191 Y158.246 E.63784
G1 E.33784 F2400
G92 E0
G1 X147.191 Y158.246 F9000
G1 X147.92 Y158.945
G1 X147.903 Y158.962
G1 X147.433 Y159.498
G1 X146.987 Y160.054
G1 X146.566 Y160.629
G1 X146.17 Y161.222
G1 X145.8 Y161.831
G1 X145.457 Y162.456
G1 X145.142 Y163.095
G1 X144.855 Y163.748
G1 X144.596 Y164.412
G1 X144.367 Y165.087
G1 X144.168 Y165.772
G1 X143.998 Y166.464
G1 X143.859 Y167.163
G1 X143.751 Y167.867
G1 X143.673 Y168.576
G1 X143.627 Y169.287
G1 X143.611 Y170
G1 X143.627 Y170.713
G1 X143.673 Y171.424
G1 X143.751 Y172.133
G1 X143.859 Y172.837
G1 X143.998 Y173.536
G1 X144.168 Y174.229
G1 X144.367 Y174.913
G1 X144.596 Y175.588
G1 X144.855 Y176.252
G1 X145.142 Y176.905
G1 X145.457 Y177.544
G1 X145.8 Y178.169
G1 X146.17 Y178.778
G1 X146.566 Y179.371
G1 X146.987 Y179.946
G1 X147.433 Y180.502
G1 X147.903 Y181.038
G1 X147.93 Y181.065
G1 X147.202 Y181.762
G1 E.4 F2400
;WIDTH:1.19019
G1 F1200
G1 X147.389 Y181.933 E.44317
;WIDTH:1.15779
G1 X147.576 Y182.105 E.4852
;WIDTH:1.15851
G1 X148.051 Y182.595 E.59817
;WIDTH:1.1786
G1 X148.147 Y182.7 E.62216
G1 E.32216 F2400
G92 E0
G1 X148.147 Y182.7 F9000
G1 X148.839 Y181.977
G1 X148.911 Y182.045
G1 X149.447 Y182.515
G1 X150.003 Y182.962
G1 X150.578 Y183.383
G1 X151.171 Y183.779
G1 X151.78 Y184.149
G1 X152.405 Y184.492
G1 X153.044 Y184.807
G1 X153.697 Y185.094
G1 X154.361 Y185.352
G1 X155.036 Y185.582
G1 X155.72 Y185.781
G1 X156.413 Y185.95
G1 X157.112 Y186.09
G1 X157.816 Y186.198
G1 X158.525 Y186.276
G1 X159.236 Y186.322
G1 X159.949 Y186.338
G1 X160.661 Y186.322
G1 X161.373 Y186.276
G1 X162.081 Y186.198
G1 X162.786 Y186.09
G1 X163.485 Y185.95
G1 X164.177 Y185.781
G1 X164.862 Y185.582
G1 X165.537 Y185.352
G1 X166.201 Y185.094
G1 X166.853 Y184.807
G1 X167.493 Y184.492
G1 X168.118 Y184.149
G1 X168.727 Y183.779
G1 X169.32 Y183.383
G1 X169.895 Y182.962
G1 X170.45 Y182.515
G1 X170.986 Y182.045
G1 X171.005 Y182.027
G1 X171.703 Y182.757
G1 E.4 F2400
;WIDTH:1.19458
G1 F1200
G1 X171.928 Y182.514 E.45664
;WIDTH:1.15452
G1 X172.153 Y182.271 E.51126
;WIDTH:1.14751
G1 X172.395 Y182.044 E.56563
;WIDTH:1.18056
G1 X172.636 Y181.817 E.62155
;WIDTH:1.1947
G1 X172.705 Y181.755 E.63742
G1 E.33742 F2400
G92 E0
G1 X172.705 Y181.755 F9000
G1 X171.976 Y181.056
G1 X171.994 Y181.038
G1 X172.464 Y180.502
G1 X172.91 Y179.946
G1 X173.332 Y179.371
G1 X173.728 Y178.778
G1 X174.098 Y178.169
G1 X174.441 Y177.544
G1 X174.756 Y176.905
G1 X175.043 Y176.252
G1 X175.301 Y175.588
G1 X175.53 Y174.913
G1 X175.73 Y174.228
G1 X175.899 Y173.536
G1 X176.038 Y172.837
G1 X176.147 Y172.132
G1 X176.224 Y171.424
G1 X176.271 Y170.713
G1 X176.286 Y170
G1 X176.271 Y169.287
G1 X176.224 Y168.576
G1 X176.147 Y167.868
G1 X176.038 Y167.163
G1 X175.899 Y166.464
G1 X175.73 Y165.772
G1 X175.53 Y165.087
G1 X175.301 Y164.412
G1 X175.043 Y163.748
G1 X174.756 Y163.095
G1 X174.441 Y162.456
G1 X174.098 Y161.831
G1 X173.728 Y161.222
G1 X173.332 Y160.629
G1 X172.91 Y160.054
G1 X172.464 Y159.498
G1 X171.994 Y158.962
G1 X171.925 Y158.891
G1 X172.649 Y158.198
G1 E.4 F2400
;WIDTH:1.1786
G1 F1200
G1 X172.434 Y157.997 E.44962
;WIDTH:1.14655
G1 X172.22 Y157.796 E.49768
;WIDTH:1.14753
G1 X171.993 Y157.554 E.55205
;WIDTH:1.18056
G1 X171.766 Y157.313 E.60797
;WIDTH:1.1947
G1 X171.703 Y157.243 E.62408
G1 E.32408 F2400
G92 E0
G1 X171.703 Y157.243 F9000
G1 X171.005 Y157.973
G1 X171.501 Y158.447
G1 X171.994 Y158.962
G1 X172.464 Y159.498
G1 X172.91 Y160.054
G1 X173.332 Y160.629
G1 X173.728 Y161.222
G1 X174.098 Y161.831
G1 X174.441 Y162.456
G1 X174.756 Y163.095
G1 X175.043 Y163.748
G1 X175.301 Y164.412
G1 X175.53 Y165.087
G1 X175.73 Y165.772
G1 X175.899 Y166.464
G1 X176.038 Y167.163
G1 X176.147 Y167.868
G1 X176.224 Y168.576
G1 X176.271 Y169.287
G1 X176.286 Y170
G1 X176.271 Y170.713
G1 X176.224 Y171.424
G1 X176.147 Y172.132
G1 X176.038 Y172.837
G1 X175.899 Y173.536
G1 X175.73 Y174.228
G1 X175.53 Y174.913
G1 X175.301 Y175.588
G1 X175.043 Y176.252
G1 X174.756 Y176.905
G1 X174.441 Y177.544
G1 X174.098 Y178.169
G1 X173.728 Y178.778
G1 X173.332 Y179.371
G1 X172.91 Y179.946
G1 X172.464 Y180.502
G1 X171.994 Y181.038
G1 X171.501 Y181.553
G1 X171.473 Y181.579
G1 X171.005 Y182.028
G1 X171.703 Y182.757
G1 E.4 F2400
;WIDTH:1.19445
G1 F1200
G1 X171.591 Y182.824 E.42232
;WIDTH:1.14626
G1 X171.478 Y182.891 E.44382
;WIDTH:1.09807
G1 X171.365 Y182.959 E.46443
;WIDTH:1.04988
G1 X171.253 Y183.026 E.48387
;WIDTH:1.0017
G1 X171.14 Y183.093 E.50247
;WIDTH:0.953508
G1 X170.81 Y183.345 E.5582
;WIDTH:0.926754
G1 X170.481 Y183.597 E.61213
;WIDTH:0.9
G1 X169.851 Y184.063 E.71089
G1 X169.369 Y184.387 E.78409
G1 X168.587 Y184.873 E.90013
G1 X167.93 Y185.235 E.99467
G1 X167.406 Y185.496 E1.06845
G1 X166.572 Y185.873 E1.1838
G1 X165.874 Y186.147 E1.27831
G1 X165.164 Y186.39 E1.37289
G1 X164.444 Y186.602 E1.46749
G1 X163.715 Y186.782 E1.56213
G1 X162.967 Y186.932 E1.65828
G1 X162.238 Y187.046 E1.75128
G1 X161.673 Y187.11 E1.82294
G1 X160.744 Y187.181 E1.94037
G1 X159.994 Y187.199 E2.03492
G1 X159.353 Y187.187 E2.11572
G1 X158.643 Y187.148 E2.20534
G1 X157.748 Y187.058 E2.31871
G1 X157.006 Y186.946 E2.41329
G1 X156.439 Y186.835 E2.48611
G1 X155.577 Y186.634 E2.59767
G1 X154.82 Y186.417 E2.69692
G1 X154.109 Y186.177 E2.7915
G1 X153.408 Y185.907 E2.88618
G1 X152.721 Y185.607 E2.98066
G1 X152.047 Y185.277 E3.07524
G1 X151.538 Y185 E3.14828
G1 X150.746 Y184.53 E3.26435
G1 X150.121 Y184.115 E3.3589
G1 X149.514 Y183.673 E3.45354
G1 X148.928 Y183.204 E3.54814
;WIDTH:0.943958
G1 X148.795 Y183.118 E3.56917
;WIDTH:0.987916
G1 X148.662 Y183.031 E3.59134
;WIDTH:1.03187
G1 X148.529 Y182.945 E3.61449
;WIDTH:1.07583
G1 X148.396 Y182.858 E3.63879
;WIDTH:1.11009
G1 X148.313 Y182.805 E3.65436
;WIDTH:1.14434
G1 X148.23 Y182.753 E3.67036
;WIDTH:1.1786
G1 X148.147 Y182.7 E3.68696
G1 X148.194 Y182.827 E3.70979
;WIDTH:1.13131
G1 X148.24 Y182.953 E3.73144
;WIDTH:1.08403
G1 X148.287 Y183.08 E3.75231
;WIDTH:1.03675
G1 X148.334 Y183.206 E3.77207
;WIDTH:0.989465
G1 X148.381 Y183.333 E3.79099
;WIDTH:0.942183
G1 X148.64 Y184.121 E3.90088
;WIDTH:0.9
G1 X148.739 Y184.799 E3.98724
G1 X148.72 Y185.416 E4.06504
G1 X148.63 Y185.914 E4.12882
G1 X148.456 Y186.462 E4.20128
G1 X148.19 Y186.972 E4.27377
G1 X147.891 Y187.395 E4.33906
G1 X147.496 Y187.814 E4.41163
G1 X147.075 Y188.148 E4.47936
G1 X146.566 Y188.435 E4.55301
G1 X145.828 Y188.691 E4.65146
G1 X145.129 Y188.792 E4.74047
G1 X144.484 Y188.767 E4.82182
G1 X144.07 Y188.691 E4.87487
G1 X143.491 Y188.509 E4.95136
;WIDTH:0.944412
G1 X143.39 Y188.481 E4.96528
;WIDTH:0.988825
G1 X143.289 Y188.453 E4.97991
;WIDTH:1.03324
G1 X143.189 Y188.424 E4.99515
;WIDTH:1.07765
G1 X143.088 Y188.396 E5.0112
;WIDTH:1.12206
G1 X142.987 Y188.368 E5.02797
;WIDTH:1.16648
G1 X142.886 Y188.339 E5.04549
;WIDTH:1.21089
G1 X142.785 Y188.311 E5.06368
G1 X142.341 Y187.945 E5.16353
;WIDTH:1.19838
G1 X141.887 Y187.478 E5.27531
;WIDTH:1.21551
G1 X141.754 Y187.327 E5.31037
G1 X141.72 Y187.226 E5.32894
;WIDTH:1.17043
G1 X141.686 Y187.124 E5.34693
;WIDTH:1.12536
G1 X141.652 Y187.023 E5.36403
;WIDTH:1.08029
G1 X141.617 Y186.922 E5.38045
;WIDTH:1.03522
G1 X141.583 Y186.821 E5.39608
;WIDTH:0.990144
G1 X141.549 Y186.72 E5.41098
;WIDTH:0.945072
G1 X141.515 Y186.619 E5.42515
;WIDTH:0.9
G1 X141.291 Y185.992 E5.50906
G1 X141.183 Y185.482 E5.57476
G1 X141.157 Y184.818 E5.65851
G1 X141.259 Y184.117 E5.74779
G1 X141.465 Y183.484 E5.83169
G1 X141.717 Y183.012 E5.89913
G1 X142.141 Y182.445 E5.98836
G1 X142.701 Y181.945 E6.08298
G1 X143.063 Y181.705 E6.13772
G1 X143.664 Y181.428 E6.22112
G1 X144.347 Y181.254 E6.30995
G1 X145.053 Y181.203 E6.39916
G1 X145.718 Y181.28 E6.48353
G1 X146.396 Y181.487 E6.57287
;WIDTH:0.94112
G1 X146.514 Y181.525 E6.58927
;WIDTH:0.982241
G1 X146.632 Y181.563 E6.60645
;WIDTH:1.02336
G1 X146.75 Y181.602 E6.62446
;WIDTH:1.06448
G1 X146.868 Y181.64 E6.6432
;WIDTH:1.1056
G1 X146.987 Y181.678 E6.66287
;WIDTH:1.1479
G1 X147.094 Y181.72 E6.68171
;WIDTH:1.19019
G1 X147.202 Y181.762 E6.70145
G1 X147.138 Y181.656 E6.72255
;WIDTH:1.14544
G1 X147.074 Y181.55 E6.7428
;WIDTH:1.10068
G1 X147.01 Y181.444 E6.7622
;WIDTH:1.05592
G1 X146.947 Y181.338 E6.78068
;WIDTH:1.01116
G1 X146.883 Y181.232 E6.79839
;WIDTH:0.966401
G1 X146.734 Y181.028 E6.83279
;WIDTH:0.9332
G1 X146.586 Y180.823 E6.86594
;WIDTH:0.9
G1 X146.051 Y180.127 E6.97658
G1 X145.558 Y179.415 E7.08573
G1 X145.076 Y178.639 E7.20086
G1 X144.714 Y177.982 E7.2954
G1 X144.453 Y177.458 E7.36918
G1 X144.076 Y176.623 E7.48465
G1 X143.802 Y175.925 E7.57916
G1 X143.559 Y175.215 E7.67374
G1 X143.347 Y174.495 E7.76834
G1 X143.167 Y173.767 E7.86286
G1 X143.019 Y173.031 E7.95748
G1 X142.902 Y172.29 E8.05203
G1 X142.836 Y171.704 E8.12635
G1 X142.77 Y170.823 E8.2377
G1 X142.749 Y170.045 E8.33579
G1 X142.764 Y169.295 E8.43033
G1 X142.811 Y168.546 E8.52491
G1 X142.893 Y167.787 E8.62113
G1 X143.003 Y167.058 E8.71405
G1 X143.147 Y166.321 E8.80869
G1 X143.319 Y165.61 E8.90088
G1 X143.532 Y164.871 E8.99781
G1 X143.771 Y164.16 E9.09235
G1 X144.041 Y163.46 E9.18691
G1 X144.342 Y162.772 E9.28156
G1 X144.672 Y162.098 E9.37614
G1 X145.038 Y161.428 E9.47236
G1 X145.386 Y160.851 E9.55728
G1 X145.834 Y160.172 E9.65981
G1 X146.276 Y159.565 E9.75445
G1 X146.744 Y158.979 E9.84897
;WIDTH:0.941829
G1 X146.811 Y158.87 E9.86591
;WIDTH:0.983658
G1 X146.878 Y158.762 E9.88355
;WIDTH:1.02549
G1 X146.945 Y158.653 E9.90213
;WIDTH:1.06732
G1 X147.012 Y158.545 E9.9214
;WIDTH:1.10988
G1 X147.071 Y158.445 E9.93976
;WIDTH:1.15244
G1 X147.131 Y158.346 E9.95881
;WIDTH:1.195
G1 X147.191 Y158.246 E9.97876
G1 X147.068 Y158.289 E10.00106
;WIDTH:1.14667
G1 X146.946 Y158.331 E10.02218
;WIDTH:1.09834
G1 X146.823 Y158.374 E10.04255
;WIDTH:1.05002
G1 X146.7 Y158.416 E10.06191
;WIDTH:1.00169
G1 X146.578 Y158.459 E10.08022
;WIDTH:0.953362
G1 X146.203 Y158.575 E10.13289
;WIDTH:0.926681
G1 X145.828 Y158.691 E10.18396
;WIDTH:0.9
G1 X145.15 Y158.79 E10.27032
G1 X144.557 Y158.769 E10.3451
G1 X144.024 Y158.684 E10.41312
G1 X143.488 Y158.508 E10.48422
G1 X142.977 Y158.241 E10.55688
G1 X142.627 Y158.003 E10.61022
G1 X142.175 Y157.595 E10.68696
G1 X141.792 Y157.114 E10.76445
G1 X141.515 Y156.619 E10.83594
G1 X141.363 Y156.242 E10.88717
G1 X141.183 Y155.482 E10.98561
G1 X141.157 Y154.818 E11.06936
G1 X141.211 Y154.316 E11.13299
G1 X141.364 Y153.757 E11.20603
;WIDTH:0.936786
G1 X141.465 Y153.5 E11.24238
;WIDTH:0.973572
G1 X141.567 Y153.242 E11.28046
;WIDTH:1.01036
G1 X141.669 Y152.985 E11.31997
;WIDTH:1.05794
G1 X141.709 Y152.884 E11.33628
;WIDTH:1.10551
G1 X141.749 Y152.783 E11.35338
;WIDTH:1.15309
G1 X141.79 Y152.682 E11.37133
;WIDTH:1.20067
G1 X141.83 Y152.581 E11.39001
G1 X142.205 Y152.177 E11.4848
;WIDTH:1.19502
G1 X142.632 Y151.811 E11.58103
G1 X142.748 Y151.77 E11.60208
;WIDTH:1.14585
G1 X142.865 Y151.729 E11.62236
;WIDTH:1.09668
G1 X142.982 Y151.688 E11.64171
;WIDTH:1.04751
G1 X143.098 Y151.647 E11.65999
;WIDTH:0.99834
G1 X143.215 Y151.606 E11.67748
;WIDTH:0.94917
G1 X143.332 Y151.565 E11.69404
;WIDTH:0.9
G1 X143.953 Y151.337 E11.77742
G1 X144.517 Y151.235 E11.84966
G1 X145.124 Y151.208 E11.92624
G1 X145.622 Y151.26 E11.98935
G1 X146.191 Y151.415 E12.06368
G1 X146.937 Y151.768 E12.1677
G1 X147.484 Y152.175 E12.25363
G1 X147.891 Y152.605 E12.32825
G1 X148.189 Y153.028 E12.39346
G1 X148.456 Y153.538 E12.46601
G1 X148.629 Y154.085 E12.53832
G1 X148.72 Y154.583 E12.60212
G1 X148.746 Y155.105 E12.66799
G1 X148.669 Y155.769 E12.75224
G1 X148.458 Y156.459 E12.84318
;WIDTH:0.942306
G1 X148.421 Y156.575 E12.85931
;WIDTH:0.984612
G1 X148.384 Y156.691 E12.87623
;WIDTH:1.02692
G1 X148.347 Y156.807 E12.89394
;WIDTH:1.06923
G1 X148.31 Y156.923 E12.91243
;WIDTH:1.11153
G1 X148.273 Y157.039 E12.93171
;WIDTH:1.15205
G1 X148.234 Y157.142 E12.94983
;WIDTH:1.19256
G1 X148.195 Y157.244 E12.96847
G1 X148.299 Y157.182 E12.98914
;WIDTH:1.14829
G1 X148.403 Y157.119 E13.00908
;WIDTH:1.10401
G1 X148.507 Y157.057 E13.02811
;WIDTH:1.05973
G1 X148.611 Y156.995 E13.04632
;WIDTH:1.01545
G1 X148.715 Y156.932 E13.06379
;WIDTH:0.971175
G1 X148.92 Y156.785 E13.09833
;WIDTH:0.935587
G1 X149.126 Y156.637 E13.13168
;WIDTH:0.9
G1 X149.819 Y156.104 E13.24187
G1 X150.472 Y155.651 E13.34203
G1 X151.278 Y155.147 E13.46184
G1 X151.967 Y154.765 E13.56113
G1 X152.639 Y154.431 E13.65571
G1 X153.325 Y154.127 E13.75028
G1 X154.013 Y153.858 E13.84338
G1 X154.732 Y153.611 E13.9392
G1 X155.454 Y153.398 E14.03407
G1 X156.077 Y153.244 E14.11495
G1 X156.918 Y153.07 E14.22319
G1 X157.659 Y152.954 E14.31772
G1 X158.264 Y152.885 E14.39446
G1 X159.143 Y152.82 E14.50555
G1 X159.904 Y152.801 E14.60149
G1 X160.654 Y152.815 E14.69603
G1 X161.403 Y152.862 E14.79061
G1 X162.149 Y152.942 E14.88517
G1 X162.891 Y153.054 E14.97975
G1 X164.357 Y153.375 E15.16889
G1 X165.078 Y153.583 E15.26347
G1 X165.647 Y153.774 E15.33912
G1 X166.489 Y154.093 E15.4526
G1 X167.177 Y154.393 E15.5472
G1 X168.36 Y155 E15.71478
G1 X169.152 Y155.47 E15.83085
G1 X169.777 Y155.885 E15.9254
G1 X170.812 Y156.669 E16.08904
;WIDTH:0.941633
G1 X170.96 Y156.767 E16.11254
;WIDTH:0.983266
G1 X171.108 Y156.866 E16.13725
;WIDTH:1.0249
G1 X171.256 Y156.965 E16.16309
;WIDTH:1.06653
G1 X171.404 Y157.063 E16.18998
;WIDTH:1.10926
