; generated by PrusaSlicer 2.8.0 on 2024-08-23 at 05:53:03 UTC

; 

; external perimeters extrusion width = 0.90mm
; perimeters extrusion width = 0.90mm
; infill extrusion width = 0.90mm
; solid infill extrusion width = 0.90mm
; top infill extrusion width = 0.80mm

M190 S60 ; set bed temperature and wait for it to be reached
;TYPE:Custom
; Start GCODE (begins)

G28 ; home all axes
G1 Z5 F5000 ; lift nozzle

M109 S200 ; Do this now so we can purge

; Extrude a small amount of waste material
G92 E0
G1 E20 F200
G92 E0

; Start GCODE (ends)
G21 ; set units to millimeters
G90 ; use absolute coordinates
M82 ; use absolute distances for extrusion
G92 E0
; Filament gcode
M107
;LAYER_CHANGE
;Z:0.35
;HEIGHT:0.35
G1 E-.3 F2400
G1 Z.35 F9000
G1 X133.035 Y141.38
G1 E.1 F2400
G92 E0
;TYPE:Skirt/Brim
;WIDTH:0.9
G1 F1200
G1 X135.306 Y139.243 E.39302
G1 X136.863 Y138.079 E.63803
G1 X142.002 Y134.912 E1.39883
G1 X143.761 Y134.085 E1.6438
G1 X149.432 Y132.018 E2.40453
G1 X151.322 Y131.562 E2.64957
G1 X157.293 Y130.678 E3.41032
G1 X159.236 Y130.612 E3.65534
G1 X164.614 Y130.883 E4.33401
G1 X167.179 Y131.275 E4.66104
G1 X173.015 Y132.818 E5.42185
G1 X174.827 Y133.523 E5.6669
G1 X180.233 Y136.209 E6.4277
G1 X181.865 Y137.265 E6.67269
G1 X186.619 Y140.984 E7.43341
G1 X188.006 Y142.347 E7.6785
G1 X191.515 Y146.431 E8.35712
G1 X193.013 Y148.582 E8.68748
G1 X195.901 Y153.853 E9.44498
G1 X196.637 Y155.652 E9.68996
G1 X198.251 Y160.789 E10.3686
G1 X198.779 Y163.357 E10.69903
G1 X199.322 Y168.691 E11.37477
G1 X199.322 Y171.309 E11.70473
G1 X198.779 Y176.643 E12.38047
G1 X198.415 Y178.579 E12.62875
G1 X196.647 Y184.324 E13.38633
G1 X195.91 Y186.126 E13.6317
G1 X193.014 Y191.416 E14.39179
G1 X191.928 Y193.034 E14.63739
G1 X188.026 Y197.633 E15.39754
G1 X186.619 Y199.016 E15.64619
G1 X181.887 Y202.721 E16.40364
G1 X180.233 Y203.791 E16.65192
G1 X174.851 Y206.467 E17.40945
G1 X173.015 Y207.182 E17.65778
G1 X167.205 Y208.721 E18.41529
G1 X165.263 Y209.051 E18.66356
G1 X159.262 Y209.389 E19.42109
G1 X157.316 Y209.323 E19.66649
G1 X150.711 Y208.313 E20.50862
G1 X148.812 Y207.788 E20.75694
G1 X143.188 Y205.67 E21.51435
G1 X141.434 Y204.773 E21.76264
G1 X136.35 Y201.565 E22.52029
G1 X134.813 Y200.334 E22.76848
G1 X130.479 Y196.169 E23.52606
G1 X129.221 Y194.653 E23.77434
G1 X125.815 Y189.701 E24.53184
G1 X124.9 Y187.986 E24.77683
G1 X122.548 Y182.427 E25.53758
G1 X121.99 Y180.538 E25.78583
G1 X120.812 Y174.644 E26.54336
G1 X120.648 Y172.707 E26.78836
G1 X120.678 Y166.67 E27.54924
G1 X120.907 Y164.74 E27.79419
G1 X122.152 Y158.833 E28.55503
G1 X122.773 Y156.964 E28.80325
G1 X125.174 Y151.454 E29.56076
G1 X126.146 Y149.77 E29.80582
G1 X129.619 Y144.833 E30.56659
G1 X130.91 Y143.38 E30.81156
G1 X132.948 Y141.462 E31.16428
G1 E30.86428 F2400
G92 E0
G92 E0
G1 X148.195 Y157.244 F9000
G1 E.4 F2400
;TYPE:Perimeter
;WIDTH:1.19256
G1 F1200
G1 X148.019 Y157.435 E.44434
;WIDTH:1.15898
G1 X147.844 Y157.627 E.48736
;WIDTH:1.15867
G1 X147.354 Y158.103 E.60046
;WIDTH:1.17894
G1 X147.247 Y158.199 E.6247
G1 E.3247 F2400
G92 E0
G1 X147.247 Y158.199 F9000
G1 X147.971 Y158.892
G1 X147.903 Y158.962
G1 X147.433 Y159.498
G1 X146.987 Y160.054
G1 X146.566 Y160.629
G1 X146.17 Y161.222
G1 X145.8 Y161.831
G1 X145.457 Y162.456
G1 X145.142 Y163.095
G1 X144.855 Y163.748
G1 X144.596 Y164.412
G1 X144.367 Y165.087
G1 X144.168 Y165.771
G1 X143.998 Y166.464
G1 X143.859 Y167.163
G1 X143.751 Y167.868
G1 X143.673 Y168.576
G1 X143.627 Y169.287
G1 X143.611 Y170
G1 X143.627 Y170.713
G1 X143.673 Y171.424
G1 X143.751 Y172.132
G1 X143.859 Y172.837
G1 X143.998 Y173.536
G1 X144.168 Y174.228
G1 X144.367 Y174.913
G1 X144.596 Y175.588
G1 X144.855 Y176.252
G1 X145.142 Y176.905
G1 X145.457 Y177.544
G1 X145.8 Y178.169
G1 X146.17 Y178.778
G1 X146.566 Y179.371
G1 X146.987 Y179.946
G1 X147.433 Y180.502
G1 X147.903 Y181.038
G1 X147.921 Y181.057
G1 X147.193 Y181.754
G1 E.4 F2400
;WIDTH:1.19257
G1 F1200
G1 X147.384 Y181.93 E.44434
;WIDTH:1.15898
G1 X147.576 Y182.105 E.48736
;WIDTH:1.1593
G1 X148.054 Y182.598 E.60111
;WIDTH:1.17916
G1 X148.148 Y182.702 E.62476
G1 E.32476 F2400
G92 E0
G1 X148.148 Y182.702 F9000
G1 X148.841 Y181.979
G1 X148.911 Y182.045
G1 X149.447 Y182.515
G1 X150.003 Y182.962
G1 X150.578 Y183.383
G1 X151.17 Y183.779
G1 X151.78 Y184.149
G1 X152.405 Y184.492
G1 X153.044 Y184.807
G1 X153.697 Y185.094
G1 X154.361 Y185.352
G1 X155.036 Y185.582
G1 X155.72 Y185.781
G1 X156.413 Y185.95
G1 X157.112 Y186.09
G1 X157.816 Y186.198
G1 X158.525 Y186.276
G1 X159.236 Y186.322
G1 X159.949 Y186.338
G1 X160.661 Y186.322
G1 X161.373 Y186.276
G1 X162.081 Y186.198
G1 X162.786 Y186.09
G1 X163.485 Y185.95
G1 X164.177 Y185.781
G1 X164.862 Y185.582
G1 X165.537 Y185.352
G1 X166.201 Y185.094
G1 X166.853 Y184.807
G1 X167.493 Y184.492
G1 X168.118 Y184.149
G1 X168.727 Y183.779
G1 X169.32 Y183.383
G1 X169.895 Y182.962
G1 X170.45 Y182.515
G1 X170.986 Y182.045
G1 X171.005 Y182.027
G1 X171.703 Y182.757
G1 E.4 F2400
;WIDTH:1.19458
G1 F1200
G1 X171.928 Y182.514 E.45664
;WIDTH:1.15451
G1 X172.153 Y182.271 E.51126
;WIDTH:1.1475
G1 X172.394 Y182.044 E.56551
;WIDTH:1.18056
G1 X172.636 Y181.817 E.62155
;WIDTH:1.1947
G1 X172.705 Y181.755 E.63742
G1 E.33742 F2400
G92 E0
G1 X172.705 Y181.755 F9000
G1 X171.976 Y181.056
G1 X171.994 Y181.038
G1 X172.464 Y180.502
G1 X172.91 Y179.946
G1 X173.332 Y179.371
G1 X173.728 Y178.778
G1 X174.098 Y178.169
G1 X174.44 Y177.544
G1 X174.756 Y176.905
G1 X175.043 Y176.252
G1 X175.301 Y175.588
G1 X175.53 Y174.913
G1 X175.73 Y174.229
G1 X175.899 Y173.536
G1 X176.038 Y172.837
G1 X176.147 Y172.132
G1 X176.224 Y171.424
G1 X176.271 Y170.713
G1 X176.286 Y170
G1 X176.271 Y169.287
G1 X176.224 Y168.576
G1 X176.147 Y167.867
G1 X176.038 Y167.163
G1 X175.899 Y166.464
G1 X175.73 Y165.771
G1 X175.53 Y165.087
G1 X175.301 Y164.412
G1 X175.043 Y163.748
G1 X174.756 Y163.095
G1 X174.441 Y162.456
G1 X174.098 Y161.831
G1 X173.728 Y161.222
G1 X173.332 Y160.629
G1 X172.91 Y160.054
G1 X172.464 Y159.498
G1 X171.994 Y158.962
G1 X171.925 Y158.891
G1 X172.649 Y158.198
G1 E.4 F2400
;WIDTH:1.17859
G1 F1200
G1 X172.434 Y157.997 E.44962
;WIDTH:1.14655
G1 X172.22 Y157.796 E.49768
;WIDTH:1.14753
G1 X171.993 Y157.554 E.55205
;WIDTH:1.18056
G1 X171.766 Y157.313 E.60797
;WIDTH:1.1947
G1 X171.704 Y157.243 E.62397
G1 E.32397 F2400
G92 E0
G1 X171.704 Y157.243 F9000
G1 X171.005 Y157.973
G1 X171.501 Y158.447
G1 X171.994 Y158.962
G1 X172.464 Y159.498
G1 X172.91 Y160.054
G1 X173.332 Y160.629
G1 X173.728 Y161.222
G1 X174.098 Y161.831
G1 X174.441 Y162.456
G1 X174.756 Y163.095
G1 X175.043 Y163.748
G1 X175.301 Y164.412
G1 X175.53 Y165.087
G1 X175.73 Y165.771
G1 X175.899 Y166.464
G1 X176.038 Y167.163
G1 X176.147 Y167.867
G1 X176.224 Y168.576
G1 X176.271 Y169.287
G1 X176.286 Y170
G1 X176.271 Y170.713
G1 X176.224 Y171.424
G1 X176.147 Y172.132
G1 X176.038 Y172.837
G1 X175.899 Y173.536
G1 X175.73 Y174.229
G1 X175.53 Y174.913
G1 X175.301 Y175.588
G1 X175.043 Y176.252
G1 X174.756 Y176.905
G1 X174.44 Y177.544
G1 X174.098 Y178.169
G1 X173.728 Y178.778
G1 X173.332 Y179.371
G1 X172.91 Y179.946
G1 X172.464 Y180.502
G1 X171.994 Y181.038
G1 X171.501 Y181.553
G1 X171.473 Y181.579
G1 X171.005 Y182.028
G1 X171.703 Y182.757
G1 E.4 F2400
;WIDTH:1.19444
G1 F1200
G1 X171.591 Y182.824 E.42232
;WIDTH:1.14629
G1 X171.478 Y182.891 E.44382
;WIDTH:1.09813
G1 X171.366 Y182.959 E.4643
;WIDTH:1.04997
G1 X171.253 Y183.026 E.48387
;WIDTH:1.00181
G1 X171.14 Y183.093 E.50247
;WIDTH:0.953654
G1 X170.859 Y183.306 E.5498
;WIDTH:0.926827
G1 X170.577 Y183.52 E.59587
;WIDTH:0.9
G1 X169.884 Y184.038 E.70491
G1 X169.368 Y184.388 E.78349
G1 X168.587 Y184.873 E.89936
G1 X167.93 Y185.235 E.9939
G1 X167.406 Y185.496 E1.06768
G1 X166.572 Y185.873 E1.18303
G1 X165.874 Y186.147 E1.27754
G1 X165.164 Y186.39 E1.37212
G1 X164.444 Y186.602 E1.46672
G1 X163.715 Y186.782 E1.56136
G1 X162.98 Y186.93 E1.65585
G1 X162.238 Y187.046 E1.7505
G1 X161.673 Y187.11 E1.82216
G1 X160.744 Y187.181 E1.93959
G1 X159.994 Y187.199 E2.03414
G1 X159.353 Y187.187 E2.11494
G1 X158.643 Y187.148 E2.20456
G1 X157.735 Y187.056 E2.31958
G1 X157.006 Y186.946 E2.4125
G1 X156.439 Y186.835 E2.48532
G1 X155.577 Y186.634 E2.59688
G1 X154.82 Y186.417 E2.69613
G1 X154.109 Y186.177 E2.79071
G1 X153.408 Y185.907 E2.88539
G1 X152.721 Y185.607 E2.97987
G1 X152.047 Y185.277 E3.07445
G1 X151.388 Y184.918 E3.16903
G1 X150.799 Y184.563 E3.2557
G1 X150.121 Y184.115 E3.35812
G1 X149.085 Y183.331 E3.52186
;WIDTH:0.942818
G1 X148.725 Y183.058 E3.58176
;WIDTH:0.987223
G1 X148.616 Y182.992 E3.59952
;WIDTH:1.03163
G1 X148.507 Y182.926 E3.61814
;WIDTH:1.07603
G1 X148.399 Y182.86 E3.6375
;WIDTH:1.12044
G1 X148.29 Y182.794 E3.65785
;WIDTH:1.1498
G1 X148.219 Y182.748 E3.67174
;WIDTH:1.17916
G1 X148.148 Y182.702 E3.68601
G1 X148.195 Y182.829 E3.70885
;WIDTH:1.13189
G1 X148.242 Y182.955 E3.73056
;WIDTH:1.08462
G1 X148.288 Y183.081 E3.75125
;WIDTH:1.03736
G1 X148.335 Y183.207 E3.77102
;WIDTH:0.990087
G1 X148.381 Y183.334 E3.7899
;WIDTH:0.942818
G1 X148.613 Y184.009 E3.88453
;WIDTH:0.9
G1 X148.737 Y184.777 E3.98258
G1 X148.718 Y185.392 E4.06013
G1 X148.631 Y185.931 E4.12894
G1 X148.456 Y186.462 E4.1994
G1 X148.19 Y186.972 E4.27189
G1 X147.891 Y187.395 E4.33718
G1 X147.502 Y187.81 E4.40887
G1 X146.998 Y188.197 E4.48896
G1 X146.605 Y188.414 E4.54554
G1 X145.828 Y188.691 E4.64951
G1 X145.129 Y188.792 E4.73852
G1 X144.484 Y188.767 E4.81987
G1 X144.07 Y188.691 E4.87292
G1 X143.491 Y188.509 E4.94941
;WIDTH:0.942837
G1 X143.375 Y188.473 E4.96551
;WIDTH:0.985674
G1 X143.258 Y188.436 E4.98258
;WIDTH:1.02851
G1 X143.142 Y188.399 E5.00032
;WIDTH:1.07135
G1 X143.025 Y188.362 E5.019
;WIDTH:1.11418
G1 X142.909 Y188.326 E5.03828
;WIDTH:1.15943
G1 X142.818 Y188.297 E5.0541
;WIDTH:1.20468
G1 X142.727 Y188.268 E5.07058
G1 X142.305 Y187.914 E5.16564
;WIDTH:1.19844
G1 X141.887 Y187.478 E5.26931
;WIDTH:1.21607
G1 X141.752 Y187.324 E5.30501
G1 X141.718 Y187.223 E5.32359
;WIDTH:1.17092
G1 X141.684 Y187.122 E5.34143
;WIDTH:1.12577
G1 X141.65 Y187.021 E5.35854
;WIDTH:1.08061
G1 X141.616 Y186.92 E5.37491
;WIDTH:1.03546
G1 X141.582 Y186.819 E5.39055
;WIDTH:0.990306
G1 X141.548 Y186.718 E5.40545
;WIDTH:0.945153
G1 X141.514 Y186.617 E5.41962
;WIDTH:0.9
G1 X141.284 Y185.991 E5.50367
G1 X141.161 Y185.224 E5.60157
G1 X141.183 Y184.518 E5.69059
G1 X141.363 Y183.758 E5.78903
G1 X141.657 Y183.11 E5.87871
G1 X141.877 Y182.772 E5.92954
G1 X142.175 Y182.405 E5.98912
G1 X142.701 Y181.945 E6.07719
G1 X143.062 Y181.705 E6.13183
G1 X143.664 Y181.428 E6.21535
G1 X144.347 Y181.254 E6.30418
G1 X145.053 Y181.203 E6.39339
G1 X145.729 Y181.283 E6.47918
G1 X146.396 Y181.487 E6.56709
;WIDTH:0.942313
G1 X146.515 Y181.524 E6.5836
;WIDTH:0.984626
G1 X146.633 Y181.562 E6.60083
;WIDTH:1.02694
G1 X146.751 Y181.6 E6.61886
;WIDTH:1.06925
G1 X146.87 Y181.638 E6.63783
;WIDTH:1.11156
G1 X146.988 Y181.676 E6.65746
;WIDTH:1.15207
G1 X147.09 Y181.715 E6.67543
;WIDTH:1.19257
G1 X147.193 Y181.754 E6.69423
G1 X147.13 Y181.65 E6.71499
;WIDTH:1.14829
G1 X147.068 Y181.546 E6.73484
;WIDTH:1.10402
G1 X147.006 Y181.442 E6.75387
;WIDTH:1.05974
G1 X146.943 Y181.338 E6.77216
;WIDTH:1.01547
G1 X146.881 Y181.234 E6.78956
;WIDTH:0.971197
G1 X146.733 Y181.029 E6.82418
;WIDTH:0.935598
G1 X146.586 Y180.823 E6.85745
;WIDTH:0.9
G1 X146.051 Y180.127 E6.96809
G1 X145.558 Y179.415 E7.07724
G1 X145.076 Y178.639 E7.19237
G1 X144.714 Y177.982 E7.28691
G1 X144.453 Y177.458 E7.36069
G1 X144.076 Y176.623 E7.47616
G1 X143.802 Y175.925 E7.57067
G1 X143.559 Y175.215 E7.66525
G1 X143.347 Y174.495 E7.75985
G1 X143.167 Y173.767 E7.85437
G1 X143.019 Y173.031 E7.94899
G1 X142.902 Y172.29 E8.04354
G1 X142.836 Y171.704 E8.11786
G1 X142.77 Y170.823 E8.22921
G1 X142.749 Y170.045 E8.3273
G1 X142.764 Y169.295 E8.42184
G1 X142.811 Y168.546 E8.51642
G1 X142.891 Y167.8 E8.61098
G1 X143.003 Y167.058 E8.70556
G1 X143.147 Y166.321 E8.8002
G1 X143.319 Y165.61 E8.89239
G1 X143.532 Y164.871 E8.98932
G1 X143.771 Y164.16 E9.08386
G1 X144.041 Y163.46 E9.17842
G1 X144.342 Y162.772 E9.27307
G1 X144.908 Y161.665 E9.42977
G1 X145.389 Y160.847 E9.54937
G1 X145.834 Y160.172 E9.65127
G1 X146.276 Y159.565 E9.74591
G1 X146.744 Y158.979 E9.84043
;WIDTH:0.944157
G1 X146.831 Y158.846 E9.86153
;WIDTH:0.988315
G1 X146.917 Y158.713 E9.88363
;WIDTH:1.03247
G1 X147.004 Y158.58 E9.90688
;WIDTH:1.07663
G1 X147.09 Y158.447 E9.93112
;WIDTH:1.11073
G1 X147.143 Y158.365 E9.94657
;WIDTH:1.14483
G1 X147.195 Y158.282 E9.96258
;WIDTH:1.17894
G1 X147.247 Y158.199 E9.9791
G1 X147.121 Y158.246 E10.00178
;WIDTH:1.13171
G1 X146.995 Y158.292 E10.02343
;WIDTH:1.08449
G1 X146.868 Y158.339 E10.04431
;WIDTH:1.03727
G1 X146.742 Y158.386 E10.06408
;WIDTH:0.990045
G1 X146.616 Y158.432 E10.08283
;WIDTH:0.942823
G1 X145.828 Y158.691 E10.1928
;WIDTH:0.9
G1 X145.15 Y158.79 E10.27916
G1 X144.557 Y158.769 E10.35394
G1 X144.025 Y158.684 E10.42184
G1 X143.488 Y158.508 E10.49306
G1 X143.005 Y158.263 E10.56132
G1 X142.428 Y157.836 E10.65179
G1 X142.112 Y157.52 E10.70811
G1 X141.791 Y157.112 E10.77354
G1 X141.514 Y156.617 E10.84503
G1 X141.285 Y155.996 E10.92845
G1 X141.161 Y155.225 E11.02687
G1 X141.184 Y154.514 E11.11653
G1 X141.29 Y154.01 E11.18144
G1 X141.515 Y153.381 E11.26563
;WIDTH:0.940755
G1 X141.558 Y153.26 E11.28261
;WIDTH:0.981511
G1 X141.601 Y153.138 E11.30052
;WIDTH:1.02227
G1 X141.645 Y153.016 E11.31929
;WIDTH:1.06302
G1 X141.688 Y152.894 E11.33882
;WIDTH:1.11098
G1 X141.73 Y152.798 E11.3554
;WIDTH:1.15894
G1 X141.772 Y152.702 E11.37275
;WIDTH:1.20691
G1 X141.814 Y152.605 E11.39103
G1 X142.204 Y152.177 E11.49116
;WIDTH:1.20234
G1 X142.543 Y151.9 E11.56656
;WIDTH:1.2303
G1 X142.881 Y151.623 E11.64369
G1 X142.981 Y151.598 E11.66188
;WIDTH:1.18259
G1 X143.082 Y151.572 E11.67953
;WIDTH:1.13488
G1 X143.182 Y151.547 E11.69622
;WIDTH:1.08717
G1 X143.282 Y151.521 E11.7122
;WIDTH:1.03945
G1 X143.382 Y151.496 E11.72739
;WIDTH:0.99174
G1 X143.482 Y151.47 E11.74186
;WIDTH:0.944027
G1 X144.157 Y151.284 E11.83481
;WIDTH:0.9
G1 X144.72 Y151.212 E11.90634
G1 X145.429 Y151.234 E11.99574
G1 X146.191 Y151.415 E12.09445
G1 X146.934 Y151.766 E12.19802
G1 X147.487 Y152.178 E12.28493
G1 X147.829 Y152.534 E12.34715
G1 X148.167 Y152.98 E12.41768
G1 X148.42 Y153.456 E12.48562
G1 X148.598 Y153.961 E12.55311
G1 X148.702 Y154.462 E12.6176
G1 X148.746 Y155.105 E12.69883
G1 X148.667 Y155.785 E12.78511
G1 X148.521 Y156.286 E12.85088
;WIDTH:0.942307
G1 X148.471 Y156.436 E12.87183
;WIDTH:0.984615
G1 X148.422 Y156.587 E12.89389
;WIDTH:1.02692
G1 X148.372 Y156.738 E12.91702
;WIDTH:1.06923
G1 X148.323 Y156.888 E12.94099
;WIDTH:1.11154
G1 X148.273 Y157.039 E12.96618
;WIDTH:1.15205
G1 X148.234 Y157.142 E12.9843
;WIDTH:1.19256
G1 X148.195 Y157.244 E13.00294
G1 X148.299 Y157.182 E13.02361
;WIDTH:1.14832
G1 X148.403 Y157.119 E13.04355
;WIDTH:1.10408
G1 X148.507 Y157.057 E13.06259
;WIDTH:1.05984
G1 X148.611 Y156.995 E13.08081
;WIDTH:1.01559
G1 X148.715 Y156.932 E13.09828
;WIDTH:0.971353
G1 X149.018 Y156.706 E13.15004
;WIDTH:0.935676
G1 X149.321 Y156.48 E13.19974
;WIDTH:0.9
G1 X150.013 Y155.962 E13.30868
G1 X150.528 Y155.613 E13.38709
G1 X151.31 Y155.127 E13.50313
G1 X151.967 Y154.765 E13.59767
G1 X152.491 Y154.504 E13.67145
G1 X153.325 Y154.127 E13.7868
G1 X154.036 Y153.849 E13.88302
G1 X154.734 Y153.61 E13.97601
G1 X155.454 Y153.398 E14.07061
G1 X156.077 Y153.244 E14.15149
G1 X156.918 Y153.07 E14.25973
G1 X157.659 Y152.954 E14.35426
G1 X158.264 Y152.885 E14.431
G1 X159.167 Y152.819 E14.54511
G1 X159.904 Y152.801 E14.63802
G1 X160.654 Y152.815 E14.73256
G1 X161.403 Y152.862 E14.82714
G1 X162.149 Y152.942 E14.9217
G1 X162.891 Y153.054 E15.01628
G1 X163.419 Y153.157 E15.08408
G1 X164.357 Y153.375 E15.20545
G1 X165.078 Y153.583 E15.30003
G1 X165.647 Y153.774 E15.37568
G1 X166.489 Y154.093 E15.48916
G1 X167.177 Y154.393 E15.58376
G1 X168.28 Y154.957 E15.73989
G1 X169.098 Y155.437 E15.85942
G1 X169.777 Y155.885 E15.96195
G1 X170.814 Y156.67 E16.12587
;WIDTH:0.94163
G1 X170.961 Y156.768 E16.14926
;WIDTH:0.98326
G1 X171.109 Y156.867 E16.17397
;WIDTH:1.02489
G1 X171.256 Y156.965 E16.19961
;WIDTH:1.06652
G1 X171.404 Y157.063 E16.2265
;WIDTH:1.10925
G1 X171.504 Y157.123 E16.24493
;WIDTH:1.15197
G1 X171.604 Y157.183 E16.26412
;WIDTH:1.1947
